/* XPM */
static char * breackable5_xpm[] = {
"32 32 350 2",
"  	c #A8D7DE",
". 	c #ABD8DF",
"+ 	c #CFE7E7",
"@ 	c #AFDADF",
"# 	c #CAE4E5",
"$ 	c #A9D3DB",
"% 	c #9CC5D4",
"& 	c #A8D3DB",
"* 	c #CCE4E5",
"= 	c #CBE2E5",
"- 	c #AAD5E4",
"; 	c #8D86F5",
"> 	c #8898F4",
", 	c #6DE3F7",
"' 	c #8BE8F8",
") 	c #CDF9F9",
"! 	c #CBF0F1",
"~ 	c #9DC5D6",
"{ 	c #9CC7D1",
"] 	c #96C9D8",
"^ 	c #BAE7EB",
"/ 	c #CEECEC",
"( 	c #C8DFE2",
"_ 	c #BED3DC",
": 	c #AEDDE4",
"< 	c #BDE8F6",
"[ 	c #8D85F3",
"} 	c #929DF5",
"| 	c #7CE7F8",
"1 	c #9AECFB",
"2 	c #D5FCFC",
"3 	c #BCF4F8",
"4 	c #80E0F1",
"5 	c #A6D7DE",
"6 	c #9BC4D1",
"7 	c #97C3CB",
"8 	c #8585E3",
"9 	c #8E7CF3",
"0 	c #8C84F3",
"a 	c #929BF6",
"b 	c #A3E0EC",
"c 	c #BED3DB",
"d 	c #BDD3D5",
"e 	c #9DCAD1",
"f 	c #98DBE7",
"g 	c #8CD5ED",
"h 	c #8681E8",
"i 	c #5B697B",
"j 	c #74749A",
"k 	c #998BF5",
"l 	c #A491F8",
"m 	c #A08FF7",
"n 	c #979CF6",
"o 	c #C6F7F8",
"p 	c #B7E6EA",
"q 	c #97C3CE",
"r 	c #70BFDE",
"s 	c #7F5EEF",
"t 	c #9080F3",
"u 	c #968AF5",
"v 	c #8D97F3",
"w 	c #55D1EF",
"x 	c #69D3E6",
"y 	c #BCE8EF",
"z 	c #BDF2F7",
"A 	c #6BE3F6",
"B 	c #71D8F6",
"C 	c #9186E9",
"D 	c #6D7180",
"E 	c #857DA0",
"F 	c #9799F5",
"G 	c #C6F5F7",
"H 	c #A5D8E0",
"I 	c #90C6D8",
"J 	c #7F71E1",
"K 	c #7152D6",
"L 	c #575B7B",
"M 	c #676C7E",
"N 	c #666D7E",
"O 	c #646093",
"P 	c #7C5CEA",
"Q 	c #7957E3",
"R 	c #7D5DEB",
"S 	c #8680E7",
"T 	c #59677B",
"U 	c #5B687B",
"V 	c #7D7886",
"W 	c #7B7785",
"X 	c #696F7E",
"Y 	c #656B7D",
"Z 	c #646091",
"` 	c #795CE3",
" .	c #8895F3",
"..	c #8EDDEB",
"+.	c #5FC2E3",
"@.	c #7657DE",
"#.	c #5A5A77",
"$.	c #482F85",
"%.	c #7A5BE6",
"&.	c #8A7AF1",
"*.	c #7D7AE6",
"=.	c #4C6278",
"-.	c #7E7986",
";.	c #4C5E76",
">.	c #565A76",
",.	c #432D7D",
"'.	c #7C62E5",
").	c #7378E4",
"!.	c #75E0F4",
"~.	c #A8D4DC",
"{.	c #748FA4",
"].	c #2D0348",
"^.	c #341C5C",
"/.	c #62657C",
"(.	c #5F6278",
"_.	c #372063",
":.	c #2C0848",
"<.	c #402775",
"[.	c #4A6178",
"}.	c #61657A",
"|.	c #5A5B74",
"1.	c #2C184B",
"2.	c #646392",
"3.	c #A5CFE1",
"4.	c #8DC0CA",
"5.	c #585775",
"6.	c #361F61",
"7.	c #545976",
"8.	c #351F5E",
"9.	c #636795",
"0.	c #9FC0E6",
"a.	c #A8D6DE",
"b.	c #66C1D8",
"c.	c #392266",
"d.	c #3A2269",
"e.	c #311C57",
"f.	c #505678",
"g.	c #486077",
"h.	c #506379",
"i.	c #535A74",
"j.	c #341D5C",
"k.	c #58617B",
"l.	c #636D97",
"m.	c #99AEEC",
"n.	c #A0D9E2",
"o.	c #71D3E8",
"p.	c #2C254E",
"q.	c #4C5974",
"r.	c #395874",
"s.	c #3C5975",
"t.	c #465874",
"u.	c #59687D",
"v.	c #5B6982",
"w.	c #666F9B",
"x.	c #918BF4",
"y.	c #95A2F0",
"z.	c #ABDAE0",
"A.	c #A2BEE8",
"B.	c #4B5675",
"C.	c #415B75",
"D.	c #445C75",
"E.	c #425874",
"F.	c #2C1F4B",
"G.	c #4F5E76",
"H.	c #ACB0F1",
"I.	c #8D80E8",
"J.	c #495974",
"K.	c #2A1747",
"L.	c #4F5A74",
"M.	c #C5F7F8",
"N.	c #9A90F5",
"O.	c #775ED9",
"P.	c #626C7D",
"Q.	c #4F5775",
"R.	c #2C1C4A",
"S.	c #7FE6F6",
"T.	c #C7DCE8",
"U.	c #9081EF",
"V.	c #7455D9",
"W.	c #372F54",
"X.	c #575776",
"Y.	c #69677B",
"Z.	c #341A5B",
"`.	c #8B83F0",
" +	c #8796F1",
".+	c #6EDFF6",
"++	c #80E3F6",
"@+	c #B6D9DD",
"#+	c #32264D",
"$+	c #4F6178",
"%+	c #37265A",
"&+	c #5F627B",
"*+	c #5F6579",
"=+	c #565B74",
"-+	c #2F174C",
";+	c #58687B",
">+	c #8AD0DD",
",+	c #2F1B52",
"'+	c #4B5B78",
")+	c #68647D",
"!+	c #2E1E49",
"~+	c #2B1B49",
"{+	c #435178",
"]+	c #3B5874",
"^+	c #626C95",
"/+	c #8697F0",
"(+	c #7CD3E3",
"_+	c #544F7B",
":+	c #535A79",
"<+	c #6F7281",
"[+	c #646379",
"}+	c #402E6E",
"|+	c #465974",
"1+	c #5C8597",
"2+	c #6FD0E8",
"3+	c #596379",
"4+	c #3B2F5F",
"5+	c #6F6B7E",
"6+	c #7D7986",
"7+	c #65697B",
"8+	c #392F5A",
"9+	c #3B236C",
"0+	c #9DB9E8",
"a+	c #706D80",
"b+	c #321F50",
"c+	c #2E3054",
"d+	c #30375A",
"e+	c #405974",
"f+	c #AAD8DF",
"g+	c #939AF1",
"h+	c #322252",
"i+	c #392F5C",
"j+	c #331759",
"k+	c #344464",
"l+	c #5A687F",
"m+	c #5F6B8D",
"n+	c #6187A3",
"o+	c #8982E8",
"p+	c #5D6A7C",
"q+	c #6B6F7F",
"r+	c #32234C",
"s+	c #3B2F60",
"t+	c #392F59",
"u+	c #2F3054",
"v+	c #2E2152",
"w+	c #2C1C49",
"x+	c #919DF1",
"y+	c #8A92F5",
"z+	c #8F93E9",
"A+	c #9BB5E9",
"B+	c #6FE2F6",
"C+	c #7CD8EB",
"D+	c #787684",
"E+	c #6E6B7E",
"F+	c #526278",
"G+	c #536579",
"H+	c #86DFED",
"I+	c #8ADBEE",
"J+	c #837C9B",
"K+	c #67678D",
"L+	c #3D246E",
"M+	c #616C92",
"N+	c #606F92",
"O+	c #5B7F92",
"P+	c #6483A6",
"Q+	c #8C97F3",
"R+	c #BEDFE4",
"S+	c #B5E0E7",
"T+	c #98DFFA",
"U+	c #9B88F5",
"V+	c #7151D6",
"W+	c #2E124B",
"X+	c #6DE3F6",
"Y+	c #9BDAE4",
"Z+	c #F8F8F8",
"`+	c #C1E0EB",
" @	c #9495F3",
".@	c #726EDF",
"+@	c #3E2170",
"@@	c #453882",
"#@	c #597790",
"$@	c #5C7E93",
"%@	c #606C90",
"&@	c #58677B",
"*@	c #341E54",
"=@	c #717496",
"-@	c #6974A7",
";@	c #8996F5",
">@	c #87A6F6",
",@	c #7CE6F6",
"'@	c #8FDEEC",
")@	c #B6DCE2",
"!@	c #E9F1F2",
"~@	c #C5E0E3",
"{@	c #A4D0DA",
"]@	c #59C4E5",
"^@	c #8792F3",
"/@	c #5E697B",
"(@	c #61637A",
"_@	c #382264",
":@	c #402475",
"<@	c #8894F3",
"[@	c #6CE1F6",
"}@	c #C0EFF1",
"|@	c #AAD9E0",
"1@	c #B4DBE1",
"2@	c #99C3CB",
"3@	c #85BDD6",
"4@	c #7375E3",
"5@	c #738CE6",
"6@	c #7FE5F6",
"7@	c #82DDF6",
"8@	c #9099EA",
"9@	c #5B8396",
"0@	c #5D8095",
"a@	c #6B7084",
"b@	c #6B6A96",
"c@	c #4B3F8C",
"d@	c #7288E5",
"e@	c #6ED5F0",
"f@	c #8CDEED",
"g@	c #98C4CC",
"h@	c #78CADA",
"i@	c #6DD5E6",
"j@	c #C4F4F5",
"k@	c #BAF0F5",
"l@	c #75E1F3",
"m@	c #6F7299",
"n@	c #9488F4",
"o@	c #8797F4",
"p@	c #6AD5E7",
"q@	c #B5E2E4",
"r@	c #A4CCD3",
"s@	c #B3DBE0",
"t@	c #A1D5E2",
"u@	c #91A1E4",
"v@	c #678393",
"w@	c #6C8A9A",
"x@	c #708B9A",
"y@	c #80919A",
"z@	c #798DAA",
"A@	c #97B6EC",
"B@	c #8BDDEC",
"C@	c #98DDE8",
"D@	c #B0DCE2",
"E@	c #9EC4CD",
"F@	c #A0C5CE",
"G@	c #BDD1D4",
"H@	c #B9CFD3",
"I@	c #9DC3CC",
"                          . + + + +           @ + + + #         ",
"                $ % &     . * = + +     - ; > , ' ) ! #         ",
"              & ~ { ] ^ / + ( _ &     : < [ } | 1 2 3 4 5       ",
"              6 7 8 9 0 a b c d e f g ; h i j k l m n o p       ",
"              q r s t u v w x y z A B [ C D E l u u F G 3 H     ",
"            I J K L M N O P Q R S T U i D D V W X Y Z `  ...    ",
"          7 +.Q @.Y X #.$.Q %.&.*.=.X D -.V X X ;.>.,.'.).!.    ",
"        ~.{.].^./.X (._.:.:.<.[.[.=.D D V W X }.|.1.:.:.2.0 3.  ",
"        4.:.:.5.X }.:.:.6.7.;.[.X D -.V X X ;.5.8.:.:.:.9.0 0.  ",
"      a.b.:.:.c.|.d.:.e.f.g.=.h.D D V W X N i._.:.j.i.k.l.0 m.  ",
"      n.o.:.:.:.8.:.p.q.r.s.X D -.V X X r.t.8.:.:.>.u.v.w.x.y.  ",
"    z.A.C #._.:.:.:.B.r.C.D.D D V W N Y E.F.:.:.:.G.l.0 n o o   ",
"    + H.I.8.:._.:.:.i.s.X D -.V X X r.J.F.:.K.L.;.[.l.0 n M.o   ",
"    + N.O.:._.5._.:._.L.X D W W N P.Q.8.:.:.R.g.g.[.l.0 > A S.  ",
"    T.U.V.W._.G.X.8.:.:.K.Y.X X r.i.Z.:.K.q.;.g.g.[.l.`. +.+++  ",
"@ @ @+#+:._.>.;.$+5._.:.%+_.&+*+=+_.:.-+:.t.g.g.g.[.;+;+l.0 >   ",
"+ + >+e.:.:.,+'+X X )+!+%+:.e.c.:.:.~+J.{+]+g.g.g.[.;+;+^+`./+z.",
"# # (+_+c.:.8.:+D <+W [+_.}+:.:.:._.|+r.r.]+g.g.g.[.;+;+;+;+1+z.",
"  5 2+3+d.:.4+1.5+6+7+_.8+W.8.:.:.9+L.i.]+]+g.g.g.[.;+;+;+;+1+  ",
"  0+h ;+#._.:.K.[+a+:.b+c+L.B.t.d+:.:.9+e+]+g.g.g.[.;+;+;+;+1+  ",
"f+g+h ;+7+h+:.i+j+8.:.k+r.r.r.r.|+8.:._.=+e+g.g.g.[.;+;+l+m+n+  ",
"f+; o+p+<+q+r+s+:.t+u+s.s.s.s.s.s.v+:.:.w+J.g.g.h.h.;+;+l.0 x+  ",
"  y+z+X -.6+}.8.:.c.;.g.g.g.g.g.g.w+:.d.=+=+[.=.X X ;+;+l.0 A+  ",
"  B+C+<+D+E+#+:.:.c.[.g.g.g.g.g.g.;.e.:.:.F.F+G+X N ;+;+l.0 0.  ",
"  H+I+J+K+8.:.c.=+G.g.g.g.g.g.g.g.;.L+:.K.=+(.Y l+M+N+O+P+Q+5   ",
"R+S+T+U+V+:.:.c.$+=.=.=.=.=.=.=.=.=.=+8.W+:.:.X l.0 > A X+Y+  @ ",
"Z+Z+`+ @.@+@@@#@$@^+%@;+;+;+;+;+;+;+&@#.8.W+*@=@-@;@>@,@'@    )@",
"!@!@~@{@]@Q ^@A B 0 h ;+;+;+;+;+;+;+p+/@(@_@:@Q <@[@S.}@|@    1@",
"    ~.2@3@4@5@6@7@n 8@9@0@^+M+;+;+i X X a@b@c@4@d@e@f@f+        ",
"      ~.g@h@i@o o j@k@l@B 0 h ;+p+p+X X m@n@o@[@p@q@r@s@s@s@    ",
"                        t@A+u@v@w@w@x@y@z@y.A@B@C@D@+ + + #     ",
"E@E@E@E@E@E@E@E@E@E@E@E@E@E@E@F@G@G@G@G@E@E@E@E@E@F@G@G@G@H@E@I@"};
