/* XPM */
static char * breackable2_xpm[] = {
"32 32 334 2",
"  	c #A8D7DE",
". 	c #A7D5DD",
"+ 	c #ADD9DF",
"@ 	c #CDE6E6",
"# 	c #CCE6E6",
"$ 	c #ABC5D2",
"% 	c #6C78B1",
"& 	c #AAC6D4",
"* 	c #C3D9DE",
"= 	c #BFD3DD",
"- 	c #A8D6E0",
"; 	c #A2C7E4",
"> 	c #A1CAE4",
", 	c #A0DCE5",
"' 	c #BFE7EB",
") 	c #CDEBEB",
"! 	c #CDE9E9",
"~ 	c #7179BC",
"{ 	c #6F879F",
"] 	c #6678A9",
"^ 	c #ADCEDD",
"/ 	c #CDE7E7",
"( 	c #B3C6D3",
"_ 	c #7B7EB3",
": 	c #AAD9DF",
"< 	c #AEDBE4",
"[ 	c #A6C8E4",
"} 	c #C0D7EA",
"| 	c #C3E8ED",
"1 	c #E5F5F9",
"2 	c #EBF7F7",
"3 	c #ADDFE5",
"4 	c #9FD9E3",
"5 	c #6672A1",
"6 	c #58687C",
"7 	c #5C58A6",
"8 	c #A4AFDC",
"9 	c #A2C6E4",
"0 	c #BCD1E9",
"a 	c #AAC9D7",
"b 	c #797DAF",
"c 	c #737D8F",
"d 	c #607F87",
"e 	c #A4D8E0",
"f 	c #A2D7E2",
"g 	c #A0C6E0",
"h 	c #9DC5CC",
"i 	c #BFD1D7",
"j 	c #C7D6EC",
"k 	c #E6E4F8",
"l 	c #DBDFF4",
"m 	c #A4CAE4",
"n 	c #B0E0E5",
"o 	c #ACDBE1",
"p 	c #5A6D82",
"q 	c #486987",
"r 	c #6F55D2",
"s 	c #ADBCE4",
"t 	c #C1D4EA",
"u 	c #B2C5E1",
"v 	c #597FBF",
"w 	c #427189",
"x 	c #7988B6",
"y 	c #AED5DF",
"z 	c #9CDAE4",
"A 	c #9DD7E4",
"B 	c #C0D3E7",
"C 	c #C1D3D5",
"D 	c #E2E1E6",
"E 	c #E5E3F7",
"F 	c #A5C3E0",
"G 	c #B1D9E1",
"H 	c #A7D7DE",
"I 	c #7096A2",
"J 	c #4E4088",
"K 	c #463181",
"L 	c #96ABCA",
"M 	c #B6CAD0",
"N 	c #B3CDD0",
"O 	c #9DABC6",
"P 	c #614DB8",
"Q 	c #492D87",
"R 	c #644FBE",
"S 	c #A0C4E0",
"T 	c #99C3CB",
"U 	c #9EC4CC",
"V 	c #E0E0E2",
"W 	c #DCDEE0",
"X 	c #BAD0D2",
"Y 	c #B2C9D0",
"Z 	c #9DACC0",
"` 	c #4C4C8B",
" .	c #A2C2E0",
"..	c #A2D9E1",
"+.	c #586B7C",
"@.	c #436D8B",
"#.	c #614FB2",
"$.	c #9CAAC2",
"%.	c #52429C",
"&.	c #5447A1",
"*.	c #99ADDB",
"=.	c #80B8D9",
"-.	c #7FB8C5",
";.	c #E1E1E2",
">.	c #80B1C1",
",.	c #94A9C1",
"'.	c #423A7E",
").	c #60659C",
"!.	c #455189",
"~.	c #9DD9E4",
"{.	c #A9CDD8",
"].	c #595E99",
"^.	c #2D074A",
"/.	c #473885",
"(.	c #ADBECE",
"_.	c #A6B9C4",
":.	c #4F4096",
"<.	c #2D094A",
"[.	c #654CBF",
"}.	c #7AB6C4",
"|.	c #ABBEC8",
"1.	c #9CABBC",
"2.	c #2C3054",
"3.	c #9CB0C4",
"4.	c #A7D5DF",
"5.	c #6F949C",
"6.	c #98A4BE",
"7.	c #4C3D91",
"8.	c #90A8C1",
"9.	c #99A5BE",
"0.	c #483D8A",
"a.	c #9BB8C8",
"b.	c #A6D2E0",
"c.	c #5475A9",
"d.	c #53429D",
"e.	c #5643A4",
"f.	c #3D3876",
"g.	c #89A3C6",
"h.	c #76B4C3",
"i.	c #87BBC7",
"j.	c #8DA9BC",
"k.	c #453985",
"l.	c #98B7CA",
"m.	c #9AC3CF",
"n.	c #A4CEE2",
"o.	c #A6D7DF",
"p.	c #ADD2DE",
"q.	c #2D495D",
"r.	c #7FA8BC",
"s.	c #55A6BC",
"t.	c #5CA8BE",
"u.	c #73A6BD",
"v.	c #99C3CC",
"w.	c #9BC4D0",
"x.	c #A3C7E4",
"y.	c #A4CBE3",
"z.	c #AAD3E1",
"A.	c #7EA3BF",
"B.	c #67ABBE",
"C.	c #6EADBF",
"D.	c #68A7BC",
"E.	c #2A3D53",
"F.	c #86B1C0",
"G.	c #C6DAE9",
"H.	c #B6C4E3",
"I.	c #79A8BC",
"J.	c #252E46",
"K.	c #86AABC",
"L.	c #C2D5EA",
"M.	c #656A97",
"N.	c #ADCAD0",
"O.	c #86A4BE",
"P.	c #2D3950",
"Q.	c #9FDBE4",
"R.	c #CBE3E7",
"S.	c #B2C2E0",
"T.	c #5E4BB3",
"U.	c #4E5C6F",
"V.	c #96A4C0",
"W.	c #BAC1CB",
"X.	c #453482",
"Y.	c #A1C6E3",
"Z.	c #A1C9E3",
"`.	c #9CD9E4",
" +	c #9FDAE4",
".+	c #C7E3E4",
"++	c #404C5A",
"@+	c #86B6C4",
"#+	c #4F4C80",
"$+	c #A6B8CB",
"%+	c #A6BDC7",
"&+	c #94ABBD",
"*+	c #382F55",
"=+	c #A1D5DE",
"-+	c #373769",
";+	c #7DACC6",
">+	c #B8BCCF",
",+	c #343B4E",
"'+	c #27364B",
")+	c #6C9AC6",
"!+	c #58A6BC",
"~+	c #A0C9E3",
"{+	c #9ED6DF",
"]+	c #9095CC",
"^+	c #8DA9C7",
"/+	c #C4D5D7",
"(+	c #B0BBC7",
"_+	c #645AAE",
":+	c #71A7BC",
"<+	c #99C7CF",
"[+	c #9CD5E0",
"}+	c #9ABBC7",
"|+	c #585B8D",
"1+	c #C4C9D1",
"2+	c #E0E1E2",
"3+	c #B2C5CC",
"4+	c #535C7F",
"5+	c #5946AA",
"6+	c #A5D0E1",
"7+	c #C7CDD6",
"8+	c #403D64",
"9+	c #345D70",
"0+	c #3A6B7F",
"a+	c #64A7BD",
"b+	c #A9D7DE",
"c+	c #A3CAE3",
"d+	c #3F4269",
"e+	c #555C85",
"f+	c #432E7D",
"g+	c #458398",
"h+	c #9AC3CE",
"i+	c #9AC7D1",
"j+	c #AAC9E2",
"k+	c #A3C6CD",
"l+	c #BED0D3",
"m+	c #3F4555",
"n+	c #595C8F",
"o+	c #535C7D",
"p+	c #375E70",
"q+	c #354269",
"r+	c #2A384C",
"s+	c #A1C9E4",
"t+	c #C0D5E7",
"u+	c #A5CFE1",
"v+	c #C6E6EB",
"w+	c #D6DCDE",
"x+	c #C3C9D0",
"y+	c #8CB8C5",
"z+	c #8EBDC7",
"A+	c #A0D9E2",
"B+	c #E3F1F5",
"C+	c #E2E1E5",
"D+	c #ABBBCB",
"E+	c #5D48B0",
"F+	c #9AC4CE",
"G+	c #99C6CE",
"H+	c #9BC6D2",
"I+	c #A2CAE4",
"J+	c #BEDFE3",
"K+	c #BCDFE4",
"L+	c #E0F0F6",
"M+	c #CDD0ED",
"N+	c #462981",
"O+	c #332353",
"P+	c #A5D8E0",
"Q+	c #F8F8F8",
"R+	c #CAE5E7",
"S+	c #B2C2E1",
"T+	c #5B51B1",
"U+	c #321255",
"V+	c #53479D",
"W+	c #95ADC5",
"X+	c #99C6CF",
"Y+	c #98C1CA",
"Z+	c #3B3555",
"`+	c #BBD1D6",
" @	c #9BC4D2",
".@	c #A1CCE4",
"+@	c #A2D9E2",
"@@	c #B4DBE0",
"#@	c #EAF3F3",
"$@	c #BED6DD",
"%@	c #647898",
"&@	c #3C6888",
"*@	c #A0B8DE",
"=@	c #A4C5CC",
"-@	c #AABBC8",
";@	c #514398",
">@	c #331357",
",@	c #A2BEDE",
"'@	c #9CD3E1",
")@	c #AEDDE3",
"!@	c #A9D8DE",
"~@	c #B3DBE0",
"{@	c #59687C",
"]@	c #4F6581",
"^@	c #473D88",
"/@	c #4D628F",
"(@	c #9ED9E4",
"_@	c #A0D8E4",
":@	c #A2CAE1",
"<@	c #9AC6CF",
"[@	c #BBD0D3",
"}@	c #AEBFD2",
"|@	c #364062",
"1@	c #464888",
"2@	c #6281C4",
"3@	c #A2CFDC",
"4@	c #5F7484",
"5@	c #496C83",
"6@	c #4A828F",
"7@	c #AFDEE4",
"8@	c #AFDFE4",
"9@	c #ADDEE4",
"0@	c #9DDAE4",
"a@	c #B4CDD4",
"b@	c #BAD0E8",
"c@	c #A0C8E3",
"d@	c #49828F",
"e@	c #76929B",
"f@	c #6F8995",
"g@	c #A3CBDF",
"h@	c #9FC8CF",
"i@	c #BBD4D6",
"j@	c #BDD5D6",
"k@	c #9EC8D3",
"l@	c #A4CFE2",
"m@	c #A1D9E2",
"n@	c #A4D9E1",
"o@	c #AEDAE0",
"p@	c #9EC4CD",
"q@	c #A1C5CE",
"r@	c #BDD1D4",
"s@	c #B9CFD3",
"                  .       + @ @ @ @           + @ @ @ #         ",
"                $ % &     + * = @ @     - ; > , ' ) ! #         ",
"              & ~ { ] ^ / @ ( _ &     : < [ } | 1 2 3 4         ",
"            . 5 6 7 8 9 0 a b c d e f ; g h i j k l m n o       ",
"              p q r s t u v w x y z A [ B C D E t t F G 3 H     ",
"            I J K L M N O P Q R S T U h C C V W X Y Z `  ...    ",
"        . +.@.Q #.Y X $.%.Q &.*.=.-.X C ;.V X X >.,.'.).!.~.    ",
"        {.].^./.(.X _.:.<.<.[.}.}.-.C C V W X |.1.2.<.<.3.9 4.  ",
"        5.<.<.6.X |.<.<.7.8.>.}.X C ;.V X X >.9.0.<.<.<.a.9 b.  ",
"      b.c.<.<.d.1.e.<.f.g.h.-.i.C C V W X N j.:.<.k.j.l.m.9 n.  ",
"      o.p.<.<.<.0.<.q.r.s.t.X C ;.V X X s.u.0.<.<.,.T v.w.x.y.  ",
"    + z.B $.:.<.<.<.A.s.B.C.C C V W N Y D.E.<.<.<.F.m.9 m n n   ",
"    @ G.H.0.<.:.<.<.j.t.X C ;.V X X s.I.E.<.J.K.>.}.m.9 m n n   ",
"    @ L.M.<.:.9.:.<.:.K.X C W W N N.O.0.<.<.P.h.h.}.m.9 > z Q.  ",
"    R.S.T.U.:.F.V.0.<.<.J.W.X X s.j.X.<.J.r.>.h.h.}.m.Y.Z.`. +  ",
"+ + .+++<.:.,.>.@+9.:.<.#+:.$+%+&+:.<.*+<.u.h.h.h.}.T T m.9 >   ",
"@ @ =+f.<.<.-+;+X X >+,+#+<.f.d.<.<.'+I.)+!+h.h.h.}.T T m.Y.~++ ",
"# # {+]+d.<.0.^+C /+W (+:._+<.<.<.:.:+s.s.!+h.h.h.}.T T T T <++ ",
"    [+}+e.<.|+2.1+2+3+:.4+U.0.<.<.5+K.j.!+!+h.h.h.}.T T T T <+  ",
"  6+g T $.:.<.J.(+7+<.8+9+K.A.u.0+<.<.5+a+!+h.h.h.}.T T T T <+  ",
"b+c+g T 3+d+<.e+f+0.<.g+s.s.s.s.:+0.<.:.&+a+h.h.h.}.T T v.h+i+  ",
"b+; j+k+/+l+m+n+<.o+p+t.t.t.t.t.t.q+<.<.r+I.h.h.i.i.T T m.9 c+  ",
"  s+t+X ;.2+|.0.<.d.>.h.h.h.h.h.h.r+<.e.&+&+}.-.X X T T m.9 u+  ",
"  z v+/+w+x+++<.<.d.}.h.h.h.h.h.h.>.f.<.<.E.y+z+X N T T m.9 b.  ",
"  A+B+C+D+0.<.d.&+F.h.h.h.h.h.h.h.>.E+<.J.&+_.Y v.h+F+G+H+I+    ",
"J+K+L+M+N+<.<.d.@+-.-.-.-.-.-.-.-.-.&+0.O+<.<.X m.9 > z z P+  + ",
"Q+Q+R+S+T+U+V+W+X+m.h+T T T T T T T Y+$.0.O+Z+`+ @s+.@Q.+@    @@",
"#@#@$@%@&@Q *@z A 9 g T T T T T T T k+=@-@;@>@Q ,@'@Q.)@!@    ~@",
"    {.{@]@^@/@(@_@m :@X+<@m.h+T T h X X [@}@|@^@1@2@3@b+        ",
"      {.4@5@6@7@n 8@9@0@A 9 g T k+k+X X a@b@c@'@d@e@f@~@~@~@    ",
"                        o.u+g@h@i@i@i@j@k@y.l@m@n@o@@ @ @ #     ",
"p@p@p@p@p@p@p@p@p@p@p@p@p@p@p@q@r@r@r@r@p@p@p@p@p@q@r@r@r@s@p@p@"};
