/* XPM */
static char * breackable3_xpm[] = {
"32 32 348 2",
"  	c #A8D7DE",
". 	c #A7D6DD",
"+ 	c #ACD9DF",
"@ 	c #CEE6E6",
"# 	c #AED9DF",
"$ 	c #CBE5E6",
"% 	c #AACAD5",
"& 	c #7F97BE",
"* 	c #A9CBD6",
"= 	c #C6DCE0",
"- 	c #C3D8E0",
"; 	c #A9D6E1",
"> 	c #9BB4EA",
", 	c #99BBE9",
"' 	c #92DEEB",
") 	c #B0E7EF",
"! 	c #CDF0F0",
"~ 	c #CCEBEC",
"{ 	c #8298C5",
"] 	c #81A0B1",
"^ 	c #789ABA",
"/ 	c #B1D7E2",
"( 	c #CDE9E9",
"_ 	c #BACFD8",
": 	c #96A1C2",
"< 	c #ABDAE1",
"[ 	c #B3E0EA",
"} 	c #9EB5E9",
"| 	c #B3C6EE",
"1 	c #AFE8F1",
"2 	c #D0F2FA",
"3 	c #E4F9F9",
"4 	c #B3E6EB",
"5 	c #96DBE8",
"6 	c #A7D7DE",
"7 	c #7B94B3",
"8 	c #728F9C",
"9 	c #6C69BD",
"0 	c #9DA0E4",
"a 	c #9BB4E9",
"b 	c #B0C1ED",
"c 	c #A8D1DE",
"d 	c #95A1BF",
"e 	c #91A1AB",
"f 	c #799DA4",
"g 	c #A0D9E2",
"h 	c #9BD6E5",
"i 	c #98B3E3",
"j 	c #8CADB6",
"k 	c #ABB9C5",
"l 	c #B9C2EF",
"m 	c #D3CDF8",
"n 	c #CAC9F5",
"o 	c #A0BDEA",
"p 	c #B8E8EB",
"q 	c #AFDFE4",
"r 	c #7391A1",
"s 	c #588EAB",
"t 	c #7558DC",
"u 	c #A4ABE9",
"v 	c #B4BFED",
"w 	c #A7B7E8",
"x 	c #58A1D0",
"y 	c #519BAF",
"z 	c #94AFCB",
"A 	c #B3DFE7",
"B 	c #8EDDEB",
"C 	c #90D7EB",
"D 	c #B2BEE8",
"E 	c #ABBABE",
"F 	c #C9C7D2",
"G 	c #D2CCF7",
"H 	c #A0B6E7",
"I 	c #B9E3E9",
"J 	c #A6D7DF",
"K 	c #7CA8B6",
"L 	c #6254AD",
"M 	c #573EA4",
"N 	c #8596B5",
"O 	c #A1B2BA",
"P 	c #9FB4BA",
"Q 	c #8D97B7",
"R 	c #6B53CB",
"S 	c #5C3FAD",
"T 	c #6D54CE",
"U 	c #98B1E2",
"V 	c #88ABB5",
"W 	c #C6C5C9",
"X 	c #C3C3C7",
"Y 	c #A5B7BC",
"Z 	c #9EB1B9",
"` 	c #8D98B2",
" .	c #5E52AF",
"..	c #9AB5E7",
"+.	c #9CDAE5",
"@.	c #72909C",
"#.	c #4E90AF",
"$.	c #6952C2",
"%.	c #8A95AE",
"&.	c #4F3C95",
"*.	c #634EBC",
"=.	c #949EE3",
"-.	c #7FA6DE",
";.	c #71A2B0",
">.	c #C7C6CA",
",.	c #729CAD",
"'.	c #8495AD",
").	c #42367E",
"!.	c #6A64B9",
"~.	c #5860AE",
"{.	c #91DBE9",
"].	c #A9CFD9",
"^.	c #63719D",
"/.	c #2D0649",
"(.	c #41307A",
"_.	c #99A7B8",
":.	c #94A2AF",
"<.	c #483788",
"[.	c #2D0949",
"}.	c #5B43AB",
"|.	c #6DA0AF",
"1.	c #98A7B3",
"2.	c #8A96A8",
"3.	c #2C2A51",
"4.	c #8D9CB5",
"5.	c #A6D3E0",
"6.	c #7AA4AD",
"7.	c #8790AA",
"8.	c #463583",
"9.	c #8094AD",
"0.	c #8891AA",
"a.	c #42357D",
"b.	c #8CA2B9",
"c.	c #A4CCE2",
"d.	c #A7D3DF",
"e.	c #5A94BA",
"f.	c #4C3A8E",
"g.	c #4E3B93",
"h.	c #3A306D",
"i.	c #7A8FB1",
"j.	c #699EAE",
"k.	c #78A4B1",
"l.	c #7D95A8",
"m.	c #403279",
"n.	c #87A1B5",
"o.	c #8BADBF",
"p.	c #A1C4E5",
"q.	c #A4D8E0",
"r.	c #9CD2E2",
"s.	c #2D3F58",
"t.	c #7194A8",
"u.	c #4D91A8",
"v.	c #5394AA",
"w.	c #6791A9",
"x.	c #88ABB6",
"y.	c #89ACB8",
"z.	c #8CADC0",
"A.	c #9DB6E9",
"B.	c #9FBFE7",
"C.	c #A8CCE3",
"D.	c #708FAB",
"E.	c #5C96AA",
"F.	c #6298AB",
"G.	c #5E92A8",
"H.	c #2B3550",
"I.	c #779BAC",
"J.	c #BECDEC",
"K.	c #AAB1E5",
"L.	c #6C94A8",
"M.	c #272846",
"N.	c #7795A8",
"O.	c #B7E8EB",
"P.	c #B6C1EE",
"Q.	c #6B66B1",
"R.	c #99B2B9",
"S.	c #7790AA",
"T.	c #2D314E",
"U.	c #95DEEB",
"V.	c #CAE1E7",
"W.	c #A8B0E5",
"X.	c #664EC0",
"Y.	c #475067",
"Z.	c #8590AC",
"`.	c #A4AAB5",
" +	c #402D77",
".+	c #9AB3E7",
"++	c #99BAE8",
"@+	c #8FDBEB",
"#+	c #96DDEB",
"$+	c #C2DFE2",
"%+	c #3C4256",
"&+	c #77A0AF",
"*+	c #484275",
"=+	c #93A2B5",
"-+	c #94A6B1",
";+	c #8396A9",
">+	c #352852",
",+	c #9AD3DE",
"'+	c #342F62",
")+	c #6F97B1",
"!+	c #A3A6B9",
"~+	c #32334C",
"{+	c #292F4A",
"]+	c #6187B1",
"^+	c #5091A8",
"/+	c #8BADBE",
"(+	c #98BBE7",
"_+	c #94D5E0",
":+	c #8083B6",
"<+	c #7D95B2",
"[+	c #AEBBC0",
"}+	c #9CA4B1",
"|+	c #5A4F9D",
"1+	c #6593A8",
"2+	c #89B4BF",
"3+	c #8FD3E3",
"4+	c #88A4B1",
"5+	c #4F4F80",
"6+	c #AEB1BB",
"7+	c #9EAEB6",
"8+	c #4C5074",
"9+	c #513D99",
"0+	c #A3C9E3",
"a+	c #B0B4BF",
"b+	c #3C355E",
"c+	c #325168",
"d+	c #375E74",
"e+	c #5A93A9",
"f+	c #A9D7DE",
"g+	c #9EBCE8",
"h+	c #3B3A62",
"i+	c #4D507A",
"j+	c #3F2873",
"k+	c #407389",
"l+	c #88ABB7",
"m+	c #8AACBB",
"n+	c #8AB5C3",
"o+	c #A0B6E4",
"p+	c #90AFB7",
"q+	c #A8B7BC",
"r+	c #3B3C52",
"s+	c #515082",
"t+	c #4C5073",
"u+	c #345268",
"v+	c #333962",
"w+	c #2B304B",
"x+	c #9DBDE8",
"y+	c #9AB9EA",
"z+	c #B2C2E8",
"A+	c #A2C7E4",
"B+	c #8FDDEA",
"C+	c #B2E2EB",
"D+	c #BDC2C6",
"E+	c #ACB1BA",
"F+	c #7DA2B0",
"G+	c #7EA6B2",
"H+	c #98DBE6",
"I+	c #CBEAF3",
"J+	c #C9C7D0",
"K+	c #99A5B9",
"L+	c #543F9E",
"M+	c #8AACBD",
"N+	c #8AADBD",
"O+	c #89B2BD",
"P+	c #8BB3C5",
"Q+	c #9BBBE9",
"R+	c #BEDFE3",
"S+	c #BADFE5",
"T+	c #CBEAF7",
"U+	c #BEBCF0",
"V+	c #573AA4",
"W+	c #311E51",
"X+	c #8EDDEA",
"Y+	c #A1D9E1",
"Z+	c #F8F8F8",
"`+	c #C7E3E8",
" @	c #A9B5E8",
".@	c #645CC2",
"+@	c #36185F",
"@@	c #4E4295",
"#@	c #859EB5",
"$@	c #89B2BE",
"%@	c #8AACBC",
"&@	c #87AAB5",
"*@	c #392F55",
"=@	c #A7B8C3",
"-@	c #8DAFC5",
";@	c #9ABAEA",
">@	c #99C1EA",
",@	c #94DEEB",
"'@	c #9CDBE5",
")@	c #B5DBE1",
"!@	c #EAF2F3",
"~@	c #C0D9DF",
"{@	c #7E9CB2",
"]@	c #478FAF",
"^@	c #98ADE5",
"/@	c #91AEB6",
"(@	c #97A4B3",
"_@	c #493B89",
":@	c #371A62",
"<@	c #9AB2E5",
"[@	c #8FD8E8",
"}@	c #B4E4E8",
"|@	c #A9D8DF",
"1@	c #B3DBE0",
"2@	c #738F9C",
"3@	c #658BA4",
"4@	c #5955AD",
"5@	c #5C72B2",
"6@	c #95DDEA",
"7@	c #97DAEB",
"8@	c #9DBBE4",
"9@	c #89B3BE",
"0@	c #A5B8BD",
"a@	c #9CA9C0",
"b@	c #3E4072",
"c@	c #5863AF",
"d@	c #66A3D4",
"e@	c #9CD4E2",
"f@	c #7695A1",
"g@	c #5C94A7",
"h@	c #58A4B2",
"i@	c #B7E7EB",
"j@	c #B7E6EA",
"k@	c #B1E4EA",
"l@	c #91DCE9",
"m@	c #A1B5C3",
"n@	c #AFBCEC",
"o@	c #98BAE9",
"p@	c #55A4B3",
"q@	c #8FB2B8",
"r@	c #84A4AD",
"s@	c #A4D6E0",
"t@	c #9DBEE1",
"u@	c #90B5BE",
"v@	c #A6BFC5",
"w@	c #A7C0C5",
"x@	c #ACC2C5",
"y@	c #93B7C6",
"z@	c #A0C7E5",
"A@	c #9BDAE5",
"B@	c #A0DAE3",
"C@	c #AFDBE1",
"D@	c #9EC4CD",
"E@	c #A1C5CE",
"F@	c #BDD1D4",
"G@	c #B9CFD3",
"                  .       + @ @ @ @           # @ @ @ $         ",
"                % & *     + = - @ @     ; > , ' ) ! ~ $         ",
"              * { ] ^ / ( @ _ : *     < [ } | 1 2 3 4 5 6       ",
"            . 7 8 9 0 a b c d e f g h > i j k l m n o p q       ",
"              r s t u v w x y z A B C } D E F G v v H I 4 J     ",
"            K L M N O P Q R S T U V j j E E W X Y Z `  ...+.    ",
"        . @.#.S $.Z Y %.&.S *.=.-.;.Y E >.W Y Y ,.'.).!.~.{.    ",
"        ].^./.(._.Y :.<.[.[.}.|.|.;.E E W X Y 1.2.3.[.[.4.a 5.  ",
"        6.[.[.7.Y 1.[.[.8.9.,.|.Y E >.W Y Y ,.0.a.[.[.[.b.a c.  ",
"      d.e.[.[.f.2.g.[.h.i.j.;.k.E E W X Y P l.<.[.m.l.n.o.a p.  ",
"      q.r.[.[.[.a.[.s.t.u.v.Y E >.W Y Y u.w.a.[.[.'.x.y.z.A.B.  ",
"    + C.D %.<.[.[.[.D.u.E.F.E E W X P Z G.H.[.[.[.I.o.a o p p   ",
"    @ J.K.a.[.<.[.[.l.v.Y E >.W Y Y u.L.H.[.M.N.,.|.o.a o O.p   ",
"    @ P.Q.[.<.0.<.[.<.N.Y E X X P R.S.a.[.[.T.j.j.|.o.a , B U.  ",
"    V.W.X.Y.<.I.Z.a.[.[.M.`.Y Y u.l. +[.M.t.,.j.j.|.o..+++@+#+  ",
"# # $+%+[.<.'.,.&+0.<.[.*+<.=+-+;+<.[.>+[.w.j.j.j.|.V V o.a ,   ",
"@ @ ,+h.[.[.'+)+Y Y !+~+*+[.h.f.[.[.{+L.]+^+j.j.j.|.V V /+.+(++ ",
"$ $ _+:+f.[.a.<+E [+X }+<.|+[.[.[.<.1+u.u.^+j.j.j.|.V V V V 2++ ",
"  6 3+4+g.[.5+3.6+>.7+<.8+Y.a.[.[.9+N.l.^+^+j.j.j.|.V V V V 2+  ",
"  0+i V %.<.[.M.}+a+[.b+c+N.D.w.d+[.[.9+e+^+j.j.j.|.V V V V 2+  ",
"f+g+i V 7+h+[.i+j+a.[.k+u.u.u.u.1+a.[.<.;+e+j.j.j.|.V V l+m+n+  ",
"f+> o+p+[+q+r+s+[.t+u+v.v.v.v.v.v.v+[.[.w+L.j.j.k.k.V V o.a x+  ",
"  y+z+Y >.>.1.a.[.f.,.j.j.j.j.j.j.w+[.g.;+;+|.;.Y Y V V o.a A+  ",
"  B+C+[+D+E+%+[.[.f.|.j.j.j.j.j.j.,.h.[.[.H.F+G+Y P V V o.a c.  ",
"  H+I+J+K+a.[.f.;+I.j.j.j.j.j.j.j.,.L+[.M.;+:.Z l+M+N+O+P+Q+6   ",
"R+S+T+U+V+[.[.f.&+;.;.;.;.;.;.;.;.;.;+a.W+[.[.Y o.a , B X+Y+  # ",
"Z+Z+`+ @.@+@@@#@$@/+%@V V V V V V V &@%.a.W+*@=@-@;@>@,@'@    )@",
"!@!@~@{@]@S ^@B C a i V V V V V V V p+/@(@_@:@S <@[@U.}@|@    1@",
"    ].2@3@4@5@6@7@o 8@9@$@/+M+V V j Y Y 0@a@b@4@c@d@e@f+        ",
"      ].f@g@h@i@p j@k@l@C a i V p+p+Y Y m@n@o@[@p@q@r@1@1@1@    ",
"                        s@A+t@u@v@v@w@x@y@B.z@A@B@C@@ @ @ $     ",
"D@D@D@D@D@D@D@D@D@D@D@D@D@D@D@E@F@F@F@F@D@D@D@D@D@E@F@F@F@G@D@D@"};
