/* XPM */
static char * breackable6_xpm[] = {
"32 32 339 2",
"  	c #A8D7DE",
". 	c #ABD8DF",
"+ 	c #CFE7E7",
"@ 	c #AFDADF",
"# 	c #C9E4E5",
"$ 	c #A8D5DD",
"% 	c #A2CED9",
"& 	c #CEE5E6",
"* 	c #CDE5E6",
"= 	c #AAD4E5",
"- 	c #8976F7",
"; 	c #838EF6",
"> 	c #61E5F9",
", 	c #7FE9FA",
"' 	c #CDFCFC",
") 	c #CBF2F3",
"! 	c #A2CEDA",
"~ 	c #A2CFD7",
"{ 	c #9CD3DF",
"] 	c #BCEAEE",
"^ 	c #CEECEC",
"/ 	c #CCE3E5",
"( 	c #C7DDE1",
"_ 	c #AFDEE4",
": 	c #C0EAF8",
"< 	c #8975F6",
"[ 	c #8990F7",
"} 	c #6AE6FA",
"| 	c #88EBFC",
"1 	c #D1FDFD",
"2 	c #BFF8FB",
"3 	c #7AE1F3",
"4 	c #A6D7DE",
"5 	c #A2CED8",
"6 	c #9FCDD5",
"7 	c #8B8AEB",
"8 	c #8971F7",
"9 	c #8874F6",
"0 	c #8990F8",
"a 	c #A2E3EF",
"b 	c #C6DDDE",
"c 	c #A4D3DA",
"d 	c #95DCE8",
"e 	c #88D5EE",
"f 	c #816FE9",
"g 	c #484C66",
"h 	c #60588D",
"i 	c #8F78F7",
"j 	c #957CF8",
"k 	c #937BF8",
"l 	c #9492F8",
"m 	c #CAFAFB",
"n 	c #B8E8EC",
"o 	c #9ECDD7",
"p 	c #75CAE9",
"q 	c #8260F4",
"r 	c #8A72F6",
"s 	c #8E78F6",
"t 	c #868DF6",
"u 	c #55DCF5",
"v 	c #6DDEF1",
"w 	c #C5F3F6",
"x 	c #BFF7FA",
"y 	c #60E5F9",
"z 	c #68D8F9",
"A 	c #8773EA",
"B 	c #545268",
"C 	c #6B5E90",
"D 	c #9591F8",
"E 	c #A4D8E0",
"F 	c #95CDE0",
"G 	c #8576EC",
"H 	c #7756E0",
"I 	c #454165",
"J 	c #504E67",
"K 	c #4F4F67",
"L 	c #564A88",
"M 	c #805FF1",
"N 	c #7E5CEE",
"O 	c #815FF2",
"P 	c #474A65",
"Q 	c #484B66",
"R 	c #5F576C",
"S 	c #5E566C",
"T 	c #525168",
"U 	c #4F4E67",
"V 	c #564A87",
"W 	c #7F5FEE",
"X 	c #838CF6",
"Y 	c #8ADEEC",
"Z 	c #63CCEE",
"` 	c #7959E4",
" .	c #474163",
"..	c #462B81",
"+.	c #7F5EEF",
"@.	c #876EF5",
"#.	c #7D6CE8",
"$.	c #3E4664",
"%.	c #60576D",
"&.	c #3E4463",
"*.	c #454063",
"=.	c #442A7C",
"-.	c #8062EF",
";.	c #797DEF",
">.	c #6DE1F6",
",.	c #A8D6DD",
"'.	c #7895A5",
").	c #2D0248",
"!.	c #301453",
"~.	c #4D4966",
"{.	c #4B4763",
"].	c #321757",
"^.	c #2C0848",
"/.	c #371B62",
"(.	c #3D4663",
"_.	c #4C4965",
":.	c #474161",
"<.	c #2C124A",
"[.	c #564C88",
"}.	c #A4CEE2",
"|.	c #91C6D0",
"1.	c #463E61",
"2.	c #311656",
"3.	c #434063",
"4.	c #463F62",
"5.	c #301654",
"6.	c #554F89",
"7.	c #9EBDE7",
"8.	c #A8D6DE",
"9.	c #68CADF",
"0.	c #331859",
"a.	c #33185A",
"b.	c #2F1450",
"c.	c #413E64",
"d.	c #3C4563",
"e.	c #414864",
"f.	c #434061",
"g.	c #301553",
"h.	c #464665",
"i.	c #55538B",
"j.	c #97A8ED",
"k.	c #9FD9E3",
"l.	c #63D3E9",
"m.	c #2C1A4B",
"n.	c #3E4061",
"o.	c #333F61",
"p.	c #354061",
"q.	c #3B3F61",
"r.	c #474B68",
"s.	c #4A4D70",
"t.	c #595690",
"u.	c #8D7DF6",
"v.	c #939AF2",
"w.	c #ABDAE0",
"x.	c #A0BBE9",
"y.	c #3E3E62",
"z.	c #374162",
"A.	c #394262",
"B.	c #383F61",
"C.	c #2C1649",
"D.	c #404362",
"E.	c #A8A8F3",
"F.	c #856FE9",
"G.	c #3C4061",
"H.	c #2B1148",
"I.	c #404161",
"J.	c #C8FAFB",
"K.	c #9380F7",
"L.	c #795CE2",
"M.	c #4D4E67",
"N.	c #403E62",
"O.	c #2C1449",
"P.	c #79E7F9",
"Q.	c #C6DAE9",
"R.	c #8972F2",
"S.	c #7756DF",
"T.	c #32214E",
"U.	c #453E62",
"V.	c #514A65",
"W.	c #301352",
"X.	c #55538A",
"Y.	c #8673F2",
"Z.	c #828BF4",
"`.	c #63E0F9",
" +	c #7AE5F9",
".+	c #B2D7DC",
"++	c #2F1B4B",
"@+	c #404663",
"#+	c #321B52",
"$+	c #4B4665",
"%+	c #4B4964",
"&+	c #454161",
"*+	c #2E114A",
"=+	c #464B65",
"-+	c #86CFDD",
";+	c #2D144D",
">+	c #3E4264",
",+	c #514867",
"'+	c #2D1549",
")+	c #2B1348",
"!+	c #393A64",
"~+	c #343F61",
"{+	c #545289",
"]+	c #818CF2",
"^+	c #75D3E3",
"/+	c #433866",
"(+	c #434064",
"_+	c #555269",
":+	c #4E4864",
"<+	c #37215D",
"[+	c #3A4061",
"}+	c #4B758B",
"|+	c #65CFE9",
"1+	c #474864",
"2+	c #342155",
"3+	c #554E67",
"4+	c #5F576D",
"5+	c #4F4C66",
"6+	c #332152",
"7+	c #34195C",
"8+	c #9BB4EA",
"9+	c #564F69",
"0+	c #2F164C",
"a+	c #2D224E",
"b+	c #2E2752",
"c+	c #374061",
"d+	c #9090F3",
"e+	c #2F184D",
"f+	c #332153",
"g+	c #301151",
"h+	c #303157",
"i+	c #494C6C",
"j+	c #50507E",
"k+	c #527899",
"l+	c #8370E9",
"m+	c #4A4C66",
"n+	c #535168",
"o+	c #2F194A",
"p+	c #332151",
"q+	c #2D174D",
"r+	c #8D93F3",
"s+	c #8686F7",
"t+	c #8583EA",
"u+	c #9AB0EB",
"v+	c #65E4F8",
"w+	c #6AD6EB",
"x+	c #5B556B",
"y+	c #424664",
"z+	c #434964",
"A+	c #81E0EF",
"B+	c #72D7EC",
"C+	c #695D89",
"D+	c #554D7F",
"E+	c #351A5E",
"F+	c #525184",
"G+	c #515684",
"H+	c #4A6D84",
"I+	c #57729E",
"J+	c #888DF6",
"K+	c #BEDFE4",
"L+	c #B4E0E8",
"M+	c #86DCFA",
"N+	c #9077F7",
"O+	c #2D0E4A",
"P+	c #62E5F8",
"Q+	c #99DBE5",
"R+	c #F8F8F8",
"S+	c #C0E0EB",
"T+	c #8E8CF6",
"U+	c #7672E6",
"V+	c #3F2373",
"W+	c #42357D",
"X+	c #496A84",
"Y+	c #4C6C86",
"Z+	c #525182",
"`+	c #464A65",
" @	c #321853",
".@	c #5D5788",
"+@	c #5D5D9E",
"@@	c #858AF7",
"#@	c #829FF8",
"$@	c #75E7F9",
"%@	c #8CDFED",
"&@	c #B7DCE2",
"*@	c #E8F1F2",
"=@	c #C6E1E4",
"-@	c #ACDAE3",
";@	c #5DCEF0",
">@	c #838AF6",
",@	c #4C4865",
"'@	c #321857",
")@	c #422679",
"!@	c #838BF6",
"~@	c #60E4F9",
"{@	c #C2F2F4",
"]@	c #B4DBE1",
"^@	c #A1CDD5",
"/@	c #8CC7E0",
"(@	c #797CEF",
"_@	c #7892F1",
":@	c #7CDDF9",
"<@	c #8D8EEC",
"[@	c #4B7389",
"}@	c #4D6F89",
"|@	c #54526F",
"1@	c #5A5189",
"2@	c #4D3F92",
"3@	c #7890F0",
"4@	c #70DFF6",
"5@	c #88E1EF",
"6@	c #9FCED5",
"7@	c #7ED5E5",
"8@	c #72DFF1",
"9@	c #C7F7F7",
"0@	c #BCF3F7",
"a@	c #6DE3F6",
"b@	c #5C578C",
"c@	c #8C77F6",
"d@	c #838DF6",
"e@	c #6EDFF2",
"f@	c #BDECED",
"g@	c #AAD5DB",
"h@	c #B3DBE0",
"i@	c #A0D5E3",
"j@	c #8E98E4",
"k@	c #5A7386",
"l@	c #56788C",
"m@	c #5B7A8C",
"n@	c #71818D",
"o@	c #7180A2",
"p@	c #94B1ED",
"q@	c #87DEED",
"r@	c #96DEEA",
"s@	c #B1DDE3",
"t@	c #9EC4CD",
"u@	c #A0C5CE",
"v@	c #BDD1D4",
"w@	c #B9CFD3",
"x@	c #9DC3CC",
"                          . + + + +           @ + + + #         ",
"                $ % $     . & * + +     = - ; > , ' ) #         ",
"              $ ! ~ { ] ^ + / ( $     _ : < [ } | 1 2 3 4       ",
"              5 6 7 8 9 0 a ( b c d e - f g h i j k l m n       ",
"              o p q r s t u v w x y z < A B C j s s D m 2 E     ",
"            F G H I J K L M N O f P Q g B B R S T U V W X Y     ",
"          6 Z N ` U T  ...N +.@.#.$.T B %.R T T &.*.=.-.;.>.    ",
"        ,.'.).!.~.T {.].^.^./.(.(.$.B B R S T _.:.<.^.^.[.9 }.  ",
"        |.^.^.1.T _.^.^.2.3.&.(.T B %.R T T &.4.5.^.^.^.6.9 7.  ",
"      8.9.^.^.0.:.a.^.b.c.d.$.e.B B R S T K f.].^.g.f.h.i.9 j.  ",
"      k.l.^.^.^.5.^.m.n.o.p.T B %.R T T o.q.5.^.^.*.r.s.t.u.v.  ",
"    w.x.A  .].^.^.^.y.o.z.A.B B R S K U B.C.^.^.^.D.i.9 l m m   ",
"    + E.F.5.^.].^.^.f.p.T B %.R T T o.G.C.^.H.I.&.(.i.9 l J.m   ",
"    + K.L.^.].4.].^.].I.T B S S K M.N.5.^.^.O.d.d.(.i.9 ; y P.  ",
"    Q.R.S.T.].D.U.5.^.^.H.V.T T o.f.W.^.H.n.&.d.d.(.X.Y.Z.`. +  ",
"@ @ .+++^.].*.&.@+4.].^.#+].$+%+&+].^.*+^.q.d.d.d.(.=+=+X.9 ;   ",
"+ + -+b.^.^.;+>+T T ,+'+#+^.b.0.^.^.)+G.!+~+d.d.d.(.=+=+{+Y.]+w.",
"# # ^+/+0.^.5.(+B _+S :+].<+^.^.^.].[+o.o.~+d.d.d.(.=+=+=+=+}+w.",
"  4 |+1+a.^.2+<.3+4+5+].6+T.5.^.^.7+I.f.~+~+d.d.d.(.=+=+=+=+}+  ",
"  8+f =+ .].^.H.:+9+^.0+a+I.y.q.b+^.^.7+c+~+d.d.d.(.=+=+=+=+}+  ",
". d+f =+5+e+^.f+g+5.^.h+o.o.o.o.[+5.^.].&+c+d.d.d.(.=+=+i+j+k+  ",
". - l+m+_+n+o+2+^.p+a+p.p.p.p.p.p.q+^.^.O.G.d.d.e.e.=+=+i.9 r+  ",
"  s+t+T %.4+_.5.^.0.&.d.d.d.d.d.d.O.^.a.&+&+(.$.T T =+=+i.9 u+  ",
"  v+w+_+x+3+++^.^.0.(.d.d.d.d.d.d.&.b.^.^.C.y+z+T K =+=+i.9 7.  ",
"  A+B+C+D+5.^.0.&+D.d.d.d.d.d.d.d.&.E+^.H.&+{.U i+F+G+H+I+J+4   ",
"K+L+M+N+H ^.^.0.@+$.$.$.$.$.$.$.$.$.&+5.O+^.^.T i.9 ; y P+Q+  @ ",
"R+R+S+T+U+V+W+X+Y+{+Z+=+=+=+=+=+=+=+`+ .5.O+ @.@+@@@#@$@%@    &@",
"*@*@=@-@;@N >@y z 9 f =+=+=+=+=+=+=+m+m+,@'@)@N !@~@P.{@w.    ]@",
"    ,.^@/@(@_@P.:@l <@[@}@{+F+=+=+g T T |@1@2@(@3@4@5@.         ",
"      ,.6@7@8@m m 9@0@a@z 9 f =+m+m+T T b@c@d@~@e@f@g@h@h@h@    ",
"                        i@u+j@k@l@l@m@n@o@v.p@q@r@s@+ + + #     ",
"t@t@t@t@t@t@t@t@t@t@t@t@t@t@t@u@v@v@v@v@t@t@t@t@t@u@v@v@v@w@t@x@"};
