/* XPM */
static char *_f7a50df8d3f4c52ccdd059d583e22c7E2Mr8aVXwH8Ksnjq[] = {
/* columns rows colors chars-per-pixel */
"32 32 141 2 ",
"   c #2D094A",
".  c #2D1D4B",
"X  c #321F4F",
"o  c #233345",
"O  c #263C4C",
"+  c #2A3E4D",
"@  c #342756",
"#  c #352B53",
"$  c #2C3657",
"%  c #2D3F52",
"&  c #3D3B56",
"*  c #3A3458",
"=  c #3D3F5C",
"-  c #393D6F",
";  c #3E3877",
":  c #413E7F",
">  c #2D404E",
",  c #36424F",
"<  c #2A4455",
"1  c #324653",
"2  c #394E5A",
"3  c #3C525D",
"4  c #37496F",
"5  c #2D5161",
"6  c #366778",
"7  c #396878",
"8  c #434D58",
"9  c #44545E",
"0  c #44446A",
"q  c #434A6F",
"w  c #546676",
"e  c #5E6D76",
"r  c #483387",
"t  c #4A3A8C",
"y  c #4C3E90",
"u  c #3D7789",
"i  c #474089",
"p  c #4A408F",
"a  c #55548A",
"s  c #4D4495",
"d  c #52449D",
"f  c #5A6687",
"g  c #5A6689",
"h  c #5C6690",
"j  c #5F6599",
"k  c #61669B",
"l  c #5547A3",
"z  c #574BA5",
"x  c #594CA0",
"c  c #5A4AAB",
"v  c #5D4BB2",
"b  c #614EB9",
"n  c #6D64BE",
"m  c #6550C0",
"M  c #6952C7",
"N  c #6E55D1",
"B  c #638189",
"V  c #4A91A5",
"C  c #5CB7CD",
"Z  c #60B7CD",
"A  c #64BACF",
"S  c #6DB9CE",
"D  c #7EB7CE",
"F  c #72B8CD",
"G  c #7CB9CD",
"H  c #76AAD8",
"J  c #70BDD0",
"K  c #78BFD1",
"L  c #84BACD",
"P  c #8BBACD",
"I  c #93BCCD",
"U  c #9BBBCD",
"Y  c #9EA5DF",
"T  c #8AB4D1",
"R  c #89BED8",
"E  c #93B5D0",
"W  c #9EBAD3",
"Q  c #96B4D8",
"!  c #9BBBDA",
"~  c #A7B5CF",
"^  c #A2BDCE",
"/  c #ABBDCD",
"(  c #A5B5D2",
")  c #A8B6D0",
"_  c #A3BBD3",
"`  c #ABBCD4",
"'  c #A5BDDD",
"]  c #9EC4CD",
"[  c #81C7D5",
"{  c #8CC4D3",
"}  c #86C9D6",
"|  c #8BCBD7",
" . c #93C3D2",
".. c #93C9D6",
"X. c #9ACBD7",
"o. c #94CED9",
"O. c #9CD1DA",
"+. c #A1C5CE",
"@. c #ACC0CF",
"#. c #A7C3D7",
"$. c #AAC2D1",
"%. c #A9CAD6",
"&. c #A8C5D8",
"*. c #A7CADD",
"=. c #A9CED9",
"-. c #B7CCD6",
";. c #B9CFD3",
":. c #B6CBDE",
">. c #BBCEDB",
",. c #A7D5DD",
"<. c #A8D7DE",
"1. c #ADD9DF",
"2. c #BDD1D4",
"3. c #B7D1D9",
"4. c #BCD2DB",
"5. c #B4DADF",
"6. c #A6D1E0",
"7. c #BED2E1",
"8. c #B3DBE0",
"9. c #BEDFE3",
"0. c #C2CED9",
"q. c #C0D5DC",
"w. c #CCD5DE",
"e. c #C4DADF",
"r. c #C1D5E1",
"t. c #CAD0E2",
"y. c #C4DEE3",
"u. c #C8DFE4",
"i. c #D6DEE4",
"p. c #D8DEE5",
"a. c #C5E2E4",
"s. c #CDE6E6",
"d. c #D1E6E7",
"f. c #DBE2EA",
"g. c #D4E9E9",
"h. c #D8EBEB",
"j. c #EBF3F3",
"k. c #F2F5F5",
"l. c #F6F7F7",
"z. c #F7F8F8",
"x. c #F8F8F8",
/* pixels */
"<.<.<.<.<.<.<.<.<.,.<.<.<.1.s.s.s.s.<.<.<.<.<.1.s.s.s.s.<.<.<.<.",
"<.<.<.<.<.<.<.<.@.l $.<.<.1.q.>.s.s.<.<.<.<.<.1.s.s.s.s.<.<.<.<.",
"<.<.<.<.<.<.<.$.v g s &.s.s./ l $.<.<.<.<.1.s.g.x.k.<.<.<.<.<.<.",
"<.<.<.<.<.<.,.t   i ` <.u.@.d 0 3 <.<.<.<.1.d.g.z.j.<.<.<.<.<.<.",
"<.<.<.<.<.<.<.@ X M :.s.4.c   d %.<.<.1.s.g.x.l.s.s.=.=.<.<.<.<.",
"<.<.<.<.<.<.B X . ' u.a.` l   c ,.<.1.1.g.g.l.k.s.y./ 1 =.<.<.<.",
"<.<.<.<.,.. #   x y.s.` l   : W [ | s.g.x.l.s.s.{ _ : w + <.<.<.",
"<.<.<.<.%.s   y 7.s.-.l     N } } | g.g.l.k.s.4./ $     $.<.<.<.",
"<.<.<.<.B     ~ s.4.    d W { } s.g.x.l.s.s.{ ) s       %.<.<.<.",
"<.<.<.6.s     c / v   : Q [ | o.g.g.l.k.s.a.U l   p U *.<.<.<.<.",
"<.<.<.<.4.      s   5 P C A s.g.x.l.s.s.C D s     _ <.<.<.<.<.<.",
"<.<.1.1.s.` l       T C J K g.g.l.k.a.y.F <        .<.<.<.<.<.<.",
"<.<.s.s.r.s   l     U A s.g.x.l.s.s.C L <   o I { } <.<.<.<.<.<.",
"<.<.s.s.e   l ) l   l I s.g.k.k.a.9.E s     % [ [ } <.<.<.<.<.<.",
"<.<.s.4.l w l  .( s     o w.s.s.C U t   o P { [ [ } <.<.<.<.<.<.",
"1.1.s.9   l _ { ..) l   a l :.3.^ l   *   D [ [ [ } <.<.<.<.<.<.",
"s.s.<.:     - R s.s.t., a   : c     O L H Z [ [ [ } <.<.<.<.<.1.",
"s.s.<.Y c   s ! g.h.k.0.l n       l G C C Z [ [ [ } <.<.<.<.<.1.",
"<.<.<.=.v   j $ p.z.e.l g w s     b I U Z Z [ [ [ } <.<.<.<.<.<.",
"<.<.<.<.` l   o 0.f.  0 6 I T D u     b S Z [ [ [ } <.<.<.<.<.<.",
"<.<.<.<.e.q   h r s   V C C C C G s   l ^ S [ [ [ } <.<.<.<.<.<.",
"<.<.8.8.h.d.8 k   f 7 A A A A A A 4     + L [ [ o.o.<.<.<.<.<.<.",
"<.<.s.s.x.z.4.s   c { [ [ [ [ [ [ +   v ^ ^ } | s.s.<.<.<.<.<.<.",
"<.<.h.h.j.i.9     c } [ [ [ [ [ [ { :     < X.O.s.a.<.<.<.<.<.<.",
"<.<.x.x.>.s   c ^  .[ [ [ [ [ [ [ { m   o ^ -.y.<.<.<.<.<.<.<.<.",
"9.9.k.f.      c ..| | | | | | | | | ^ s @     s.<.<.<.<.<.<.<.1.",
"x.x.s.>.d   z _ <.<.<.<.<.<.<.<.<.<.,.` s @ & s.<.<.<.<.<.<.<.8.",
"j.j.4.;     #.<.<.<.<.<.<.<.<.<.<.<.8.5.>.z     %.=.<.<.<.<.<.8.",
"<.<.%.      2 ,.<.<.<.<.<.<.<.<.<.1.s.s.s.7.>     v %.<.<.<.<.<.",
"<.<.<.%.=   2 ,.<.<.<.<.<.<.<.<.8.8.s.s.a.a.,.=.2 w w 8.8.8.<.<.",
"<.<.<.<.<.<.<.<.<.<.<.<.<.<.<.1.s.s.s.s.<.<.<.<.<.1.s.s.s.s.<.<.",
"] ] ] ] ] ] ] ] ] ] ] ] ] ] ] +.2.2.2.2.] ] ] ] ] +.2.2.2.;.] ] "
};
