/* XPM */
static char * breackable4_xpm[] = {
"32 32 354 2",
"  	c #A8D7DE",
". 	c #A8D6DE",
"+ 	c #ACD8DF",
"@ 	c #CEE7E7",
"# 	c #AEDADF",
"$ 	c #CBE5E5",
"% 	c #AACED8",
"& 	c #8EB0C9",
"* 	c #A9CFD9",
"= 	c #C9E0E3",
"- 	c #C7DDE2",
"; 	c #A9D5E3",
"> 	c #949FEF",
", 	c #91ABEF",
"' 	c #81E1F1",
") 	c #9FE8F4",
"! 	c #CDF5F5",
"~ 	c #CCEEEF",
"{ 	c #90B0CE",
"] 	c #8FB5C2",
"^ 	c #88B3CA",
"/ 	c #B6DFE7",
"( 	c #CEEAEA",
"_ 	c #C2D7DD",
": 	c #ACBCCF",
"< 	c #ADDCE2",
"[ 	c #B8E4F0",
"} 	c #96A0EE",
"| 	c #A4B3F2",
"1 	c #98E7F5",
"2 	c #B8EFFA",
"3 	c #DDFAFA",
"4 	c #B8EDF2",
"5 	c #8BDEEC",
"6 	c #A7D7DE",
"7 	c #8CAEC3",
"8 	c #86ABB6",
"9 	c #7978D1",
"0 	c #9690EC",
"a 	c #949EEE",
"b 	c #A2AFF2",
"c 	c #A6D9E5",
"d 	c #ABBCCE",
"e 	c #A9BCC2",
"f 	c #8CB5BC",
"g 	c #9CDAE5",
"h 	c #94D6E9",
"i 	c #909CE5",
"j 	c #76909C",
"k 	c #939BB2",
"l 	c #AAA9F2",
"m 	c #BDB2F8",
"n 	c #B7AFF6",
"o 	c #9BADF0",
"p 	c #BFEFF2",
"q 	c #B3E3E7",
"r 	c #86ADB9",
"s 	c #65A9C7",
"t 	c #7A5BE6",
"u 	c #9B97EE",
"v 	c #A6A7F1",
"w 	c #9BA8EE",
"x 	c #56BBE0",
"y 	c #5EBACD",
"z 	c #AACEDE",
"A 	c #B8E9EF",
"B 	c #7EE0F1",
"C 	c #82D8F1",
"D 	c #A3A5E8",
"E 	c #909BA3",
"F 	c #ACA7BB",
"G 	c #9CA9EE",
"H 	c #C0ECF0",
"I 	c #A6D8DF",
"J 	c #87B8C8",
"K 	c #7264C9",
"L 	c #6549BF",
"M 	c #717D9B",
"N 	c #8894A0",
"O 	c #8696A0",
"P 	c #7B7FA7",
"Q 	c #7458DB",
"R 	c #6C4CCA",
"S 	c #7559DD",
"T 	c #8F9BE5",
"U 	c #738E9C",
"V 	c #77909C",
"W 	c #A6A4AC",
"X 	c #A4A3AA",
"Y 	c #8B99A1",
"Z 	c #85939F",
"` 	c #7B80A3",
" .	c #6C57CB",
"..	c #91A6ED",
"+.	c #95DCE8",
"@.	c #86ACB6",
"#.	c #57ABCB",
"$.	c #7055D1",
"%.	c #757C95",
"&.	c #4B368D",
"*.	c #6F55D3",
"=.	c #8F8DEA",
"-.	c #7E93E2",
";.	c #618797",
">.	c #A8A5AC",
",.	c #618295",
"'.	c #707C95",
").	c #43327D",
"!.	c #7463D1",
"~.	c #676DCB",
"{.	c #84DEEF",
"].	c #A8D2DB",
"^.	c #6C81A0",
"/.	c #2D0449",
"(.	c #3B276C",
"_.	c #818B9E",
":.	c #7D8797",
"<.	c #402D77",
"[.	c #2C0849",
"}.	c #4F3793",
"|.	c #5D8597",
"1.	c #808B9A",
"2.	c #757D91",
"3.	c #2C224E",
"4.	c #7A83A5",
"5.	c #A6D1E0",
"6.	c #84B3BC",
"7.	c #727892",
"8.	c #3E2B74",
"9.	c #6D7B95",
"0.	c #737893",
"a.	c #3C2B6F",
"b.	c #7A89A8",
"c.	c #A2C6E4",
"d.	c #A7D5DF",
"e.	c #60ACCA",
"f.	c #432F7C",
"g.	c #453080",
"h.	c #362763",
"i.	c #687798",
"j.	c #5A8496",
"k.	c #668999",
"l.	c #6B7C91",
"m.	c #3A296C",
"n.	c #72869B",
"o.	c #7991AD",
"p.	c #9DBAE8",
"q.	c #A2D8E1",
"r.	c #89D3E5",
"s.	c #2C3453",
"t.	c #617B91",
"u.	c #447991",
"v.	c #497B92",
"w.	c #587992",
"x.	c #738F9D",
"y.	c #758FA0",
"z.	c #7B92AF",
"A.	c #97A2EF",
"B.	c #9AB1EC",
"C.	c #ACDAE0",
"D.	c #A5C6E6",
"E.	c #607793",
"F.	c #507D93",
"G.	c #557E93",
"H.	c #517A91",
"I.	c #2B2B4E",
"J.	c #668194",
"K.	c #B5C0EF",
"L.	c #9C9BE6",
"M.	c #5C7B91",
"N.	c #292047",
"O.	c #667C91",
"P.	c #BEEFF2",
"Q.	c #A9ABF2",
"R.	c #7162C6",
"S.	c #81949F",
"T.	c #667893",
"U.	c #2C284C",
"V.	c #8BE2F1",
"W.	c #C8DEE8",
"X.	c #9D9BEA",
"Y.	c #6D52CD",
"Z.	c #40425E",
"`.	c #717894",
" +	c #8B8D9C",
".+	c #3A256A",
"++	c #7991AC",
"@+	c #939EEC",
"#+	c #90A9ED",
"$+	c #7FDDF1",
"%+	c #8BE0F1",
"&+	c #BCDCDF",
"*+	c #373652",
"=+	c #668597",
"-+	c #403669",
";+	c #7C879C",
">+	c #7D8B99",
",+	c #6F7D92",
"'+	c #32214F",
")+	c #738F9C",
"!+	c #92D2DD",
"~+	c #32275A",
"{+	c #5F7E98",
"]+	c #898A9E",
"^+	c #302A4B",
"/+	c #2A264A",
"(+	c #547098",
"_+	c #467991",
":+	c #7991AB",
"<+	c #90AAEC",
"[+	c #89D4E2",
"}+	c #6D6D9C",
"|+	c #6B7C99",
"1+	c #939CA4",
"2+	c #848999",
"3+	c #4E4188",
"4+	c #577A91",
"5+	c #759FAD",
"6+	c #80D2E5",
"7+	c #748999",
"8+	c #464171",
"9+	c #9393A0",
"0+	c #A7A5AC",
"a+	c #85919C",
"b+	c #434268",
"c+	c #473285",
"d+	c #A0C1E6",
"e+	c #9596A3",
"f+	c #372B58",
"g+	c #30435F",
"h+	c #344E68",
"i+	c #4E7A92",
"j+	c #AAD8DF",
"k+	c #99ACEC",
"l+	c #372F5A",
"m+	c #44426C",
"n+	c #392067",
"o+	c #3A5F78",
"p+	c #748F9E",
"q+	c #7790A6",
"r+	c #78A0B4",
"s+	c #959FE6",
"t+	c #7A919D",
"u+	c #8E99A1",
"v+	c #37314F",
"w+	c #474273",
"x+	c #434267",
"y+	c #32435F",
"z+	c #312F5A",
"A+	c #2B274A",
"B+	c #97AEEC",
"C+	c #92A7EF",
"D+	c #A2ADE8",
"E+	c #9FBEE7",
"F+	c #81E0F0",
"G+	c #9ADDEB",
"H+	c #9FA2A9",
"I+	c #9193A0",
"J+	c #6A8797",
"K+	c #6B8B99",
"L+	c #90DDEA",
"M+	c #AEE3F0",
"N+	c #ABA7B8",
"O+	c #838AA5",
"P+	c #493389",
"Q+	c #7891A9",
"R+	c #7792A9",
"S+	c #759BA9",
"T+	c #7A9DB6",
"U+	c #94AAEE",
"V+	c #BEDFE4",
"W+	c #B8E0E6",
"X+	c #B4E5F9",
"Y+	c #AEA5F3",
"Z+	c #6547BF",
"`+	c #2F194E",
" @	c #7FE0F0",
".@	c #9ED9E3",
"+@	c #F8F8F8",
"@@	c #C4E2EA",
"#@	c #9FA6EE",
"$@	c #6B66D1",
"%@	c #3A1D68",
"&@	c #4A3D8C",
"*@	c #728CA4",
"=@	c #759BAA",
"-@	c #7891A8",
";@	c #728D9B",
">@	c #362754",
",@	c #8F9BAF",
"'@	c #7D95B7",
")@	c #92A9EF",
"!@	c #90B4F0",
"~@	c #89E2F1",
"{@	c #96DCE8",
"]@	c #B5DCE1",
"^@	c #E9F2F2",
"/@	c #C3DCE1",
"(@	c #93B8C7",
"_@	c #51ACCC",
":@	c #90A0EC",
"<@	c #7B919C",
"[@	c #7F899A",
"}@	c #413078",
"|@	c #3C1F6C",
"1@	c #91A4EC",
"2@	c #7FDDEF",
"3@	c #BAEAED",
"4@	c #AAD9DF",
"5@	c #B4DBE1",
"6@	c #88ABB6",
"7@	c #77A6BF",
"8@	c #6767CB",
"9@	c #6880CE",
"0@	c #8AE1F0",
"a@	c #8DDBF1",
"b@	c #96ABE7",
"c@	c #759EAC",
"d@	c #769CAB",
"e@	c #8C99A4",
"f@	c #868EAD",
"g@	c #443F80",
"h@	c #6678CC",
"i@	c #6ABEE2",
"j@	c #94D9E7",
"k@	c #88AFB8",
"l@	c #6BB2C3",
"m@	c #63BFCE",
"n@	c #BDEDEF",
"o@	c #B6EAEF",
"p@	c #84DFEE",
"q@	c #8B99B0",
"r@	c #A2A5F0",
"s@	c #90AAEE",
"t@	c #60BFCF",
"u@	c #A4CCCF",
"v@	c #95B9C1",
"w@	c #B3DBE0",
"x@	c #A3D6E1",
"y@	c #97B0E2",
"z@	c #7E9FAA",
"A@	c #8DA8B1",
"B@	c #8FA8B1",
"C@	c #98ACB1",
"D@	c #87A4B9",
"E@	c #9BBFE8",
"F@	c #93DCE8",
"G@	c #9CDCE6",
"H@	c #AFDBE1",
"I@	c #9EC4CD",
"J@	c #A0C5CE",
"K@	c #BDD1D4",
"L@	c #B9CFD3",
"M@	c #9DC3CC",
"                  .       + @ @ @ @           # @ @ @ $         ",
"                % & *     + = - @ @     ; > , ' ) ! ~ $         ",
"              * { ] ^ / ( @ _ : *     < [ } | 1 2 3 4 5 6       ",
"            . 7 8 9 0 a b c d e f g h > i j k l m n o p q       ",
"              r s t u v w x y z A B C } D E F m v v G H 4 I     ",
"            J K L M N O P Q R S T U V j E E W X Y Z `  ...+.    ",
"        . @.#.R $.Z Y %.&.R *.=.-.;.Y E >.W Y Y ,.'.).!.~.{.    ",
"        ].^./.(._.Y :.<.[.[.}.|.|.;.E E W X Y 1.2.3.[.[.4.a 5.  ",
"        6.[.[.7.Y 1.[.[.8.9.,.|.Y E >.W Y Y ,.0.a.[.[.[.b.a c.  ",
"      d.e.[.[.f.2.g.[.h.i.j.;.k.E E W X Y O l.<.[.m.l.n.o.a p.  ",
"      q.r.[.[.[.a.[.s.t.u.v.Y E >.W Y Y u.w.a.[.[.'.x.y.z.A.B.  ",
"    C.D.D %.<.[.[.[.E.u.F.G.E E W X O Z H.I.[.[.[.J.o.a o p p   ",
"    @ K.L.a.[.<.[.[.l.v.Y E >.W Y Y u.M.I.[.N.O.,.|.o.a o P.p   ",
"    @ Q.R.[.<.0.<.[.<.O.Y E X X O S.T.a.[.[.U.j.j.|.o.a , B V.  ",
"    W.X.Y.Z.<.J.`.a.[.[.N. +Y Y u.l..+[.N.t.,.j.j.|.++@+#+$+%+  ",
"# # &+*+[.<.'.,.=+0.<.[.-+<.;+>+,+<.[.'+[.w.j.j.j.|.)+)+++a ,   ",
"@ @ !+h.[.[.~+{+Y Y ]+^+-+[.h.f.[.[./+M.(+_+j.j.j.|.)+)+:+@+<+C.",
"$ $ [+}+f.[.a.|+E 1+X 2+<.3+[.[.[.<.4+u.u._+j.j.j.|.)+)+)+)+5+C.",
"  6 6+7+g.[.8+3.9+0+a+<.b+Z.a.[.[.c+O.l._+_+j.j.j.|.)+)+)+)+5+  ",
"  d+i )+%.<.[.N.2+e+[.f+g+O.E.w.h+[.[.c+i+_+j.j.j.|.)+)+)+)+5+  ",
"j+k+i )+a+l+[.m+n+a.[.o+u.u.u.u.4+a.[.<.,+i+j.j.j.|.)+)+p+q+r+  ",
"j+> s+t+1+u+v+w+[.x+y+v.v.v.v.v.v.z+[.[.A+M.j.j.k.k.)+)+o.a B+  ",
"  C+D+Y >.0+1.a.[.f.,.j.j.j.j.j.j.A+[.g.,+,+|.;.Y Y )+)+o.a E+  ",
"  F+G+1+H+I+*+[.[.f.|.j.j.j.j.j.j.,.h.[.[.I.J+K+Y O )+)+o.a c.  ",
"  L+M+N+O+a.[.f.,+J.j.j.j.j.j.j.j.,.P+[.N.,+:.Z p+Q+R+S+T+U+6   ",
"V+W+X+Y+Z+[.[.f.=+;.;.;.;.;.;.;.;.;.,+a.`+[.[.Y o.a , B  @.@  # ",
"+@+@@@#@$@%@&@*@=@:+-@)+)+)+)+)+)+)+;@%.a.`+>@,@'@)@!@~@{@    ]@",
"^@^@/@(@_@R :@B C a i )+)+)+)+)+)+)+t+<@[@}@|@R 1@2@V.3@4@    5@",
"    ].6@7@8@9@0@a@o b@c@d@:+Q+)+)+j Y Y e@f@g@8@h@i@j@j+        ",
"      ].k@l@m@p p n@o@p@C a i )+t+t+Y Y q@r@s@2@t@u@v@w@w@w@    ",
"                        x@E+y@z@A@A@B@C@D@B.E@F@G@H@@ @ @ $     ",
"I@I@I@I@I@I@I@I@I@I@I@I@I@I@I@J@K@K@K@K@I@I@I@I@I@J@K@K@K@L@I@M@"};
