/* XPM */
static char * coin3_xpm[] = {
"32 32 167 2",
"  	c #A8D7DE",
". 	c #EF9A7C",
"+ 	c #F0997B",
"@ 	c #EBA087",
"# 	c #ADD9DF",
"$ 	c #CFE7E7",
"% 	c #CAE5E6",
"& 	c #A8D4DA",
"* 	c #A8D3DA",
"= 	c #EA997C",
"- 	c #EA987B",
"; 	c #EA987C",
"> 	c #E4A087",
", 	c #ADD6DC",
"' 	c #C63A35",
") 	c #C93835",
"! 	c #C73A37",
"~ 	c #454243",
"{ 	c #424242",
"] 	c #434242",
"^ 	c #584242",
"/ 	c #C73936",
"( 	c #C83835",
"_ 	c #C97A78",
": 	c #F8F8F8",
"< 	c #F0F4F5",
"[ 	c #A8D6DD",
"} 	c #C13C38",
"| 	c #C23C38",
"1 	c #C03D3A",
"2 	c #43423F",
"3 	c #554141",
"4 	c #C13C39",
"5 	c #C47A78",
"6 	c #F6F6F6",
"7 	c #EEF3F4",
"8 	c #C25A58",
"9 	c #C63A37",
"0 	c #484343",
"a 	c #464141",
"b 	c #6E4141",
"c 	c #C83935",
"d 	c #C87978",
"e 	c #C15A59",
"f 	c #C43B38",
"g 	c #444141",
"h 	c #6A4140",
"i 	c #C67877",
"j 	c #566063",
"k 	c #577176",
"l 	c #A8D3D9",
"m 	c #545F61",
"n 	c #576E74",
"o 	c #A8D4DB",
"p 	c #C65757",
"q 	c #574342",
"r 	c #684242",
"s 	c #C07273",
"t 	c #C05959",
"u 	c #C23B38",
"v 	c #434343",
"w 	c #664141",
"x 	c #BB7374",
"y 	c #616464",
"z 	c #454141",
"A 	c #424243",
"B 	c #414141",
"C 	c #8F8F8F",
"D 	c #585858",
"E 	c #848484",
"F 	c #637679",
"G 	c #5C6262",
"H 	c #617577",
"I 	c #5B6161",
"J 	c #4D4D4D",
"K 	c #596060",
"L 	c #909090",
"M 	c #A7D7DE",
"N 	c #4A5A5E",
"O 	c #8A8A8A",
"P 	c #566F75",
"Q 	c #AFDADF",
"R 	c #C9E5E6",
"S 	c #4C5E62",
"T 	c #434849",
"U 	c #898989",
"V 	c #424343",
"W 	c #434748",
"X 	c #567379",
"Y 	c #A9D7DE",
"Z 	c #81C7D5",
"` 	c #83C8D5",
" .	c #424241",
"..	c #536E73",
"+.	c #86C9D6",
"@.	c #C9E4E6",
"#.	c #C9E4E5",
"$.	c #92CDD8",
"%.	c #94CED9",
"&.	c #AED9DF",
"*.	c #5C6362",
"=.	c #414241",
"-.	c #8F8F90",
";.	c #595959",
">.	c #557176",
",.	c #B0DAE0",
"'.	c #B1DAE0",
").	c #404040",
"!.	c #567075",
"~.	c #5B6261",
"{.	c #434443",
"].	c #EFEFEF",
"^.	c #F9F9F9",
"/.	c #3F3F3F",
"(.	c #617578",
"_.	c #5E6363",
":.	c #5A5A5A",
"<.	c #929292",
"[.	c #868686",
"}.	c #656565",
"|.	c #E2E2E2",
"1.	c #D8EBEB",
"2.	c #D9EBEB",
"3.	c #656766",
"4.	c #434543",
"5.	c #EFEEEF",
"6.	c #424544",
"7.	c #617779",
"8.	c #CEE7E7",
"9.	c #495A5D",
"0.	c #676767",
"a.	c #617679",
"b.	c #BEDFE4",
"c.	c #F0F4F4",
"d.	c #EFF4F4",
"e.	c #C7E4E5",
"f.	c #C6E3E5",
"g.	c #4C5B5F",
"h.	c #3E3E3E",
"i.	c #ACD8DF",
"j.	c #535F60",
"k.	c #8E8E8E",
"l.	c #F1F1F1",
"m.	c #838383",
"n.	c #B7DCE2",
"o.	c #E8F1F2",
"p.	c #C7E3E5",
"q.	c #525F60",
"r.	c #627679",
"s.	c #B4DBE1",
"t.	c #A7D6DD",
"u.	c #444444",
"v.	c #8B8B8B",
"w.	c #424644",
"x.	c #434644",
"y.	c #434645",
"z.	c #434544",
"A.	c #A9D8DE",
"B.	c #B3DBE0",
"C.	c #B2DBE0",
"D.	c #5C6363",
"E.	c #9EC4CD",
"F.	c #575D5E",
"G.	c #A2C5CE",
"H.	c #BDD1D4",
"I.	c #B9CFD3",
"J.	c #9DC3CC",
"                        . + + + + + + @       # $ $ $ %         ",
"                & * * & = - ; ; ; ; ; > & & & , $ $ $ %         ",
"                ' ) ) ! ~ { ] ] ] ] ] ^ / ( ( _ : <             ",
"            [ [ } | | 1 2 { { { { { { 3 4 | | 5 6 7             ",
"            8 9 0 a a a { { { { { { { { a a a b c d             ",
"            e f g { { { { { { { { { { { { { { h 9 i             ",
"            j g { { { { { { { { { { { { { { { { g k             ",
"        * l m { { { { { { { { { { { { { { { { { { n l o         ",
"        p c q { { { { { { { { { { { { { { { { { { r c s         ",
"        t u 3 { v v { { { { { { { { { { { { v v { w } x         ",
"        y z A B C C B { { { { { { { { { { D C E { ] z F         ",
"    # # G { { B C C B { { { { { { { { { B D C E { { { H         ",
"    $ $ I { { B C C C C B { { { { { { J C C C E { { { H         ",
"    $ $ K { { B L C C C B { { { { { { J C C C E { { { H         ",
"    $ $   M N { { { { B C C C C C C C O { { { { { P             ",
"Q Q % R   M S T { { { { C C C C C C C U { { { V W X           Y ",
"$ $       M Z `  .{ { { { { { { { { { { { { { ..Z +.          Q ",
"@.#.        $.%. .{ { { { { { { { { { { { { { ..Z +.          &.",
"          Y *.=.-.C B { { { { { { { { { { ;.C E { >.            ",
"        ,.'.G ).L C B { { { { { { { { { { D C E { !.            ",
"        ~.{.].^./.{ { { { { { { { { { { { { { D C E V (.        ",
"    '.'._.{ ].^.).{ { { { { { { { { { { { { { :.<.[.{ H         ",
"    $ $ }.{ ].^.).{ { { { { { { { { { { { { { E : |.{ H         ",
"    1.2.3.4.5.^./.B B B { { { { { { { { B B B E : |.6.7.        ",
"  Y : : $ 8.9./.^.: : ^.).{ { { { { { 0.: : : |.B a.            ",
"b.b.c.d.e.f.g.).^.: : : h.).).).).).).}.: : : |.{ F           i.",
": : $ $     j.B C k.: : : ^.^.^.^.^.^.l.k.k.k.m.{ F           n.",
"o.o.p.f.    q.B -.k.: : : : : : : : : l.C C C E { r.          s.",
"            t.[ v v u.u.L C C C C C C v.v v v (.t.[             ",
"                w.x.y.6.C C C C C C C O z.w.z.7.  A.B.B.B.C.    ",
"                        =.{ { { { { { D.          # $ $ $ %     ",
"E.E.E.E.E.E.E.E.E.E.E.E.=.{ { { { { { F.E.E.E.E.E.G.H.H.H.I.E.J."};
