/* XPM */
static char * coin2_xpm[] = {
"32 32 405 2",
"  	c #A8D7DE",
". 	c #A3D2D8",
"+ 	c #7DA2A4",
"@ 	c #7EA2A5",
"# 	c #7FA3A5",
"$ 	c #99ADAB",
"% 	c #98ADAA",
"& 	c #7EA1A4",
"* 	c #90BBBE",
"= 	c #ADD9DF",
"- 	c #CFE7E7",
"; 	c #CAE5E6",
"> 	c #9FCDD2",
", 	c #414340",
"' 	c #424242",
") 	c #444140",
"! 	c #404344",
"~ 	c #78999B",
"{ 	c #A0CED4",
"] 	c #9FCCD2",
"^ 	c #9FCCD1",
"/ 	c #99C4C8",
"( 	c #6C584F",
"_ 	c #6D564F",
": 	c #6E554F",
"< 	c #69514C",
"[ 	c #604140",
"} 	c #5F4140",
"| 	c #604040",
"1 	c #7D9495",
"2 	c #A3CED3",
"3 	c #C3DBDA",
"4 	c #C8DCDC",
"5 	c #EAEBEA",
"6 	c #ECF0F1",
"7 	c #5D7574",
"8 	c #404341",
"9 	c #424241",
"0 	c #6A5651",
"a 	c #EE9B7D",
"b 	c #F09A7B",
"c 	c #F19A7B",
"d 	c #E6886E",
"e 	c #C73935",
"f 	c #C63936",
"g 	c #C83934",
"h 	c #9D3E40",
"i 	c #CED4D3",
"j 	c #5C7573",
"k 	c #424243",
"l 	c #414241",
"m 	c #414342",
"n 	c #69554E",
"o 	c #EE9A7C",
"p 	c #F09A7C",
"q 	c #EF9A7B",
"r 	c #E88770",
"s 	c #C93835",
"t 	c #C83834",
"u 	c #9C3D3C",
"v 	c #AFC8C7",
"w 	c #A1CED4",
"x 	c #799A9D",
"y 	c #7A9A9D",
"z 	c #B18876",
"A 	c #BE7F6D",
"B 	c #BF806B",
"C 	c #BF806C",
"D 	c #C37D69",
"E 	c #D96D5D",
"F 	c #DA6C5B",
"G 	c #DA6D5B",
"H 	c #D96E5A",
"I 	c #D76152",
"J 	c #C83935",
"K 	c #C83835",
"L 	c #AF3533",
"M 	c #82302D",
"N 	c #81302E",
"O 	c #81302D",
"P 	c #8A8F8F",
"Q 	c #7A999D",
"R 	c #8CB4B8",
"S 	c #9BC7CD",
"T 	c #434241",
"U 	c #DA9077",
"V 	c #F1997A",
"W 	c #F2997B",
"X 	c #F1997B",
"Y 	c #ED9077",
"Z 	c #C83838",
"` 	c #B8312B",
" .	c #A01E17",
"..	c #A11E18",
"+.	c #A11D18",
"@.	c #633936",
"#.	c #414341",
"$.	c #749295",
"%.	c #424342",
"&.	c #434242",
"*.	c #D3846E",
"=.	c #EA8B73",
"-.	c #EB8B71",
";.	c #EB8C70",
">.	c #E5846B",
",.	c #C03531",
"'.	c #C13531",
").	c #B73936",
"!.	c #B13C37",
"~.	c #B13C39",
"{.	c #B93531",
"].	c #BA3530",
"^.	c #B02D27",
"/.	c #A11E16",
"(.	c #643838",
"_.	c #444143",
":.	c #9BC7CC",
"<.	c #444141",
"[.	c #B43B37",
"}.	c #C33632",
"|.	c #A21D17",
"1.	c #6F3534",
"2.	c #434240",
"3.	c #48403F",
"4.	c #731D19",
"5.	c #7C1710",
"6.	c #8B1A14",
"7.	c #A11D17",
"8.	c #A01E18",
"9.	c #653838",
"0.	c #9BC8CD",
"a.	c #444241",
"b.	c #B43B38",
"c.	c #C73936",
"d.	c #C23733",
"e.	c #6D3635",
"f.	c #454143",
"g.	c #711E19",
"h.	c #7A1811",
"i.	c #8B1914",
"j.	c #759396",
"k.	c #7C9EA1",
"l.	c #607778",
"m.	c #737373",
"n.	c #B53B38",
"o.	c #B63A38",
"p.	c #AB2A24",
"q.	c #AA241F",
"r.	c #8C3431",
"s.	c #684040",
"t.	c #654040",
"u.	c #5A3C3B",
"v.	c #593D3C",
"w.	c #BEB9BA",
"x.	c #E3E3E4",
"y.	c #D0D0D0",
"z.	c #848585",
"A.	c #858583",
"B.	c #554545",
"C.	c #4E3C3B",
"D.	c #533C3C",
"E.	c #5A3C3C",
"F.	c #5D3B38",
"G.	c #821815",
"H.	c #821912",
"I.	c #761F1B",
"J.	c #71221E",
"K.	c #6C5151",
"L.	c #607677",
"M.	c #6F8B8D",
"N.	c #414243",
"O.	c #66413F",
"P.	c #C93836",
"Q.	c #A8241F",
"R.	c #A01D18",
"S.	c #7C3230",
"T.	c #414242",
"U.	c #CBCBCB",
"V.	c #F8F8F8",
"W.	c #E3E3E3",
"X.	c #8F8F8F",
"Y.	c #908F90",
"Z.	c #4B4D4C",
"`.	c #4A3E40",
" +	c #781910",
".+	c #7B1710",
"++	c #791810",
"@+	c #692B29",
"#+	c #6F8B8C",
"$+	c #8E3130",
"%+	c #7F2F2D",
"&+	c #6E302F",
"*+	c #5C3333",
"=+	c #5C3331",
"-+	c #A8A2A0",
";+	c #C6C6C6",
">+	c #B6B6B6",
",+	c #767676",
"'+	c #797575",
")+	c #5E3B3A",
"!+	c #5C3330",
"~+	c #5C332F",
"{+	c #652C28",
"]+	c #642D2A",
"^+	c #741F18",
"/+	c #7A1711",
"(+	c #6E8B8D",
"_+	c #434144",
":+	c #674042",
"<+	c #C83936",
"[+	c #644040",
"}+	c #613230",
"|+	c #5A3532",
"1+	c #454141",
"2+	c #721E17",
"3+	c #7B1612",
"4+	c #751C16",
"5+	c #444240",
"6+	c #6B2724",
"7+	c #7B1712",
"8+	c #6A2B27",
"9+	c #434143",
"0+	c #6E8B8C",
"a+	c #3F443F",
"b+	c #674441",
"c+	c #C53B37",
"d+	c #C33A3A",
"e+	c #624140",
"f+	c #45413F",
"g+	c #603230",
"h+	c #781911",
"i+	c #771814",
"j+	c #771813",
"k+	c #5A3533",
"l+	c #464141",
"m+	c #701E1B",
"n+	c #751B18",
"o+	c #484040",
"p+	c #454140",
"q+	c #6B2722",
"r+	c #781812",
"s+	c #672F2B",
"t+	c #404440",
"u+	c #404441",
"v+	c #AFDADF",
"w+	c #A9D3D7",
"x+	c #BFDADA",
"y+	c #B2CBCA",
"z+	c #5D403D",
"A+	c #5E403E",
"B+	c #6C2624",
"C+	c #721F1B",
"D+	c #612F2D",
"E+	c #4C3D3C",
"F+	c #4C3D3B",
"G+	c #4D3D3B",
"H+	c #46403F",
"I+	c #4D3C3C",
"J+	c #503B37",
"K+	c #70201C",
"L+	c #721F1C",
"M+	c #573534",
"N+	c #4C3C3E",
"O+	c #728B8D",
"P+	c #9FCDD3",
"Q+	c #A9D7DE",
"R+	c #414343",
"S+	c #6F221C",
"T+	c #64302E",
"U+	c #483F40",
"V+	c #761911",
"W+	c #7A1810",
"X+	c #553836",
"Y+	c #424341",
"Z+	c #739294",
"`+	c #C9E4E6",
" @	c #AAC3C2",
".@	c #82A6AA",
"+@	c #7F9FA1",
"@@	c #716F71",
"#@	c #70706F",
"$@	c #644141",
"%@	c #61302F",
"&@	c #543938",
"*@	c #623030",
"=@	c #62312E",
"-@	c #6B6162",
";@	c #788788",
">@	c #83A6AA",
",@	c #AED9DF",
"'@	c #6F8A8C",
")@	c #575757",
"!@	c #565656",
"~@	c #7E7E7E",
"{@	c #7A7A7A",
"]@	c #5C5C5B",
"^@	c #9D9D9D",
"/@	c #5B5B5B",
"(@	c #6F8A8D",
"_@	c #7F8181",
":@	c #F9F8F8",
"<@	c #F7F9F9",
"[@	c #7F7F7F",
"}@	c #908F8F",
"|@	c #797B7B",
"1@	c #818080",
"2@	c #F6F9F7",
"3@	c #7F7F80",
"4@	c #918E90",
"5@	c #797B78",
"6@	c #434243",
"7@	c #91BCC0",
"8@	c #A3B8B6",
"9@	c #A5B8B4",
"0@	c #B3B2B2",
"a@	c #B2B3B1",
"b@	c #C0C0C0",
"c@	c #C4C4C4",
"d@	c #B9B9B9",
"e@	c #8A8A8A",
"f@	c #C1C1C1",
"g@	c #747474",
"h@	c #757575",
"i@	c #6F6F6F",
"j@	c #6B6E6C",
"k@	c #768989",
"l@	c #86ACAF",
"m@	c #86ADB0",
"n@	c #D8EBEB",
"o@	c #C7D9D8",
"p@	c #E5E5E5",
"q@	c #EAEAEA",
"r@	c #ACACAC",
"s@	c #F5F5F5",
"t@	c #8E8E8E",
"u@	c #616161",
"v@	c #749194",
"w@	c #E4E5E4",
"x@	c #D9D9D9",
"y@	c #F1F1F1",
"z@	c #EDEDED",
"A@	c #7C7C7C",
"B@	c #555555",
"C@	c #A7A7A7",
"D@	c #E7E7E7",
"E@	c #BEDFE4",
"F@	c #F0F4F4",
"G@	c #DCE1E1",
"H@	c #424244",
"I@	c #848586",
"J@	c #908F8E",
"K@	c #C9CACA",
"L@	c #E2E2E2",
"M@	c #616160",
"N@	c #759295",
"O@	c #ACD8DF",
"P@	c #BED5D4",
"Q@	c #858587",
"R@	c #8E8F8F",
"S@	c #CAC9CA",
"T@	c #B7DCE2",
"U@	c #E8F1F2",
"V@	c #C7E3E5",
"W@	c #C3E0E1",
"X@	c #98C4C9",
"Y@	c #667976",
"Z@	c #5A5B5B",
"`@	c #747374",
" #	c #898989",
".#	c #ADADAD",
"+#	c #A6A6A6",
"@#	c #7D7D7D",
"##	c #5A5B5A",
"$#	c #5B5A5B",
"%#	c #88AFB1",
"&#	c #9ECCD1",
"*#	c #B4DBE1",
"=#	c #5E7472",
"-#	c #515151",
";#	c #918E91",
">#	c #757976",
",#	c #91BCBF",
"'#	c #80A5A7",
")#	c #769799",
"!#	c #769699",
"~#	c #769395",
"{#	c #787978",
"]#	c #787878",
"^#	c #777979",
"/#	c #767A76",
"(#	c #808A88",
"_#	c #889D9D",
":#	c #779699",
"<#	c #789699",
"[#	c #78979A",
"}#	c #9CC8CD",
"|#	c #B3DBE0",
"1#	c #B2DBE0",
"2#	c #9EC4CD",
"3#	c #96BBC2",
"4#	c #718D90",
"5#	c #A2C5CE",
"6#	c #BDD1D4",
"7#	c #B9CFD3",
"8#	c #9DC3CC",
"                    . + @ # $ $ $ % @ & *     = - - - ;         ",
"                    > , ' ' ' ' ' ' ) ! ~     = - - - ;         ",
"            { ] ] ^ / ( _ _ : < [ } } | 1 2 3 4 5 6             ",
"            7 8 9 9 0 a b c b d e e f g h 9 ' ' 9 i             ",
"            j k l m n o b p q r s s g t u ' ' ' 9 v             ",
"      w x y z A B C D E F G H I J J s K L M M N O P Q R         ",
"      S k T U V W X Y g s J s e J J g Z `  . ...+.@.#.$.        ",
"      S %.&.*.=.-.;.>.,.'.).!.!.~.~.{.].^.+.+.+./.(._.$.        ",
"      :.k <.[.e g K }.|. .1.T T 2.3.4.5.6.+.+.7.8.9.' $.        ",
"      0.k a.b.c.J s d.|.7.e.k k k f.g.h.i.+.+.7.8.9.' j.        ",
"  k.l.m.n.o.p.q.r.s.t.u.v.w.x.y.z.A.B.C.D.E.F.G.H.I.J.K.L.L.    ",
"  M.N.O.J P.Q.R.S.T.T.' ' U.V.W.X.Y.Z.T.T.k `. +.+++h.@+' '     ",
"  #+' O.c.c.$+%+&+*+*+=+=+-+;+>+,+'+)+*+*+!+~+{+]+^+/+@+k k     ",
"  (+_+:+<+c.[+' }+.+.+/+/+|+' ' 9 1+2+.+.+3+4+5+_.6+7+8+&.9+    ",
"  0+a+b+c+d+e+f+g+h+h+i+j+k+' ' m l+m+h+h+h+n+o+p+q+r+s+t+u+    ",
"v+w+x+y+z+A+B+C+D+E+E+F+G+H+' ' ' ' E+E+E+I+J+K+L+M+N+O+P+>   Q+",
"- -   :.R+2.S+/+T+' ' ' ' ' ' ' ' ' ' ' ' m U+V+W+X+Y+Z+      v+",
"`+ @.@+@@@#@$@%@&@' ' ' ' ' ' ' ' ' ' ' ' ' 1+*@=@-@#@;@.@>@  ,@",
"  '@N.)@X.X.!@' ' ' ' ' ' ' ' ' ' ' ' ' ' ' ' ' ' ~@X.{@' '     ",
"  #+N.]@^@^@/@' ' ' ' ' ' ' ' ' ' ' ' ' ' ' ' ' ' ~@X.{@' '     ",
"  (@&._@:@<@[@' ' ' ' ' ' ' ' ' ' ' ' ' ' ' ' ' ' ~@}@|@' k     ",
"  (@k 1@2@V.3@' ' ' ' ' ' ' ' ' ' ' ' ' ' ' ' ' ' ~@4@5@6@&.    ",
"  7@8@9@0@a@b@c@c@c@d@' ' ' ' ' ' ' ' ' e@c@f@g@h@i@j@k@l@m@    ",
"    n@o@k 9 p@V.V.V.q@' ' ' ' ' ' ' ' ' r@V.s@t@X.u@' v@        ",
"  Q+V.w@k 9 x@q@y@V.z@A@A@A@A@g@B@B@B@!@C@q@D@X.X.u@' $.        ",
"E@E@F@G@H@' I@J@K@V.V.V.V.V.V.L@X.X.X.X.X.X.X.X.X.M@' N@      O@",
"V.V.- P@%., Q@R@S@V.V.V.V.V.V.W.X.X.X.X.X.X.X.X.X.u@9 $.      T@",
"U@U@V@W@X@X@Y@Z@`@ #t@.#.#.#.#+#X.X.X.X.@#/@/@##$#%#X@&#      *#",
"            =#&.9 9+-#X.X.X.X.X.X.X.}@;#>#' ' ' ' ,#            ",
"            '#)#!#!#~#{#]#]#]#]#]#]#^#/#(#_#:#<#[#}#|#|#|#1#    ",
"                    > 8 ' ' ' ' ' ' ' 6@~         = - - - ;     ",
"2#2#2#2#2#2#2#2#2#2#3#8 ' ' ' ' ' ' ' ' 4#2#2#2#2#5#6#6#6#7#2#8#"};
