/* XPM */
static char * exit4_xpm[] = {
"32 32 327 2",
"  	c #A8D7DE",
". 	c #A7D6DD",
"+ 	c #A8D6DD",
"@ 	c #CFE7E7",
"# 	c #A8D6DE",
"$ 	c #CEE6E6",
"% 	c #CEE7E7",
"& 	c #A4D3D9",
"* 	c #A2CFD5",
"= 	c #8DA1B0",
"- 	c #8A99A9",
"; 	c #8DA7B5",
"> 	c #9DC1CC",
", 	c #A8D6DC",
"' 	c #9EB7C9",
") 	c #8699A9",
"! 	c #8394A6",
"~ 	c #939CAB",
"{ 	c #9CAAB6",
"] 	c #C1D8DA",
"^ 	c #CDE7E7",
"/ 	c #A1C7D2",
"( 	c #798598",
"_ 	c #E9EAED",
": 	c #F8F8F8",
"< 	c #565C75",
"[ 	c #434A66",
"} 	c #778096",
"| 	c #95B6C3",
"1 	c #C7DDDF",
"2 	c #C8DFE0",
"3 	c #A3CFD6",
"4 	c #A3CED6",
"5 	c #A0C9D1",
"6 	c #91B0BD",
"7 	c #7D899D",
"8 	c #777F94",
"9 	c #464D68",
"0 	c #424A66",
"a 	c #F0F0F1",
"b 	c #F2F2F3",
"c 	c #818DA0",
"d 	c #9EC9D0",
"e 	c #8A9DAB",
"f 	c #727A8F",
"g 	c #E1E2E6",
"h 	c #F0F0F2",
"i 	c #555C75",
"j 	c #6E758B",
"k 	c #727A90",
"l 	c #788395",
"m 	c #8793A3",
"n 	c #778194",
"o 	c #71798F",
"p 	c #E8E8EB",
"q 	c #EAEAED",
"r 	c #788094",
"s 	c #7E90A3",
"t 	c #A9D4DC",
"u 	c #ADCED7",
"v 	c #515872",
"w 	c #AAAABB",
"x 	c #B7B7C6",
"y 	c #505771",
"z 	c #444B66",
"A 	c #B2B2C2",
"B 	c #B2B2C1",
"C 	c #484E6A",
"D 	c #464E68",
"E 	c #B0C6CF",
"F 	c #B1BECC",
"G 	c #515772",
"H 	c #62677E",
"I 	c #585E75",
"J 	c #484F6B",
"K 	c #484F6A",
"L 	c #B1B5C6",
"M 	c #9AA3BE",
"N 	c #4D5470",
"O 	c #F1F1F3",
"P 	c #F6F6F6",
"Q 	c #7F869A",
"R 	c #788095",
"S 	c #B4B4C4",
"T 	c #454C68",
"U 	c #9494B2",
"V 	c #A4C9D5",
"W 	c #959BB5",
"X 	c #4D536F",
"Y 	c #D7D9DD",
"Z 	c #DDDEE1",
"` 	c #DBDCDF",
" .	c #757C91",
"..	c #6F768D",
"+.	c #454C67",
"@.	c #8E90AC",
"#.	c #9DB7C7",
"$.	c #A6D3D9",
"%.	c #798398",
"&.	c #4A516C",
"*.	c #4F5670",
"=.	c #444B67",
"-.	c #767E93",
";.	c #8491A3",
">.	c #9CBECA",
",.	c #798297",
"'.	c #ACD4DF",
").	c #8EA7B5",
"!.	c #4A4B64",
"~.	c #484B65",
"{.	c #484C65",
"].	c #484B64",
"^.	c #484C64",
"/.	c #A0BBCC",
"(.	c #8390A3",
"_.	c #7E4648",
":.	c #7F4646",
"<.	c #804646",
"[.	c #7E4647",
"}.	c #95A1B8",
"|.	c #A3D0D7",
"1.	c #A3CBD5",
"2.	c #788096",
"3.	c #625368",
"4.	c #6F4955",
"5.	c #A94441",
"6.	c #C15548",
"7.	c #D5654E",
"8.	c #6E4855",
"9.	c #584B60",
"0.	c #757D92",
"a.	c #7B879A",
"b.	c #98BCC5",
"c.	c #93B3BF",
"d.	c #6E768C",
"e.	c #AAABBB",
"f.	c #ABAAB9",
"g.	c #826671",
"h.	c #8D4544",
"i.	c #C84F45",
"j.	c #E2624E",
"k.	c #F77253",
"l.	c #71505D",
"m.	c #A8A6B5",
"n.	c #6C748A",
"o.	c #8397A7",
"p.	c #A6D4DC",
"q.	c #7C4748",
"r.	c #A24442",
"s.	c #BE4240",
"t.	c #F67253",
"u.	c #BE4241",
"v.	c #A24443",
"w.	c #7D4747",
"x.	c #798195",
"y.	c #90ADBC",
"z.	c #49506C",
"A.	c #7E4746",
"B.	c #A34442",
"C.	c #BE4140",
"D.	c #6E778D",
"E.	c #626E85",
"F.	c #BE423F",
"G.	c #EF6C52",
"H.	c #F26F51",
"I.	c #F26F52",
"J.	c #A34443",
"K.	c #434B66",
"L.	c #464F69",
"M.	c #58617A",
"N.	c #7E4646",
"O.	c #DD5D4B",
"P.	c #F87252",
"Q.	c #4B5770",
"R.	c #545F78",
"S.	c #A9AABA",
"T.	c #4C2E30",
"U.	c #923A38",
"V.	c #CA4F45",
"W.	c #D6594A",
"X.	c #D7594A",
"Y.	c #B1B1C0",
"Z.	c #474F6A",
"`.	c #56667C",
" +	c #69758B",
".+	c #5C607D",
"++	c #464D69",
"@+	c #454B66",
"#+	c #9697A8",
"$+	c #4E3B33",
"%+	c #873E3B",
"&+	c #AF3F3E",
"*+	c #B74140",
"=+	c #AE403E",
"-+	c #AF3F3F",
";+	c #9F4C48",
">+	c #8E5751",
",+	c #9D9DAD",
"'+	c #5D647F",
")+	c #728499",
"!+	c #9FADC2",
"~+	c #9898B6",
"{+	c #4E5471",
"]+	c #674859",
"^+	c #7E4644",
"/+	c #D89477",
"(+	c #9B6D56",
"_+	c #000000",
":+	c #BD4341",
"<+	c #88302F",
"[+	c #030101",
"}+	c #9D6C56",
"|+	c #D79578",
"1+	c #7F4645",
"2+	c #644A5A",
"3+	c #9699B5",
"4+	c #9CAFC4",
"5+	c #767D93",
"6+	c #AACAD6",
"7+	c #BDBECF",
"8+	c #525873",
"9+	c #5C637B",
"0+	c #585F78",
"a+	c #424965",
"b+	c #B5BACB",
"c+	c #A6C3D2",
"d+	c #ABD8DE",
"e+	c #EDF4F6",
"f+	c #5E647D",
"g+	c #474D6A",
"h+	c #474D69",
"i+	c #464C69",
"j+	c #D9E9EC",
"k+	c #A8D3DA",
"l+	c #B9DCE5",
"m+	c #83869D",
"n+	c #636784",
"o+	c #687087",
"p+	c #666E86",
"q+	c #444A66",
"r+	c #636682",
"s+	c #646884",
"t+	c #BEDDE4",
"u+	c #A9D7DE",
"v+	c #CECEDD",
"w+	c #9A9AB7",
"x+	c #505672",
"y+	c #49506B",
"z+	c #757C92",
"A+	c #747C91",
"B+	c #9696B4",
"C+	c #9BA2BC",
"D+	c #ADD9DF",
"E+	c #C1E1E5",
"F+	c #E9F0F1",
"G+	c #B8BDCF",
"H+	c #737792",
"I+	c #6A6D89",
"J+	c #626A82",
"K+	c #646B82",
"L+	c #626A81",
"M+	c #646B83",
"N+	c #6C718C",
"O+	c #AAB4CA",
"P+	c #A7CDD8",
"Q+	c #A5D3DA",
"R+	c #F6F7F7",
"S+	c #D0E4E7",
"T+	c #A3ADC3",
"U+	c #9B9CB9",
"V+	c #525874",
"W+	c #494F6B",
"X+	c #999DB8",
"Y+	c #9DABC1",
"Z+	c #B2D8E0",
"`+	c #A6D4DA",
" @	c #E5F0F1",
".@	c #C5E3E5",
"+@	c #AAD0D9",
"@@	c #ADB8CD",
"#@	c #737692",
"$@	c #6A6D8A",
"%@	c #686B88",
"&@	c #738098",
"*@	c #A9C2D1",
"=@	c #A8D4DC",
"-@	c #A6D3DA",
";@	c #AFD8E0",
">@	c #A3ACC3",
",@	c #9A9BB8",
"'@	c #585D76",
")@	c #50566F",
"!@	c #4F566F",
"~@	c #515871",
"{@	c #979DB7",
"]@	c #A2BFCE",
"^@	c #ACD0DB",
"/@	c #ADB3CB",
"(@	c #969AA9",
"_@	c #9498A6",
":@	c #6B6F8A",
"<@	c #676B87",
"[@	c #656986",
"}@	c #696C89",
"|@	c #8992A2",
"1@	c #8997A6",
"2@	c #A9CDD8",
"3@	c #B1DBE0",
"4@	c #A7D5DC",
"5@	c #B0D5DD",
"6@	c #E2ECEF",
"7@	c #ECF1F3",
"8@	c #A1A7BF",
"9@	c #989EB9",
"0@	c #57627B",
"a@	c #515D75",
"b@	c #505C74",
"c@	c #4C5670",
"d@	c #4C5770",
"e@	c #4E5971",
"f@	c #545E75",
"g@	c #586378",
"h@	c #9BA4BD",
"i@	c #C0DEE3",
"j@	c #ABD6DD",
"k@	c #CDE4E5",
"l@	c #CCE4E5",
"            . . +           @ @ @ @       # . + $ $ @ %       & ",
"          * = - ; >         @ @ @ @     , ' ) ! ~ { ] ^       & ",
"        / ( _ : < [ } | 1 2 2 2 3 4 5 6 7 8 9 0 a b c d       & ",
"      # e f g h i [ j k l m m m n k k k k o 9 [ p q r s t     & ",
"      u v [ w x y z z z z z z z z z z z z z [ [ A B C D E     & ",
"      F G [ w x H I I I I I I I I I I I I I J K A B C 9 L +   & ",
"      M N [ w x O : : : : : : : : : : : : P Q R S B C T U V   & ",
"      W X [ w x Y Z Z Z Z Z Z Z Z Z Z Z Z `  ...S B C +.@.#.  & ",
"    $.%.&.[ w x *.[ [ [ [ [ [ [ [ [ [ [ [ [ [ [ A B C =.-.;.  & ",
"    >.R &.[ w x *.[ [ [ [ [ [ [ [ [ [ [ [ [ [ [ A B C =.-.,.'.& ",
"    ).R &.[ w x *.[ !.~.{.{.{.].].].].^.~.].[ [ A B C =.-.R /.& ",
"  . (.R &.[ w x *.[ _.:.:.<.<.<.<.<.<.:.:.[.[ [ A B C =.-.R }.|.",
"  1.2.8 &.[ w x 3.4.5.6.7.7.7.7.7.7.7.7.6.5.8.9.A B C =.0.8 a.b.",
"  c.d.j K [ e.f.g.h.i.j.k.k.k.k.k.k.k.k.j.i.h.l.m.B K =.n.j ,.o.",
"p.! &.[ [ [ e.q.r.s.t.k.k.k.k.k.k.k.k.k.k.t.u.v.w.B K [ [ [ -.x.",
"y.d.z.[ [ [ e.A.B.s.t.k.k.k.k.k.k.k.k.k.k.t.C.B.A.B K [ [ [ d.D.",
"E.[ [ [ [ [ e.[.B.F.G.H.k.k.k.k.k.k.k.k.I.G.F.J.A.B K [ [ [ K.L.",
"M.[ [ [ [ [ e.N.v.s.s.O.P.k.k.k.k.k.k.P.O.s.u.B.A.B K [ [ [ =.Q.",
"R.T [ [ [ [ S.T.U.s.s.V.W.X.X.X.X.X.X.X.V.s.u.B.A.Y.K [ [ [ Z.`.",
" +.+++[ [ @+#+$+%+&+s.s.s.s.*+=+=+*+s.s.s.F.-+;+>+,+C [ [ [ '+)+",
"!+~+{+[ [ ]+^+/+(+_+:+s.s.s.<+[+[+<+s.s.s.:+_+}+|+1+2+[ [ 0 3+4+",
"!+~+{+[ [ [ k R &.=.=.=.=.=.=.=.=.=.=.=.=.=.=.=.5+0.T [ [ 0 3+4+",
"6+7+8+[ [ [ k R 9+0+0+0+0+0+0+0+0+0+0+0+0+0+0+0+-.0.T [ [ a+b+c+",
"d+e+f+g+[ [ k R -.-.-.-.-.-.-.-.-.-.-.-.-.-.-.-.R 0.T [ h+i+j+k+",
"  l+m+n+++[ k R o+p+p+p+p+p+p+p+p+p+p+p+p+p+p+p+R 0.T q+r+s+t+& ",
"u+u+v+w+x+9 o 8 y+[ [ [ [ [ [ [ [ [ [ [ [ [ [ [ z+A+C C B+C+D+& ",
"E+E+F+G+H+I+J+K+++[ [ [ [ [ [ [ [ [ [ [ [ [ [ [ L+M+I+N+O+P+  Q+",
"R+R+% S+T+U+V+W+[ [ [ [ [ [ [ [ [ [ [ [ [ [ [ [ J V+X+Y+Z+    `+",
" @ @.@.@+@@@#@$@++[ [ [ [ [ [ [ [ [ [ [ [ [ [ [ %@&@*@=@      -@",
"          ;@>@,@'@)@W+C [ [ [ [ [ [ [ [ C J !@~@{@]@u+u+u+u+  & ",
"            ^@/@(@_@:@<@++[ [ [ [ [ [ [ [@}@|@1@2@u+3@3@3@3@  & ",
"4@4@4@4@4@4@4@5@6@7@8@9@0@a@b@c@d@e@f@g@W h@i@4@4@j@k@k@k@l@4@|."};
