/* XPM */
static char * exit6_xpm[] = {
"32 32 307 2",
"  	c #A8D7DE",
". 	c #A7D6DD",
"+ 	c #A8D6DD",
"@ 	c #CFE7E7",
"# 	c #A8D6DE",
"$ 	c #CEE6E6",
"% 	c #CEE7E7",
"& 	c #A4D3D9",
"* 	c #A2CFD5",
"= 	c #8DA1B0",
"- 	c #8A99A9",
"; 	c #8DA7B5",
"> 	c #9DC1CC",
", 	c #A8D6DC",
"' 	c #9EB7C9",
") 	c #8699A9",
"! 	c #8394A6",
"~ 	c #939CAB",
"{ 	c #9CAAB6",
"] 	c #C1D8DA",
"^ 	c #CDE7E7",
"/ 	c #A1C7D2",
"( 	c #798598",
"_ 	c #E9EAED",
": 	c #F8F8F8",
"< 	c #565C75",
"[ 	c #434A66",
"} 	c #778096",
"| 	c #95B6C3",
"1 	c #C7DDDF",
"2 	c #C8DFE0",
"3 	c #A3CFD6",
"4 	c #A3CED6",
"5 	c #A0C9D1",
"6 	c #91B0BD",
"7 	c #7D899D",
"8 	c #777F94",
"9 	c #464D68",
"0 	c #424A66",
"a 	c #F0F0F1",
"b 	c #F2F2F3",
"c 	c #818DA0",
"d 	c #9EC9D0",
"e 	c #8A9DAB",
"f 	c #727A8F",
"g 	c #E1E2E6",
"h 	c #F0F0F2",
"i 	c #555C75",
"j 	c #6E758B",
"k 	c #727A90",
"l 	c #788395",
"m 	c #8793A3",
"n 	c #778194",
"o 	c #71798F",
"p 	c #E8E8EB",
"q 	c #EAEAED",
"r 	c #788094",
"s 	c #7E90A3",
"t 	c #A9D4DC",
"u 	c #ADCED7",
"v 	c #515872",
"w 	c #AAAABB",
"x 	c #B7B7C6",
"y 	c #505771",
"z 	c #444B66",
"A 	c #B2B2C2",
"B 	c #B2B2C1",
"C 	c #484E6A",
"D 	c #464E68",
"E 	c #B0C6CF",
"F 	c #B1BECC",
"G 	c #515772",
"H 	c #62677E",
"I 	c #585E75",
"J 	c #484F6B",
"K 	c #484F6A",
"L 	c #B1B5C6",
"M 	c #9AA3BE",
"N 	c #4D5470",
"O 	c #F1F1F3",
"P 	c #F6F6F6",
"Q 	c #7F869A",
"R 	c #788095",
"S 	c #B4B4C4",
"T 	c #454C68",
"U 	c #9494B2",
"V 	c #A4C9D5",
"W 	c #959BB5",
"X 	c #4D536F",
"Y 	c #D7D9DD",
"Z 	c #DDDEE1",
"` 	c #DBDCDF",
" .	c #757C91",
"..	c #6F768D",
"+.	c #454C67",
"@.	c #8E90AC",
"#.	c #9DB7C7",
"$.	c #A6D3D9",
"%.	c #798398",
"&.	c #4A516C",
"*.	c #4F5670",
"=.	c #444B67",
"-.	c #767E93",
";.	c #8491A3",
">.	c #9CBECA",
",.	c #798297",
"'.	c #ACD4DF",
").	c #8EA7B5",
"!.	c #A0BBCC",
"~.	c #8390A3",
"{.	c #95A1B8",
"].	c #A3D0D7",
"^.	c #A3CBD5",
"/.	c #788096",
"(.	c #535873",
"_.	c #474E69",
":.	c #757D92",
"<.	c #7B879A",
"[.	c #98BCC5",
"}.	c #93B3BF",
"|.	c #6E768C",
"1.	c #AAABBB",
"2.	c #808495",
"3.	c #7B7F90",
"4.	c #7A7E8F",
"5.	c #535973",
"6.	c #505872",
"7.	c #6C748A",
"8.	c #8397A7",
"9.	c #A6D4DC",
"0.	c #EFEFF1",
"a.	c #F4F4F4",
"b.	c #7E8599",
"c.	c #798195",
"d.	c #90ADBC",
"e.	c #49506C",
"f.	c #D5D6DB",
"g.	c #DADBDF",
"h.	c #D8D9DD",
"i.	c #6E778D",
"j.	c #626E85",
"k.	c #4F5570",
"l.	c #434B66",
"m.	c #464F69",
"n.	c #58617A",
"o.	c #4B5770",
"p.	c #545F78",
"q.	c #A9AABA",
"r.	c #B6B6C5",
"s.	c #4A4B64",
"t.	c #484B65",
"u.	c #484C65",
"v.	c #484B64",
"w.	c #484C64",
"x.	c #B0B1C1",
"y.	c #B1B1C0",
"z.	c #474F6A",
"A.	c #56667C",
"B.	c #69758B",
"C.	c #5C607D",
"D.	c #464D69",
"E.	c #9C9EB0",
"F.	c #A7AABA",
"G.	c #4E556F",
"H.	c #7E4648",
"I.	c #7F4646",
"J.	c #804646",
"K.	c #7E4647",
"L.	c #A2A5B6",
"M.	c #A3A5B6",
"N.	c #474E6A",
"O.	c #5D647F",
"P.	c #728499",
"Q.	c #9FADC2",
"R.	c #9898B6",
"S.	c #4E5471",
"T.	c #767D93",
"U.	c #9699B5",
"V.	c #9CAFC4",
"W.	c #AACAD6",
"X.	c #BDBECF",
"Y.	c #525873",
"Z.	c #5C637B",
"`.	c #585F78",
" +	c #424965",
".+	c #B5BACB",
"++	c #A6C3D2",
"@+	c #ABD8DE",
"#+	c #EDF4F6",
"$+	c #5E647D",
"%+	c #474D6A",
"&+	c #474D69",
"*+	c #464C69",
"=+	c #D9E9EC",
"-+	c #A8D3DA",
";+	c #B9DCE5",
">+	c #83869D",
",+	c #636784",
"'+	c #687087",
")+	c #666E86",
"!+	c #444A66",
"~+	c #636682",
"{+	c #646884",
"]+	c #BEDDE4",
"^+	c #A9D7DE",
"/+	c #CECEDD",
"(+	c #9A9AB7",
"_+	c #505672",
":+	c #49506B",
"<+	c #757C92",
"[+	c #747C91",
"}+	c #9696B4",
"|+	c #9BA2BC",
"1+	c #ADD9DF",
"2+	c #C1E1E5",
"3+	c #E9F0F1",
"4+	c #B8BDCF",
"5+	c #737792",
"6+	c #6A6D89",
"7+	c #626A82",
"8+	c #646B82",
"9+	c #626A81",
"0+	c #646B83",
"a+	c #6C718C",
"b+	c #AAB4CA",
"c+	c #A7CDD8",
"d+	c #A5D3DA",
"e+	c #F6F7F7",
"f+	c #D0E4E7",
"g+	c #A3ADC3",
"h+	c #9B9CB9",
"i+	c #525874",
"j+	c #494F6B",
"k+	c #999DB8",
"l+	c #9DABC1",
"m+	c #B2D8E0",
"n+	c #A6D4DA",
"o+	c #E5F0F1",
"p+	c #C5E3E5",
"q+	c #AAD0D9",
"r+	c #ADB8CD",
"s+	c #737692",
"t+	c #6A6D8A",
"u+	c #686B88",
"v+	c #738098",
"w+	c #A9C2D1",
"x+	c #A8D4DC",
"y+	c #A6D3DA",
"z+	c #AFD8E0",
"A+	c #A3ACC3",
"B+	c #9A9BB8",
"C+	c #585D76",
"D+	c #50566F",
"E+	c #4F566F",
"F+	c #515871",
"G+	c #979DB7",
"H+	c #A2BFCE",
"I+	c #ACD0DB",
"J+	c #ADB3CB",
"K+	c #969AA9",
"L+	c #9498A6",
"M+	c #6B6F8A",
"N+	c #676B87",
"O+	c #656986",
"P+	c #696C89",
"Q+	c #8992A2",
"R+	c #8997A6",
"S+	c #A9CDD8",
"T+	c #B1DBE0",
"U+	c #A7D5DC",
"V+	c #B0D5DD",
"W+	c #E2ECEF",
"X+	c #ECF1F3",
"Y+	c #A1A7BF",
"Z+	c #989EB9",
"`+	c #57627B",
" @	c #515D75",
".@	c #505C74",
"+@	c #4C5670",
"@@	c #4C5770",
"#@	c #4E5971",
"$@	c #545E75",
"%@	c #586378",
"&@	c #9BA4BD",
"*@	c #C0DEE3",
"=@	c #ABD6DD",
"-@	c #CDE4E5",
";@	c #CCE4E5",
">@	c #93B8C0",
",@	c #94B8C0",
"'@	c #A2C0C7",
")@	c #94ACBA",
"!@	c #90A6B6",
"~@	c #6F8395",
"{@	c #6D8191",
"]@	c #697F8E",
"^@	c #5D6F81",
"/@	c #5E6F81",
"(@	c #647786",
"_@	c #758492",
":@	c #7E909C",
"<@	c #8FA8B6",
"[@	c #93B4C0",
"}@	c #96B9C1",
"|@	c #B2C4C7",
"1@	c #B1C4C7",
"2@	c #90B4BC",
"            . . +           @ @ @ @       # . + $ $ @ %       & ",
"          * = - ; >         @ @ @ @     , ' ) ! ~ { ] ^       & ",
"        / ( _ : < [ } | 1 2 2 2 3 4 5 6 7 8 9 0 a b c d       & ",
"      # e f g h i [ j k l m m m n k k k k o 9 [ p q r s t     & ",
"      u v [ w x y z z z z z z z z z z z z z [ [ A B C D E     & ",
"      F G [ w x H I I I I I I I I I I I I I J K A B C 9 L +   & ",
"      M N [ w x O : : : : : : : : : : : : P Q R S B C T U V   & ",
"      W X [ w x Y Z Z Z Z Z Z Z Z Z Z Z Z `  ...S B C +.@.#.  & ",
"    $.%.&.[ w x *.[ [ [ [ [ [ [ [ [ [ [ [ [ [ [ A B C =.-.;.  & ",
"    >.R &.[ w x *.[ [ [ [ [ [ [ [ [ [ [ [ [ [ [ A B C =.-.,.'.& ",
"    ).R &.[ w x *.[ [ [ [ [ [ [ [ [ [ [ [ [ [ [ A B C =.-.R !.& ",
"  . ~.R &.[ w x *.[ [ [ [ [ [ [ [ [ [ [ [ [ [ [ A B C =.-.R {.].",
"  ^./.8 &.[ w x (._._._._._._._._._._._._._.=.=.A B C =.:.8 <.[.",
"  }.|.j K [ 1.x 2.3.3.3.3.3.3.3.3.3.3.3.3.4.5.6.A B K =.7.j ,.8.",
"9.! &.[ [ [ 1.x 0.P P P P P P P P P P P P a.b.8 S B K [ [ [ -.c.",
"d.|.e.[ [ [ 1.x f.g.g.g.g.g.g.g.g.g.g.g.g.h. .|.S B K [ [ [ |.i.",
"j.[ [ [ [ [ 1.x k.[ [ [ [ [ [ [ [ [ [ [ [ [ [ [ A B K [ [ [ l.m.",
"n.[ [ [ [ [ 1.x k.[ [ [ [ [ [ [ [ [ [ [ [ [ [ [ A B K [ [ [ =.o.",
"p.T [ [ [ [ q.r.k.[ s.t.u.u.u.v.v.v.v.w.t.v.[ [ x.y.K [ [ [ z.A.",
"B.C.D.[ [ [ E.F.G.[ H.I.I.J.J.J.J.J.J.I.I.K.[ [ L.M.N.[ [ [ O.P.",
"Q.R.S.[ [ [ k R &.=.=.=.=.=.=.=.=.=.=.=.=.=.=.=.T.:.T [ [ 0 U.V.",
"W.X.Y.[ [ [ k R Z.`.`.`.`.`.`.`.`.`.`.`.`.`.`.`.-.:.T [ [  +.+++",
"@+#+$+%+[ [ k R -.-.-.-.-.-.-.-.-.-.-.-.-.-.-.-.R :.T [ &+*+=+-+",
"  ;+>+,+D.[ k R '+)+)+)+)+)+)+)+)+)+)+)+)+)+)+)+R :.T !+~+{+]+& ",
"^+^+/+(+_+9 o 8 :+[ [ [ [ [ [ [ [ [ [ [ [ [ [ [ <+[+C C }+|+1+& ",
"2+2+3+4+5+6+7+8+D.[ [ [ [ [ [ [ [ [ [ [ [ [ [ [ 9+0+6+a+b+c+  d+",
"e+e+% f+g+h+i+j+[ [ [ [ [ [ [ [ [ [ [ [ [ [ [ [ J i+k+l+m+    n+",
"o+o+p+p+q+r+s+t+D.[ [ [ [ [ [ [ [ [ [ [ [ [ [ [ u+v+w+x+      y+",
"          z+A+B+C+D+j+C [ [ [ [ [ [ [ [ C J E+F+G+H+^+^+^+^+  & ",
"            I+J+K+L+M+N+D.[ [ [ [ [ [ [ O+P+Q+R+S+^+T+T+T+T+  & ",
"U+U+U+U+U+U+U+V+W+X+Y+Z+`+ @.@+@@@#@$@%@W &@*@U+U+=@-@-@-@;@U+].",
">@>@>@>@>@>@>@>@,@'@)@!@~@{@]@^@/@(@_@:@<@[@>@>@>@}@|@|@|@1@>@2@"};
