/* XPM */
static char * exit5_xpm[] = {
"32 32 304 2",
"  	c #A8D7DE",
". 	c #A7D6DD",
"+ 	c #A8D6DD",
"@ 	c #CFE7E7",
"# 	c #A8D6DE",
"$ 	c #CEE6E6",
"% 	c #CEE7E7",
"& 	c #A4D3D9",
"* 	c #A2CFD5",
"= 	c #8DA1B0",
"- 	c #8A99A9",
"; 	c #8DA7B5",
"> 	c #9DC1CC",
", 	c #A8D6DC",
"' 	c #9EB7C9",
") 	c #8699A9",
"! 	c #8394A6",
"~ 	c #939CAB",
"{ 	c #9CAAB6",
"] 	c #C1D8DA",
"^ 	c #CDE7E7",
"/ 	c #A1C7D2",
"( 	c #798598",
"_ 	c #E9EAED",
": 	c #F8F8F8",
"< 	c #565C75",
"[ 	c #434A66",
"} 	c #778096",
"| 	c #95B6C3",
"1 	c #C7DDDF",
"2 	c #C8DFE0",
"3 	c #A3CFD6",
"4 	c #A3CED6",
"5 	c #A0C9D1",
"6 	c #91B0BD",
"7 	c #7D899D",
"8 	c #777F94",
"9 	c #464D68",
"0 	c #424A66",
"a 	c #F0F0F1",
"b 	c #F2F2F3",
"c 	c #818DA0",
"d 	c #9EC9D0",
"e 	c #8A9DAB",
"f 	c #727A8F",
"g 	c #E1E2E6",
"h 	c #F0F0F2",
"i 	c #555C75",
"j 	c #6E758B",
"k 	c #727A90",
"l 	c #788395",
"m 	c #8793A3",
"n 	c #778194",
"o 	c #71798F",
"p 	c #E8E8EB",
"q 	c #EAEAED",
"r 	c #788094",
"s 	c #7E90A3",
"t 	c #A9D4DC",
"u 	c #ADCED7",
"v 	c #515872",
"w 	c #AAAABB",
"x 	c #B7B7C6",
"y 	c #505771",
"z 	c #444B66",
"A 	c #B2B2C2",
"B 	c #B2B2C1",
"C 	c #484E6A",
"D 	c #464E68",
"E 	c #B0C6CF",
"F 	c #B1BECC",
"G 	c #515772",
"H 	c #62677E",
"I 	c #585E75",
"J 	c #484F6B",
"K 	c #484F6A",
"L 	c #B1B5C6",
"M 	c #9AA3BE",
"N 	c #4D5470",
"O 	c #F1F1F3",
"P 	c #F6F6F6",
"Q 	c #7F869A",
"R 	c #788095",
"S 	c #B4B4C4",
"T 	c #454C68",
"U 	c #9494B2",
"V 	c #A4C9D5",
"W 	c #959BB5",
"X 	c #4D536F",
"Y 	c #D7D9DD",
"Z 	c #DDDEE1",
"` 	c #DBDCDF",
" .	c #757C91",
"..	c #6F768D",
"+.	c #454C67",
"@.	c #8E90AC",
"#.	c #9DB7C7",
"$.	c #A6D3D9",
"%.	c #798398",
"&.	c #4A516C",
"*.	c #4F5670",
"=.	c #444B67",
"-.	c #767E93",
";.	c #8491A3",
">.	c #9CBECA",
",.	c #798297",
"'.	c #ACD4DF",
").	c #8EA7B5",
"!.	c #A0BBCC",
"~.	c #8390A3",
"{.	c #95A1B8",
"].	c #A3D0D7",
"^.	c #A3CBD5",
"/.	c #788096",
"(.	c #535873",
"_.	c #474E69",
":.	c #757D92",
"<.	c #7B879A",
"[.	c #98BCC5",
"}.	c #93B3BF",
"|.	c #6E768C",
"1.	c #AAABBB",
"2.	c #808495",
"3.	c #7B7F90",
"4.	c #7A7E8F",
"5.	c #535973",
"6.	c #505872",
"7.	c #6C748A",
"8.	c #8397A7",
"9.	c #A6D4DC",
"0.	c #EFEFF1",
"a.	c #F4F4F4",
"b.	c #7E8599",
"c.	c #798195",
"d.	c #90ADBC",
"e.	c #49506C",
"f.	c #D5D6DB",
"g.	c #DADBDF",
"h.	c #CACACE",
"i.	c #CACACF",
"j.	c #C8C8CD",
"k.	c #6E778D",
"l.	c #626E85",
"m.	c #4F5570",
"n.	c #7E4648",
"o.	c #7F4646",
"p.	c #804646",
"q.	c #7E4647",
"r.	c #434B66",
"s.	c #464F69",
"t.	c #58617A",
"u.	c #605166",
"v.	c #6E4854",
"w.	c #A94441",
"x.	c #C15548",
"y.	c #D5654E",
"z.	c #574A5F",
"A.	c #4B5770",
"B.	c #545F78",
"C.	c #A9AABA",
"D.	c #AAAAB8",
"E.	c #724D5C",
"F.	c #8D4544",
"G.	c #C84F45",
"H.	c #E2624E",
"I.	c #F77253",
"J.	c #6D4957",
"K.	c #A6A5B4",
"L.	c #B1B1C0",
"M.	c #474F6A",
"N.	c #56667C",
"O.	c #69758B",
"P.	c #5C607D",
"Q.	c #464D69",
"R.	c #9C9EB0",
"S.	c #7C4748",
"T.	c #A24442",
"U.	c #BE4240",
"V.	c #F67253",
"W.	c #BE4241",
"X.	c #A24443",
"Y.	c #7D4747",
"Z.	c #A3A5B6",
"`.	c #474E6A",
" +	c #5D647F",
".+	c #728499",
"++	c #9FADC2",
"@+	c #9898B6",
"#+	c #4E5471",
"$+	c #7E4746",
"%+	c #A34442",
"&+	c #BE4140",
"*+	c #9699B5",
"=+	c #9CAFC4",
"-+	c #767D93",
";+	c #AACAD6",
">+	c #BDBECF",
",+	c #525873",
"'+	c #5C637B",
")+	c #585F78",
"!+	c #424965",
"~+	c #B5BACB",
"{+	c #A6C3D2",
"]+	c #ABD8DE",
"^+	c #EDF4F6",
"/+	c #5E647D",
"(+	c #474D6A",
"_+	c #474D69",
":+	c #464C69",
"<+	c #D9E9EC",
"[+	c #A8D3DA",
"}+	c #B9DCE5",
"|+	c #83869D",
"1+	c #636784",
"2+	c #687087",
"3+	c #666E86",
"4+	c #444A66",
"5+	c #636682",
"6+	c #646884",
"7+	c #BEDDE4",
"8+	c #A9D7DE",
"9+	c #CECEDD",
"0+	c #9A9AB7",
"a+	c #505672",
"b+	c #49506B",
"c+	c #757C92",
"d+	c #747C91",
"e+	c #9696B4",
"f+	c #9BA2BC",
"g+	c #ADD9DF",
"h+	c #C1E1E5",
"i+	c #E9F0F1",
"j+	c #B8BDCF",
"k+	c #737792",
"l+	c #6A6D89",
"m+	c #626A82",
"n+	c #646B82",
"o+	c #626A81",
"p+	c #646B83",
"q+	c #6C718C",
"r+	c #AAB4CA",
"s+	c #A7CDD8",
"t+	c #A5D3DA",
"u+	c #F6F7F7",
"v+	c #D0E4E7",
"w+	c #A3ADC3",
"x+	c #9B9CB9",
"y+	c #525874",
"z+	c #494F6B",
"A+	c #999DB8",
"B+	c #9DABC1",
"C+	c #B2D8E0",
"D+	c #A6D4DA",
"E+	c #E5F0F1",
"F+	c #C5E3E5",
"G+	c #AAD0D9",
"H+	c #ADB8CD",
"I+	c #737692",
"J+	c #6A6D8A",
"K+	c #686B88",
"L+	c #738098",
"M+	c #A9C2D1",
"N+	c #A8D4DC",
"O+	c #A6D3DA",
"P+	c #AFD8E0",
"Q+	c #A3ACC3",
"R+	c #9A9BB8",
"S+	c #585D76",
"T+	c #50566F",
"U+	c #4F566F",
"V+	c #515871",
"W+	c #979DB7",
"X+	c #A2BFCE",
"Y+	c #ACD0DB",
"Z+	c #ADB3CB",
"`+	c #969AA9",
" @	c #9498A6",
".@	c #6B6F8A",
"+@	c #676B87",
"@@	c #656986",
"#@	c #696C89",
"$@	c #8992A2",
"%@	c #8997A6",
"&@	c #A9CDD8",
"*@	c #B1DBE0",
"=@	c #A7D5DC",
"-@	c #B0D5DD",
";@	c #E2ECEF",
">@	c #ECF1F3",
",@	c #A1A7BF",
"'@	c #989EB9",
")@	c #57627B",
"!@	c #515D75",
"~@	c #505C74",
"{@	c #4C5670",
"]@	c #4C5770",
"^@	c #4E5971",
"/@	c #545E75",
"(@	c #586378",
"_@	c #9BA4BD",
":@	c #C0DEE3",
"<@	c #ABD6DD",
"[@	c #CDE4E5",
"}@	c #CCE4E5",
"            . . +           @ @ @ @       # . + $ $ @ %       & ",
"          * = - ; >         @ @ @ @     , ' ) ! ~ { ] ^       & ",
"        / ( _ : < [ } | 1 2 2 2 3 4 5 6 7 8 9 0 a b c d       & ",
"      # e f g h i [ j k l m m m n k k k k o 9 [ p q r s t     & ",
"      u v [ w x y z z z z z z z z z z z z z [ [ A B C D E     & ",
"      F G [ w x H I I I I I I I I I I I I I J K A B C 9 L +   & ",
"      M N [ w x O : : : : : : : : : : : : P Q R S B C T U V   & ",
"      W X [ w x Y Z Z Z Z Z Z Z Z Z Z Z Z `  ...S B C +.@.#.  & ",
"    $.%.&.[ w x *.[ [ [ [ [ [ [ [ [ [ [ [ [ [ [ A B C =.-.;.  & ",
"    >.R &.[ w x *.[ [ [ [ [ [ [ [ [ [ [ [ [ [ [ A B C =.-.,.'.& ",
"    ).R &.[ w x *.[ [ [ [ [ [ [ [ [ [ [ [ [ [ [ A B C =.-.R !.& ",
"  . ~.R &.[ w x *.[ [ [ [ [ [ [ [ [ [ [ [ [ [ [ A B C =.-.R {.].",
"  ^./.8 &.[ w x (._._._._._._._._._._._._._.=.=.A B C =.:.8 <.[.",
"  }.|.j K [ 1.x 2.3.3.3.3.3.3.3.3.3.3.3.3.4.5.6.A B K =.7.j ,.8.",
"9.! &.[ [ [ 1.x 0.P P P P P P P P P P P P a.b.8 S B K [ [ [ -.c.",
"d.|.e.[ [ [ 1.x f.g.h.i.h.h.h.h.h.h.h.h.h.j. .|.S B K [ [ [ |.k.",
"l.[ [ [ [ [ 1.x m.[ n.o.o.p.p.p.p.p.p.o.o.q.[ [ A B K [ [ [ r.s.",
"t.[ [ [ [ [ 1.x u.v.w.x.y.y.y.y.y.y.y.y.x.w.v.z.A B K [ [ [ =.A.",
"B.T [ [ [ [ C.D.E.F.G.H.I.I.I.I.I.I.I.I.H.G.F.J.K.L.K [ [ [ M.N.",
"O.P.Q.[ [ [ R.S.T.U.V.I.I.I.I.I.I.I.I.I.I.V.W.X.Y.Z.`.[ [ [  +.+",
"++@+#+[ [ [ k $+%+U.V.I.I.I.I.I.I.I.I.I.I.V.&+%+$+:.T [ [ 0 *+=+",
"++@+#+[ [ [ k R &.=.=.=.=.=.=.=.=.=.=.=.=.=.=.=.-+:.T [ [ 0 *+=+",
";+>+,+[ [ [ k R '+)+)+)+)+)+)+)+)+)+)+)+)+)+)+)+-.:.T [ [ !+~+{+",
"]+^+/+(+[ [ k R -.-.-.-.-.-.-.-.-.-.-.-.-.-.-.-.R :.T [ _+:+<+[+",
"  }+|+1+Q.[ k R 2+3+3+3+3+3+3+3+3+3+3+3+3+3+3+3+R :.T 4+5+6+7+& ",
"8+8+9+0+a+9 o 8 b+[ [ [ [ [ [ [ [ [ [ [ [ [ [ [ c+d+C C e+f+g+& ",
"h+h+i+j+k+l+m+n+Q.[ [ [ [ [ [ [ [ [ [ [ [ [ [ [ o+p+l+q+r+s+  t+",
"u+u+% v+w+x+y+z+[ [ [ [ [ [ [ [ [ [ [ [ [ [ [ [ J y+A+B+C+    D+",
"E+E+F+F+G+H+I+J+Q.[ [ [ [ [ [ [ [ [ [ [ [ [ [ [ K+L+M+N+      O+",
"          P+Q+R+S+T+z+C [ [ [ [ [ [ [ [ C J U+V+W+X+8+8+8+8+  & ",
"            Y+Z+`+ @.@+@Q.[ [ [ [ [ [ [ @@#@$@%@&@8+*@*@*@*@  & ",
"=@=@=@=@=@=@=@-@;@>@,@'@)@!@~@{@]@^@/@(@W _@:@=@=@<@[@[@[@}@=@]."};
