/* XPM */
static char * exit2_xpm[] = {
"32 32 411 2",
"  	c #A8D7DE",
". 	c #A7D6DD",
"+ 	c #A8D6DD",
"@ 	c #7E4648",
"# 	c #7F4646",
"$ 	c #804646",
"% 	c #7E4647",
"& 	c #CEE6E6",
"* 	c #CFE7E7",
"= 	c #CEE7E7",
"- 	c #A4D3D9",
"; 	c #A2CFD5",
"> 	c #8DA1B0",
", 	c #8A99A9",
"' 	c #88929D",
") 	c #8C858C",
"! 	c #A94441",
"~ 	c #C15548",
"{ 	c #D5654E",
"] 	c #826E77",
"^ 	c #7F8291",
"/ 	c #939CAB",
"( 	c #9CAAB6",
"_ 	c #C1D8DA",
": 	c #CDE7E7",
"< 	c #A1C7D2",
"[ 	c #798598",
"} 	c #E9EAED",
"| 	c #E6E5E6",
"1 	c #73515F",
"2 	c #8D4544",
"3 	c #C84F45",
"4 	c #E2624E",
"5 	c #F77253",
"6 	c #6D4957",
"7 	c #DFDEDF",
"8 	c #F2F2F3",
"9 	c #818DA0",
"0 	c #9EC9D0",
"a 	c #A8D6DE",
"b 	c #8A9DAB",
"c 	c #727A8F",
"d 	c #E1E2E6",
"e 	c #7C4748",
"f 	c #A24442",
"g 	c #BE4240",
"h 	c #F67253",
"i 	c #BE4241",
"j 	c #A24443",
"k 	c #7D4747",
"l 	c #EAEAED",
"m 	c #788094",
"n 	c #7E90A3",
"o 	c #A9D4DC",
"p 	c #ADCED7",
"q 	c #515872",
"r 	c #434A66",
"s 	c #AAAABB",
"t 	c #7E4746",
"u 	c #A34442",
"v 	c #BE4140",
"w 	c #B2B2C1",
"x 	c #484E6A",
"y 	c #464E68",
"z 	c #B0C6CF",
"A 	c #B1BECC",
"B 	c #515772",
"C 	c #BE423F",
"D 	c #EF6C52",
"E 	c #F26F51",
"F 	c #F26F52",
"G 	c #A34443",
"H 	c #464D68",
"I 	c #B1B5C6",
"J 	c #9AA3BE",
"K 	c #4D5470",
"L 	c #7E4646",
"M 	c #DD5D4B",
"N 	c #F87252",
"O 	c #454C68",
"P 	c #9494B2",
"Q 	c #A4C9D5",
"R 	c #959BB5",
"S 	c #4D536F",
"T 	c #4C2E30",
"U 	c #923A38",
"V 	c #CA4F45",
"W 	c #D6594A",
"X 	c #D7594A",
"Y 	c #454C67",
"Z 	c #8E90AC",
"` 	c #9DB7C7",
" .	c #A6D3D9",
"..	c #798398",
"+.	c #4A516C",
"@.	c #454B66",
"#.	c #A3A2B2",
"$.	c #4E3B33",
"%.	c #873E3B",
"&.	c #AF3F3E",
"*.	c #B74140",
"=.	c #AE403E",
"-.	c #AF3F3F",
";.	c #9F4C48",
">.	c #8E5751",
",.	c #ABA9B8",
"'.	c #494E6A",
").	c #444B67",
"!.	c #767E93",
"~.	c #8491A3",
"{.	c #9CBECA",
"].	c #788095",
"^.	c #674859",
"/.	c #7E4644",
"(.	c #D89477",
"_.	c #9B6D56",
":.	c #000000",
"<.	c #BD4341",
"[.	c #88302F",
"}.	c #030101",
"|.	c #9D6C56",
"1.	c #D79578",
"2.	c #7F4645",
"3.	c #654B5B",
"4.	c #798297",
"5.	c #ACD4DF",
"6.	c #8EA7B5",
"7.	c #63495A",
"8.	c #7F4644",
"9.	c #D79576",
"0.	c #B27C63",
"a.	c #82584B",
"b.	c #742D2D",
"c.	c #762D2B",
"d.	c #752D2B",
"e.	c #9B4545",
"f.	c #813F3F",
"g.	c #633737",
"h.	c #742E2D",
"i.	c #82574C",
"j.	c #B27B63",
"k.	c #804545",
"l.	c #644B5B",
"m.	c #A0BBCC",
"n.	c #8390A3",
"o.	c #62495B",
"p.	c #84575B",
"q.	c #D08F73",
"r.	c #C0826A",
"s.	c #AD7361",
"t.	c #000001",
"u.	c #774344",
"v.	c #784343",
"w.	c #784342",
"x.	c #794342",
"y.	c #BF826B",
"z.	c #D18F73",
"A.	c #85595D",
"B.	c #604C5F",
"C.	c #95A1B8",
"D.	c #A3D0D7",
"E.	c #A3CBD5",
"F.	c #788096",
"G.	c #777F94",
"H.	c #B37662",
"I.	c #D69578",
"J.	c #010101",
"K.	c #010100",
"L.	c #020001",
"M.	c #010000",
"N.	c #D59678",
"O.	c #B27662",
"P.	c #7E4747",
"Q.	c #757D92",
"R.	c #7B879A",
"S.	c #98BCC5",
"T.	c #93B3BF",
"U.	c #6E768C",
"V.	c #6E758B",
"W.	c #484F6A",
"X.	c #AAABBB",
"Y.	c #A397A2",
"Z.	c #957070",
"`.	c #A96F5E",
" +	c #613736",
".+	c #452627",
"++	c #8B6162",
"@+	c #9F939F",
"#+	c #6C748A",
"$+	c #8397A7",
"%+	c #A6D4DC",
"&+	c #8394A6",
"*+	c #B7B7C6",
"=+	c #BFB5B6",
"-+	c #794444",
";+	c #593234",
">+	c #1D1010",
",+	c #1D1110",
"'+	c #794544",
")+	c #766775",
"!+	c #B4B4C4",
"~+	c #798195",
"{+	c #90ADBC",
"]+	c #49506C",
"^+	c #9C9DA1",
"/+	c #020000",
"(+	c #010001",
"_+	c #5A3232",
":+	c #4F5566",
"<+	c #6E778D",
"[+	c #626E85",
"}+	c #797984",
"|+	c #4E6376",
"1+	c #637F97",
"2+	c #5B3231",
"3+	c #522C2E",
"4+	c #512C2E",
"5+	c #7F4647",
"6+	c #637F96",
"7+	c #4C6175",
"8+	c #767681",
"9+	c #434B66",
"0+	c #464F69",
"a+	c #58617A",
"b+	c #A8A9B8",
"c+	c #362C24",
"d+	c #60778F",
"e+	c #799FC1",
"f+	c #573133",
"g+	c #7A4645",
"h+	c #251F13",
"i+	c #312F2B",
"j+	c #3A3A3A",
"k+	c #251F12",
"l+	c #7A4646",
"m+	c #799FC2",
"n+	c #352D25",
"o+	c #B0AFBE",
"p+	c #4B5770",
"q+	c #545F78",
"r+	c #654959",
"s+	c #7E4545",
"t+	c #F9C69A",
"u+	c #BA968C",
"v+	c #3D3D76",
"w+	c #020101",
"x+	c #B59C4B",
"y+	c #DCD4BE",
"z+	c #FEFFFD",
"A+	c #FEFEFD",
"B+	c #B9968C",
"C+	c #F9C69B",
"D+	c #7D4545",
"E+	c #654C5C",
"F+	c #474F6A",
"G+	c #56667C",
"H+	c #69758B",
"I+	c #5C607D",
"J+	c #464D69",
"K+	c #64495A",
"L+	c #7F4544",
"M+	c #E6AC85",
"N+	c #CA9581",
"O+	c #A97B7D",
"P+	c #5A3F37",
"Q+	c #7E564A",
"R+	c #E3C561",
"S+	c #EFD992",
"T+	c #FAECB8",
"U+	c #7F4545",
"V+	c #664B5B",
"W+	c #5D647F",
"X+	c #728499",
"Y+	c #9FADC2",
"Z+	c #9898B6",
"`+	c #4E5471",
" @	c #727A90",
".@	c #767D93",
"+@	c #424A66",
"@@	c #9699B5",
"#@	c #9CAFC4",
"$@	c #AACAD6",
"%@	c #BDBECF",
"&@	c #525873",
"*@	c #5C637B",
"=@	c #585F78",
"-@	c #424965",
";@	c #B5BACB",
">@	c #A6C3D2",
",@	c #ABD8DE",
"'@	c #EDF4F6",
")@	c #5E647D",
"!@	c #474D6A",
"~@	c #474D69",
"{@	c #464C69",
"]@	c #D9E9EC",
"^@	c #A8D3DA",
"/@	c #B9DCE5",
"(@	c #83869D",
"_@	c #636784",
":@	c #687087",
"<@	c #666E86",
"[@	c #444A66",
"}@	c #636682",
"|@	c #646884",
"1@	c #BEDDE4",
"2@	c #A9D7DE",
"3@	c #CECEDD",
"4@	c #9A9AB7",
"5@	c #505672",
"6@	c #71798F",
"7@	c #49506B",
"8@	c #757C92",
"9@	c #747C91",
"0@	c #9696B4",
"a@	c #9BA2BC",
"b@	c #ADD9DF",
"c@	c #C1E1E5",
"d@	c #E9F0F1",
"e@	c #B8BDCF",
"f@	c #737792",
"g@	c #6A6D89",
"h@	c #626A82",
"i@	c #646B82",
"j@	c #626A81",
"k@	c #646B83",
"l@	c #6C718C",
"m@	c #AAB4CA",
"n@	c #A7CDD8",
"o@	c #A5D3DA",
"p@	c #F6F7F7",
"q@	c #D0E4E7",
"r@	c #A3ADC3",
"s@	c #9B9CB9",
"t@	c #525874",
"u@	c #494F6B",
"v@	c #484F6B",
"w@	c #999DB8",
"x@	c #9DABC1",
"y@	c #B2D8E0",
"z@	c #A6D4DA",
"A@	c #E5F0F1",
"B@	c #C5E3E5",
"C@	c #AAD0D9",
"D@	c #ADB8CD",
"E@	c #737692",
"F@	c #6A6D8A",
"G@	c #686B88",
"H@	c #738098",
"I@	c #A9C2D1",
"J@	c #A8D4DC",
"K@	c #A6D3DA",
"L@	c #AFD8E0",
"M@	c #A3ACC3",
"N@	c #9A9BB8",
"O@	c #585D76",
"P@	c #50566F",
"Q@	c #4F566F",
"R@	c #515871",
"S@	c #979DB7",
"T@	c #A2BFCE",
"U@	c #ACD0DB",
"V@	c #ADB3CB",
"W@	c #969AA9",
"X@	c #9498A6",
"Y@	c #6B6F8A",
"Z@	c #676B87",
"`@	c #656986",
" #	c #696C89",
".#	c #8992A2",
"+#	c #8997A6",
"@#	c #A9CDD8",
"##	c #B1DBE0",
"$#	c #A7D5DC",
"%#	c #B0D5DD",
"&#	c #E2ECEF",
"*#	c #ECF1F3",
"=#	c #A1A7BF",
"-#	c #989EB9",
";#	c #57627B",
">#	c #515D75",
",#	c #505C74",
"'#	c #4C5670",
")#	c #4C5770",
"!#	c #4E5971",
"~#	c #545E75",
"{#	c #586378",
"]#	c #9BA4BD",
"^#	c #C0DEE3",
"/#	c #ABD6DD",
"(#	c #CDE4E5",
"_#	c #CCE4E5",
":#	c #93B8C0",
"<#	c #94B8C0",
"[#	c #A2C0C7",
"}#	c #94ACBA",
"|#	c #90A6B6",
"1#	c #6F8395",
"2#	c #6D8191",
"3#	c #697F8E",
"4#	c #5D6F81",
"5#	c #5E6F81",
"6#	c #647786",
"7#	c #758492",
"8#	c #7E909C",
"9#	c #8FA8B6",
"0#	c #93B4C0",
"a#	c #96B9C1",
"b#	c #B2C4C7",
"c#	c #B1C4C7",
"d#	c #90B4BC",
"            . . +   @ # # $ $ $ $ $ $ # # % . + & & * =       - ",
"          ; > , ' ) ! ~ { { { { { { { { ~ ! ] ^ / ( _ :       - ",
"        < [ } | 1 2 3 4 5 5 5 5 5 5 5 5 4 3 2 6 7 8 9 0       - ",
"      a b c d e f g h 5 5 5 5 5 5 5 5 5 5 h i j k l m n o     - ",
"      p q r s t u g h 5 5 5 5 5 5 5 5 5 5 h v u t w x y z     - ",
"      A B r s % u C D E 5 5 5 5 5 5 5 5 F D C G t w x H I +   - ",
"      J K r s L j g g M N 5 5 5 5 5 5 N M g i u t w x O P Q   - ",
"      R S r s T U g g V W X X X X X X X V g i u t w x Y Z `   - ",
"     ...+.@.#.$.%.&.g g g g *.=.=.*.g g g C -.;.>.,.'.).!.~.  - ",
"    {.].+.^./.(._.:.<.g g g [.}.}.[.g g g <.:.|.1.2.3.).!.4.5.- ",
"    6.].+.7.8.9.0.a.b.c.d.e.f.g.g.f.e.d.c.h.i.j.9.k.l.).!.].m.- ",
"  . n.].+.o.p.q.r.s.:.t.:.u.v.w.x.v.u.:.t.:.s.y.z.A.B.).!.].C.D.",
"  E.F.G.+.r s # H.I.:.J.K.L.K.K.M.M.L.K.J.:.N.O.P.w x ).Q.G.R.S.",
"  T.U.V.W.r X.Y.Z.`. +.+K.K.M.M.M.M.K.K..+ +`.++@+w W.).#+V.4.$+",
"%+&++.r r r X.*+=+-+-+;+>+>+>+>+>+>+>+,+;+'+-+)+!+w W.r r r !.~+",
"{+U.]+r r r X.*+^+/+(+_+L # L L L L L # _+M./+:+!+w W.r r r U.<+",
"[+r r r r r X.}+|+1+:.2+% 3+4+3+3+4+3+5+2+:.6+7+8+w W.r r r 9+0+",
"a+r r r r r b+c+d+e+:.f+g+h+i+j+j+i+k+l+f+:.m+d+n+o+W.r r r ).p+",
"q+O r r r r+s+t+u+v+M.w+:.x+y+z+A+y+x+:.w+M.v+B+C+D+E+r r r F+G+",
"H+I+J+r r K+L+M+N+O+:.P+Q+R+S+T+T+S+R+Q+P+:.O+N+M+U+V+r r r W+X+",
"Y+Z+`+r r r  @].+.).).).).).).).).).).).).).).)..@Q.O r r +@@@#@",
"$@%@&@r r r  @].*@=@=@=@=@=@=@=@=@=@=@=@=@=@=@=@!.Q.O r r -@;@>@",
",@'@)@!@r r  @].!.!.!.!.!.!.!.!.!.!.!.!.!.!.!.!.].Q.O r ~@{@]@^@",
"  /@(@_@J+r  @].:@<@<@<@<@<@<@<@<@<@<@<@<@<@<@<@].Q.O [@}@|@1@- ",
"2@2@3@4@5@H 6@G.7@r r r r r r r r r r r r r r r 8@9@x x 0@a@b@- ",
"c@c@d@e@f@g@h@i@J+r r r r r r r r r r r r r r r j@k@g@l@m@n@  o@",
"p@p@= q@r@s@t@u@r r r r r r r r r r r r r r r r v@t@w@x@y@    z@",
"A@A@B@B@C@D@E@F@J+r r r r r r r r r r r r r r r G@H@I@J@      K@",
"          L@M@N@O@P@u@x r r r r r r r r x v@Q@R@S@T@2@2@2@2@  - ",
"            U@V@W@X@Y@Z@J+r r r r r r r `@ #.#+#@#2@########  - ",
"$#$#$#$#$#$#$#%#&#*#=#-#;#>#,#'#)#!#~#{#R ]#^#$#$#/#(#(#(#_#$#D.",
":#:#:#:#:#:#:#:#<#[#}#|#1#2#3#4#5#6#7#8#9#0#:#:#:#a#b#b#b#c#:#d#"};
