/* XPM */
static char *exit_xpm[] = {
/* columns rows colors chars-per-pixel */
"32 32 5 1",
". c #AABBCC",
"o c #000000",
"B c #8B4513",
"b c #D2B48C",
"G c #00FF00",
/* pixels */
"................................",
".......oo..............oo.......",
"......oBo..............oBo......",
"......oBo..............oBo......",
"......oBo..............oBo......",
"......oBoooooooooooooooBo.......",
"......oBbBBBBBBBBBBBBbBo........",
"......oBooooooooooooooBo........",
"......oBo..............oBo......",
"......oBo..............oBo......",
"......oBo..............oBo......",
"......oBoooooooooooooooBo.......",
"......oBbBBBBBBBBBBBBbBo........",
"......oBooooooooooooooBo........",
"......oBo..............oBo......",
"......oBo..............oBo......",
"......oBo..............oBo......",
"......oBoooooooooooooooBo.......",
"......oBbBBBBBBBBBBBBbBo........",
"......oBooooooooooooooBo........",
"......oBo..............oBo......",
"......oBo..............oBo......",
"......oBo..............oBo......",
"......oBoooooooooooooooBo.......",
"......oBbBBBBBBBBBBBBbBo........",
"......oBooooooooooooooBo........",
"......oBo..............oBo......",
"......oBo..............oBo......",
".......oo..............oo.......",
"................................",
"................................",
"................................"
};
