/* XPM */
static char * exit3_xpm[] = {
"32 32 381 2",
"  	c #A8D7DE",
". 	c #A7D6DD",
"+ 	c #A8D6DD",
"@ 	c #CFE7E7",
"# 	c #A8D6DE",
"$ 	c #CEE6E6",
"% 	c #CEE7E7",
"& 	c #A4D3D9",
"* 	c #A2CFD5",
"= 	c #8DA1B0",
"- 	c #8A99A9",
"; 	c #8DA7B5",
"> 	c #9DC1CC",
", 	c #A8D6DC",
"' 	c #9EB7C9",
") 	c #8699A9",
"! 	c #8394A6",
"~ 	c #939CAB",
"{ 	c #9CAAB6",
"] 	c #C1D8DA",
"^ 	c #CDE7E7",
"/ 	c #A1C7D2",
"( 	c #798598",
"_ 	c #E9EAED",
": 	c #F8F8F8",
"< 	c #565C75",
"[ 	c #434A66",
"} 	c #778096",
"| 	c #95B6C3",
"1 	c #C7DDDF",
"2 	c #C8DFE0",
"3 	c #A3CFD6",
"4 	c #A3CED6",
"5 	c #A0C9D1",
"6 	c #91B0BD",
"7 	c #7D899D",
"8 	c #777F94",
"9 	c #464D68",
"0 	c #424A66",
"a 	c #F0F0F1",
"b 	c #F2F2F3",
"c 	c #818DA0",
"d 	c #9EC9D0",
"e 	c #8A9DAB",
"f 	c #727A8F",
"g 	c #E1E2E6",
"h 	c #F0F0F2",
"i 	c #555C75",
"j 	c #6E758B",
"k 	c #727A90",
"l 	c #788395",
"m 	c #8793A3",
"n 	c #778194",
"o 	c #71798F",
"p 	c #E8E8EB",
"q 	c #EAEAED",
"r 	c #788094",
"s 	c #7E90A3",
"t 	c #A9D4DC",
"u 	c #ADCED7",
"v 	c #515872",
"w 	c #AAAABB",
"x 	c #B7B7C6",
"y 	c #505771",
"z 	c #444B66",
"A 	c #4A4C64",
"B 	c #494C65",
"C 	c #494D65",
"D 	c #494C64",
"E 	c #B2B2C2",
"F 	c #B2B2C1",
"G 	c #484E6A",
"H 	c #464E68",
"I 	c #B0C6CF",
"J 	c #B1BECC",
"K 	c #515772",
"L 	c #62677E",
"M 	c #585E75",
"N 	c #7E4648",
"O 	c #7F4646",
"P 	c #804646",
"Q 	c #7E4647",
"R 	c #484F6B",
"S 	c #484F6A",
"T 	c #B1B5C6",
"U 	c #9AA3BE",
"V 	c #4D5470",
"W 	c #D5CFD1",
"X 	c #B9A7A7",
"Y 	c #A94441",
"Z 	c #C15548",
"` 	c #D5654E",
" .	c #7F646F",
"..	c #777284",
"+.	c #B4B4C4",
"@.	c #454C68",
"#.	c #9494B2",
"$.	c #A4C9D5",
"%.	c #959BB5",
"&.	c #4D536F",
"*.	c #ABAAB9",
"=.	c #AD9B9E",
"-.	c #8D4544",
";.	c #C84F45",
">.	c #E2624E",
",.	c #F77253",
"'.	c #7B5F6C",
").	c #A9A7B7",
"!.	c #454C67",
"~.	c #8E90AC",
"{.	c #9DB7C7",
"].	c #A6D3D9",
"^.	c #798398",
"/.	c #4A516C",
"(.	c #7C4748",
"_.	c #A24442",
":.	c #BE4240",
"<.	c #F67253",
"[.	c #BE4241",
"}.	c #A24443",
"|.	c #7D4747",
"1.	c #444B67",
"2.	c #767E93",
"3.	c #8491A3",
"4.	c #9CBECA",
"5.	c #788095",
"6.	c #7E4746",
"7.	c #A34442",
"8.	c #BE4140",
"9.	c #798297",
"0.	c #ACD4DF",
"a.	c #8EA7B5",
"b.	c #BE423F",
"c.	c #EF6C52",
"d.	c #F26F51",
"e.	c #F26F52",
"f.	c #A34443",
"g.	c #A0BBCC",
"h.	c #8390A3",
"i.	c #7E4646",
"j.	c #DD5D4B",
"k.	c #F87252",
"l.	c #95A1B8",
"m.	c #A3D0D7",
"n.	c #A3CBD5",
"o.	c #788096",
"p.	c #4C2E30",
"q.	c #923A38",
"r.	c #CA4F45",
"s.	c #D6594A",
"t.	c #D7594A",
"u.	c #757D92",
"v.	c #7B879A",
"w.	c #98BCC5",
"x.	c #93B3BF",
"y.	c #6E768C",
"z.	c #454B66",
"A.	c #A3A3B2",
"B.	c #4E3B33",
"C.	c #873E3B",
"D.	c #AF3F3E",
"E.	c #B74140",
"F.	c #AE403E",
"G.	c #AF3F3F",
"H.	c #9F4C48",
"I.	c #8E5751",
"J.	c #ABA9B8",
"K.	c #494F6A",
"L.	c #6C748A",
"M.	c #8397A7",
"N.	c #A6D4DC",
"O.	c #674859",
"P.	c #7E4644",
"Q.	c #D89477",
"R.	c #9B6D56",
"S.	c #000000",
"T.	c #BD4341",
"U.	c #88302F",
"V.	c #030101",
"W.	c #9D6C56",
"X.	c #D79578",
"Y.	c #7F4645",
"Z.	c #654C5B",
"`.	c #798195",
" +	c #90ADBC",
".+	c #49506C",
"++	c #63495A",
"@+	c #7F4644",
"#+	c #D79576",
"$+	c #B27C63",
"%+	c #82584B",
"&+	c #742D2D",
"*+	c #762D2B",
"=+	c #752D2B",
"-+	c #9B4545",
";+	c #813F3F",
">+	c #633737",
",+	c #742E2D",
"'+	c #82574C",
")+	c #B27B63",
"!+	c #804545",
"~+	c #644C5B",
"{+	c #6E778D",
"]+	c #626E85",
"^+	c #62495B",
"/+	c #84585B",
"(+	c #D08F73",
"_+	c #C0826A",
":+	c #AD7361",
"<+	c #000001",
"[+	c #774344",
"}+	c #784343",
"|+	c #784342",
"1+	c #794342",
"2+	c #BF826B",
"3+	c #D18F73",
"4+	c #85595D",
"5+	c #604D5F",
"6+	c #434B66",
"7+	c #464F69",
"8+	c #58617A",
"9+	c #AAABBB",
"0+	c #B37662",
"a+	c #D69578",
"b+	c #010101",
"c+	c #010100",
"d+	c #020001",
"e+	c #010000",
"f+	c #D59678",
"g+	c #B27662",
"h+	c #7E4747",
"i+	c #4B5770",
"j+	c #545F78",
"k+	c #A9AABA",
"l+	c #A296A2",
"m+	c #8B6161",
"n+	c #A96F5E",
"o+	c #613736",
"p+	c #452627",
"q+	c #8A5E5E",
"r+	c #9E929F",
"s+	c #B1B1C0",
"t+	c #474F6A",
"u+	c #56667C",
"v+	c #69758B",
"w+	c #5C607D",
"x+	c #464D69",
"y+	c #9C9EB0",
"z+	c #A7AABA",
"A+	c #654E5E",
"B+	c #794444",
"C+	c #593234",
"D+	c #1D1010",
"E+	c #1D1110",
"F+	c #794544",
"G+	c #614858",
"H+	c #A2A5B6",
"I+	c #A3A5B6",
"J+	c #474E6A",
"K+	c #5D647F",
"L+	c #728499",
"M+	c #9FADC2",
"N+	c #9898B6",
"O+	c #4E5471",
"P+	c #34394E",
"Q+	c #020000",
"R+	c #010001",
"S+	c #5A3232",
"T+	c #30354A",
"U+	c #767D93",
"V+	c #9699B5",
"W+	c #9CAFC4",
"X+	c #AACAD6",
"Y+	c #BDBECF",
"Z+	c #525873",
"`+	c #5C637B",
" @	c #585F78",
".@	c #424965",
"+@	c #B5BACB",
"@@	c #A6C3D2",
"#@	c #ABD8DE",
"$@	c #EDF4F6",
"%@	c #5E647D",
"&@	c #474D6A",
"*@	c #474D69",
"=@	c #464C69",
"-@	c #D9E9EC",
";@	c #A8D3DA",
">@	c #B9DCE5",
",@	c #83869D",
"'@	c #636784",
")@	c #687087",
"!@	c #666E86",
"~@	c #444A66",
"{@	c #636682",
"]@	c #646884",
"^@	c #BEDDE4",
"/@	c #A9D7DE",
"(@	c #CECEDD",
"_@	c #9A9AB7",
":@	c #505672",
"<@	c #49506B",
"[@	c #757C92",
"}@	c #747C91",
"|@	c #9696B4",
"1@	c #9BA2BC",
"2@	c #ADD9DF",
"3@	c #C1E1E5",
"4@	c #E9F0F1",
"5@	c #B8BDCF",
"6@	c #737792",
"7@	c #6A6D89",
"8@	c #626A82",
"9@	c #646B82",
"0@	c #626A81",
"a@	c #646B83",
"b@	c #6C718C",
"c@	c #AAB4CA",
"d@	c #A7CDD8",
"e@	c #A5D3DA",
"f@	c #F6F7F7",
"g@	c #D0E4E7",
"h@	c #A3ADC3",
"i@	c #9B9CB9",
"j@	c #525874",
"k@	c #494F6B",
"l@	c #999DB8",
"m@	c #9DABC1",
"n@	c #B2D8E0",
"o@	c #A6D4DA",
"p@	c #E5F0F1",
"q@	c #C5E3E5",
"r@	c #AAD0D9",
"s@	c #ADB8CD",
"t@	c #737692",
"u@	c #6A6D8A",
"v@	c #686B88",
"w@	c #738098",
"x@	c #A9C2D1",
"y@	c #A8D4DC",
"z@	c #A6D3DA",
"A@	c #AFD8E0",
"B@	c #A3ACC3",
"C@	c #9A9BB8",
"D@	c #585D76",
"E@	c #50566F",
"F@	c #4F566F",
"G@	c #515871",
"H@	c #979DB7",
"I@	c #A2BFCE",
"J@	c #ACD0DB",
"K@	c #ADB3CB",
"L@	c #969AA9",
"M@	c #9498A6",
"N@	c #6B6F8A",
"O@	c #676B87",
"P@	c #656986",
"Q@	c #696C89",
"R@	c #8992A2",
"S@	c #8997A6",
"T@	c #A9CDD8",
"U@	c #B1DBE0",
"V@	c #A7D5DC",
"W@	c #B0D5DD",
"X@	c #E2ECEF",
"Y@	c #ECF1F3",
"Z@	c #A1A7BF",
"`@	c #989EB9",
" #	c #57627B",
".#	c #515D75",
"+#	c #505C74",
"@#	c #4C5670",
"##	c #4C5770",
"$#	c #4E5971",
"%#	c #545E75",
"&#	c #586378",
"*#	c #9BA4BD",
"=#	c #C0DEE3",
"-#	c #ABD6DD",
";#	c #CDE4E5",
">#	c #CCE4E5",
"            . . +           @ @ @ @       # . + $ $ @ %       & ",
"          * = - ; >         @ @ @ @     , ' ) ! ~ { ] ^       & ",
"        / ( _ : < [ } | 1 2 2 2 3 4 5 6 7 8 9 0 a b c d       & ",
"      # e f g h i [ j k l m m m n k k k k o 9 [ p q r s t     & ",
"      u v [ w x y z A B C C C D D D D D B D [ [ E F G H I     & ",
"      J K [ w x L M N O O P P P P P P O O Q R S E F G 9 T +   & ",
"      U V [ w x W X Y Z ` ` ` ` ` ` ` ` Z Y  ...+.F G @.#.$.  & ",
"      %.&.[ w *.=.-.;.>.,.,.,.,.,.,.,.,.>.;.-.'.).F G !.~.{.  & ",
"    ].^./.[ w (._.:.<.,.,.,.,.,.,.,.,.,.,.<.[.}.|.F G 1.2.3.  & ",
"    4.5./.[ w 6.7.:.<.,.,.,.,.,.,.,.,.,.,.<.8.7.6.F G 1.2.9.0.& ",
"    a.5./.[ w Q 7.b.c.d.,.,.,.,.,.,.,.,.e.c.b.f.6.F G 1.2.5.g.& ",
"  . h.5./.[ w i.}.:.:.j.k.,.,.,.,.,.,.k.j.:.[.7.6.F G 1.2.5.l.m.",
"  n.o.8 /.[ w p.q.:.:.r.s.t.t.t.t.t.t.t.r.:.[.7.6.F G 1.u.8 v.w.",
"  x.y.j S z.A.B.C.D.:.:.:.:.E.F.F.E.:.:.:.b.G.H.I.J.K.1.L.j 9.M.",
"N.! /.[ [ O.P.Q.R.S.T.:.:.:.U.V.V.U.:.:.:.T.S.W.X.Y.Z.[ [ [ 2.`.",
" +y..+[ [ ++@+#+$+%+&+*+=+-+;+>+>+;+-+=+*+,+'+)+#+!+~+[ [ [ y.{+",
"]+[ [ [ [ ^+/+(+_+:+S.<+S.[+}+|+1+}+[+S.<+S.:+2+3+4+5+[ [ [ 6+7+",
"8+[ [ [ [ [ 9+O 0+a+S.b+c+d+c+c+e+e+d+c+b+S.f+g+h+F S [ [ [ 1.i+",
"j+@.[ [ [ [ k+l+m+n+o+p+c+c+e+e+e+e+c+c+p+o+n+q+r+s+S [ [ [ t+u+",
"v+w+x+[ [ [ y+z+A+B+B+C+D+D+D+D+D+D+D+E+C+F+B+G+H+I+J+[ [ [ K+L+",
"M+N+O+[ [ [ k 5.P+Q+R+S+i.O i.i.i.i.i.O S+e+Q+T+U+u.@.[ [ 0 V+W+",
"M+N+O+[ [ [ k 5./.1.1.1.1.1.1.1.1.1.1.1.1.1.1.1.U+u.@.[ [ 0 V+W+",
"X+Y+Z+[ [ [ k 5.`+ @ @ @ @ @ @ @ @ @ @ @ @ @ @ @2.u.@.[ [ .@+@@@",
"#@$@%@&@[ [ k 5.2.2.2.2.2.2.2.2.2.2.2.2.2.2.2.2.5.u.@.[ *@=@-@;@",
"  >@,@'@x+[ k 5.)@!@!@!@!@!@!@!@!@!@!@!@!@!@!@!@5.u.@.~@{@]@^@& ",
"/@/@(@_@:@9 o 8 <@[ [ [ [ [ [ [ [ [ [ [ [ [ [ [ [@}@G G |@1@2@& ",
"3@3@4@5@6@7@8@9@x+[ [ [ [ [ [ [ [ [ [ [ [ [ [ [ 0@a@7@b@c@d@  e@",
"f@f@% g@h@i@j@k@[ [ [ [ [ [ [ [ [ [ [ [ [ [ [ [ R j@l@m@n@    o@",
"p@p@q@q@r@s@t@u@x+[ [ [ [ [ [ [ [ [ [ [ [ [ [ [ v@w@x@y@      z@",
"          A@B@C@D@E@k@G [ [ [ [ [ [ [ [ G R F@G@H@I@/@/@/@/@  & ",
"            J@K@L@M@N@O@x+[ [ [ [ [ [ [ P@Q@R@S@T@/@U@U@U@U@  & ",
"V@V@V@V@V@V@V@W@X@Y@Z@`@ #.#+#@###$#%#&#%.*#=#V@V@-#;#;#;#>#V@m."};
