/* XPM */
static char *floor_xpm[] = {
/* columns rows colors chars-per-pixel */
"32 32 3 1",
"  c #DDDDEE",
". c #AABBCC",
"X c #8899BB",
/* pixels */
"................................",
"................................",
"................................",
"................................",
"................................",
"................................",
"................................",
"................................",
"................................",
"................................",
"................................",
"................................",
"................................",
"................................",
"................................",
"................................",
"................................",
"................................",
"................................",
"................................",
"................................",
"................................",
"................................",
"................................",
"................................",
"................................",
"................................",
"................................",
"................................",
"................................",
"................................",
"................................"
};
