/* XPM */
static char * hole8_xpm[] = {
"32 32 173 2",
"  	c #A8D7DE",
". 	c #ABD8DF",
"+ 	c #CFE7E7",
"@ 	c #AFDADF",
"# 	c #C9E4E5",
"$ 	c #AAD4E6",
"% 	c #8564FA",
"& 	c #7E82F9",
"* 	c #53E6FC",
"= 	c #72E9FC",
"- 	c #CDFEFE",
"; 	c #CBF3F4",
"> 	c #A2DCE5",
", 	c #BEEEF0",
"' 	c #CEEDED",
") 	c #B0DFE5",
"! 	c #C2ECFB",
"~ 	c #8461F8",
"{ 	c #C1FBFE",
"] 	c #73E2F5",
"^ 	c #A6D7DE",
"/ 	c #9090F3",
"( 	c #8083FA",
"_ 	c #A1E7F2",
": 	c #ABDCE3",
"< 	c #93DCE9",
"[ 	c #84D5F0",
"} 	c #7C5AEA",
"| 	c #2C0848",
"1 	c #44287D",
"2 	c #9288FB",
"3 	c #BAEAED",
"4 	c #A5D7E0",
"5 	c #7AD3F3",
"6 	c #54E5FC",
"7 	c #5DD8FC",
"8 	c #A4D8E0",
"9 	c #99D3E7",
"0 	c #8B7CF6",
"a 	c #44277C",
"b 	c #2D0148",
"c 	c #86DFEE",
"d 	c #67D5F8",
"e 	c #63E2F9",
"f 	c #7C9BA7",
"g 	c #A4CDE2",
"h 	c #95CCD6",
"i 	c #9DBAE8",
"j 	c #6BD3E5",
"k 	c #95A2EF",
"l 	c #9ED9E3",
"m 	c #51D3EB",
"n 	c #2E0B4C",
"o 	c #331358",
"p 	c #492F83",
"q 	c #8A6DF9",
"r 	c #9091F4",
"s 	c #ABDAE0",
"t 	c #9FB7EA",
"u 	c #A39FF4",
"v 	c #CBFEFE",
"w 	c #C5D9E9",
"x 	c #825FF4",
"y 	c #7A58E4",
"z 	c #7D7FF6",
"A 	c #57E1FC",
"B 	c #73E6FC",
"C 	c #AFD5DB",
"D 	c #81CEDD",
"E 	c #43267A",
"F 	c #7C80F4",
"G 	c #6DD2E4",
"H 	c #35627D",
"I 	c #59CEEA",
"J 	c #9AB0EB",
"K 	c #8D85F5",
"L 	c #300F52",
"M 	c #3C1F6C",
"N 	c #40668F",
"O 	c #8A89F5",
"P 	c #8179FA",
"Q 	c #7971EA",
"R 	c #2D0B48",
"S 	c #603A4C",
"T 	c #60384C",
"U 	c #60394C",
"V 	c #61384B",
"W 	c #60394B",
"X 	c #61394B",
"Y 	c #5C384D",
"Z 	c #98ABEC",
"` 	c #5AE5FB",
" .	c #2E0E49",
"..	c #321149",
"+.	c #844546",
"@.	c #884745",
"#.	c #8A4845",
"$.	c #8B4845",
"%.	c #884645",
"&.	c #804346",
"*.	c #2F134A",
"=.	c #2D0D49",
"-.	c #7CE1F1",
";.	c #402374",
">.	c #3D206E",
",.	c #60364A",
"'.	c #824545",
").	c #BC4342",
"!.	c #DF614D",
"~.	c #F67253",
"{.	c #D75A4A",
"].	c #B94342",
"^.	c #7E4748",
"/.	c #542F49",
"(.	c #3E2F74",
"_.	c #335774",
":.	c #465E94",
"<.	c #8481F8",
"[.	c #BEDFE4",
"}.	c #B3E0E8",
"|.	c #72D9FB",
"1.	c #56E6FB",
"2.	c #97DBE6",
"3.	c #F8F8F8",
"4.	c #BEDFEC",
"5.	c #8882F9",
"6.	c #7976EC",
"7.	c #412577",
"8.	c #3F3277",
"9.	c #345B77",
"0.	c #365577",
"a.	c #3F2271",
"b.	c #311053",
"c.	c #4F3D95",
"d.	c #807EFA",
"e.	c #7D97FB",
"f.	c #6EE9FC",
"g.	c #88E0EF",
"h.	c #B7DCE2",
"i.	c #E8F1F2",
"j.	c #C7E3E5",
"k.	c #B3E4EB",
"l.	c #61D8FB",
"m.	c #C5F5F6",
"n.	c #B4DBE1",
"o.	c #92D1EA",
"p.	c #76DEFC",
"q.	c #8983ED",
"r.	c #345F7B",
"s.	c #37597A",
"t.	c #311054",
"u.	c #503F97",
"v.	c #84E3F2",
"w.	c #83DFEF",
"x.	c #76E9FB",
"y.	c #CAFAFA",
"z.	c #BEF6FA",
"A.	c #63E4F8",
"B.	c #B1DDE3",
"C.	c #B3DBE0",
"D.	c #9FD5E3",
"E.	c #8B8FE5",
"F.	c #495E76",
"G.	c #3E647D",
"H.	c #606E7E",
"I.	c #697199",
"J.	c #92ACEF",
"K.	c #94DFEB",
"L.	c #9EC4CD",
"M.	c #A0C5CE",
"N.	c #BDD1D4",
"O.	c #B9CFD3",
"P.	c #9DC3CC",
"                          . + + + +           @ + + + #         ",
"                          . + + + +     $ % & * = - ; #         ",
"                    > , ' + + +       ) ! ~ & * = - { ] ^       ",
"                ^ / % ~ ( _ + + : < [ % } | 1 ~ ~ ~ 2 - 3       ",
"              4 5 ~ ~ ~ & 6 = - { * 7 ~ } | 1 ~ ~ ~ 2 - { 8     ",
"            9 0 } | | | a ~ ~ ~ } b b | | | | | | | a ~ & c     ",
"          ^ d ~ } | | | a ~ ~ ~ } | | | | | | | | | a ~ & e     ",
"          f b | | | | | | | | | | | | | | | | | | | | | a ~ g   ",
"        h | | | | | | | | | | | | | | | | | | | | | | | 1 ~ i   ",
"        j | | | | | | | | | | | | | | | | | | | | | | | 1 ~ k   ",
"      l m | | | | | | | | | | | | | | | | | | | | | n o p q r   ",
"    s t } | | | | | | | | | | | | | | | | | | | | | 1 ~ 2 - -   ",
"    + u } | | | | | | | | | | | | | | | | | | | | | 1 ~ 2 v -   ",
"    + q } | | | | | | | | | | | | | | | | | | | | | 1 ~ & * =   ",
"    w x y | | | | | | | | | | | | | | | | | | | | | a x z A B   ",
"@ @ C | | | | | | | | | | | | | | | | | | | | | | | | | a ~ &   ",
"+ + D | | | | | | | | | | | | | | | | | | | | | | | | | E x F s ",
"# # G | | | | | | | | | | | | | | | | | | | | | | | | | | | H s ",
"  ^ I | | | | | | | | | | | | | | | | | | | | | | | | | | | H   ",
"  J } | | | | | | | | | | | | | | | | | | | | | | | | | | | H   ",
". K } | | | | | | | | | | | | | | | | | | | | | | | | | L M N   ",
". % } | | | | | | | | | | | | | | | | | | | | | | | | | 1 ~ O   ",
"  P Q | | | | | | R S T U V V W W X V V T Y | | | | | | 1 ~ Z   ",
"  ` m | | | | |  ...+.@.#.#.$.#.#.$.#.#.%.&.*.=.| | | | 1 ~ i   ",
"  -.m ;.>.| | | ,.'.).!.~.~.~.~.~.~.~.~.{.].^./.L ;.(._.:.<.^   ",
"[.}.|.~ } | | | | | | | | | | | | | | | | | | | 1 ~ & * 1.2.  @ ",
"3.3.4.5.6.7.8.9.0.E a.| | | | | | | | | | | b.7.c.d.e.f.g.    h.",
"i.i.j.k.l.~ & * 7 ~ } | | | | | | | | | | | 1 ~ & * = m.s     n.",
"        o.& e.= p.2 q.r.s.E ;.| | | | | t.E u.& e.= v..         ",
"        ^ w.x.- - y.z.A.7 ~ } | | | | | 1 ~ & * = m.B.C.C.C.    ",
"                        D.Z E.F.H H G.H.I.r J.w.K.B.+ + + #     ",
"L.L.L.L.L.L.L.L.L.L.L.L.L.L.L.M.N.N.N.N.L.L.L.L.L.M.N.N.N.O.L.P."};
