/* XPM */
static char * hole7_xpm[] = {
"32 32 244 2",
"  	c #A8D7DE",
". 	c #ABD8DF",
"+ 	c #CFE7E7",
"@ 	c #AFDADF",
"# 	c #C9E4E5",
"$ 	c #AAD4E6",
"% 	c #8564FA",
"& 	c #7E82F9",
"* 	c #53E6FC",
"= 	c #72E9FC",
"- 	c #CDFEFE",
"; 	c #CBF3F4",
"> 	c #A2DCE5",
", 	c #BEEEF0",
"' 	c #CEEDED",
") 	c #B0DFE5",
"! 	c #C2ECFB",
"~ 	c #8461F8",
"{ 	c #C1FBFE",
"] 	c #73E2F5",
"^ 	c #A6D7DE",
"/ 	c #9090F3",
"( 	c #8083FA",
"_ 	c #A1E7F2",
": 	c #ABDCE3",
"< 	c #93DCE9",
"[ 	c #84D5F0",
"} 	c #7C5AEA",
"| 	c #2C0848",
"1 	c #44287D",
"2 	c #9288FB",
"3 	c #BAEAED",
"4 	c #A5D7E0",
"5 	c #7AD3F3",
"6 	c #54E5FC",
"7 	c #5DD8FC",
"8 	c #A4D8E0",
"9 	c #99D3E7",
"0 	c #8B7CF6",
"a 	c #44277C",
"b 	c #2D0148",
"c 	c #86DFEE",
"d 	c #67D5F8",
"e 	c #63E2F9",
"f 	c #7C9BA7",
"g 	c #A4CDE2",
"h 	c #95CCD6",
"i 	c #9DBAE8",
"j 	c #6BD3E5",
"k 	c #95A2EF",
"l 	c #9ED9E3",
"m 	c #51D3EB",
"n 	c #2E0B4C",
"o 	c #331358",
"p 	c #492F83",
"q 	c #8A6DF9",
"r 	c #9091F4",
"s 	c #ABDAE0",
"t 	c #9FB7EA",
"u 	c #A39FF4",
"v 	c #CBFEFE",
"w 	c #C5D9E9",
"x 	c #825FF4",
"y 	c #7A58E4",
"z 	c #7D7FF6",
"A 	c #57E1FC",
"B 	c #73E6FC",
"C 	c #AFD5DB",
"D 	c #81CEDD",
"E 	c #43267A",
"F 	c #7C80F4",
"G 	c #6DD2E4",
"H 	c #2D0B48",
"I 	c #603A4C",
"J 	c #60384C",
"K 	c #60394C",
"L 	c #61384B",
"M 	c #60394B",
"N 	c #61394B",
"O 	c #5C384D",
"P 	c #35627D",
"Q 	c #59CEEA",
"R 	c #2E0E49",
"S 	c #321149",
"T 	c #844546",
"U 	c #884745",
"V 	c #8A4845",
"W 	c #8B4845",
"X 	c #884645",
"Y 	c #804346",
"Z 	c #2F134A",
"` 	c #2D0D49",
" .	c #9AB0EB",
"..	c #60364A",
"+.	c #824545",
"@.	c #BC4342",
"#.	c #DF614D",
"$.	c #F67253",
"%.	c #D75A4A",
"&.	c #B94342",
"*.	c #7E4748",
"=.	c #542F49",
"-.	c #8D85F5",
";.	c #5D384C",
">.	c #884048",
",.	c #A64441",
"'.	c #E2614F",
").	c #EE6B52",
"!.	c #F77252",
"~.	c #F77253",
"{.	c #EB6951",
"].	c #DE5F4E",
"^.	c #A54443",
"/.	c #803D49",
"(.	c #5A374D",
"_.	c #300F52",
":.	c #3C1F6C",
"<.	c #40668F",
"[.	c #7F4646",
"}.	c #A44443",
"|.	c #BE433E",
"1.	c #F57256",
"2.	c #F67254",
"3.	c #F47457",
"4.	c #F1765B",
"5.	c #F1765C",
"6.	c #F47356",
"7.	c #F67255",
"8.	c #F27055",
"9.	c #BE433F",
"0.	c #9E4442",
"a.	c #784446",
"b.	c #8A89F5",
"c.	c #8179FA",
"d.	c #7971EA",
"e.	c #7F4647",
"f.	c #BE4240",
"g.	c #E0604C",
"h.	c #F9D0C7",
"i.	c #FFFEFB",
"j.	c #FEFDFB",
"k.	c #F5BDB3",
"l.	c #D85948",
"m.	c #BE423F",
"n.	c #BE4341",
"o.	c #9D4443",
"p.	c #794446",
"q.	c #98ABEC",
"r.	c #5AE5FB",
"s.	c #563133",
"t.	c #843D3B",
"u.	c #A14442",
"v.	c #BE4241",
"w.	c #CF5246",
"x.	c #D95E4D",
"y.	c #D998A1",
"z.	c #D8ABAD",
"A.	c #DCBAB8",
"B.	c #D8A6AA",
"C.	c #D9959D",
"D.	c #DB5D4B",
"E.	c #CB4E44",
"F.	c #BC4241",
"G.	c #A04442",
"H.	c #7C3938",
"I.	c #522F35",
"J.	c #7CE1F1",
"K.	c #402374",
"L.	c #3D206E",
"M.	c #010102",
"N.	c #5C3535",
"O.	c #804645",
"P.	c #BB4443",
"Q.	c #BA4343",
"R.	c #B64748",
"S.	c #B6B4CF",
"T.	c #B58395",
"U.	c #BA4340",
"V.	c #B991A6",
"W.	c #B7B1CB",
"X.	c #BB4342",
"Y.	c #B84443",
"Z.	c #7D4746",
"`.	c #502D2D",
" +	c #080216",
".+	c #3E2F74",
"++	c #335774",
"@+	c #465E94",
"#+	c #8481F8",
"$+	c #BEDFE4",
"%+	c #B3E0E8",
"&+	c #72D9FB",
"*+	c #56E6FB",
"=+	c #97DBE6",
"-+	c #F8F8F8",
";+	c #BEDFEC",
">+	c #8882F9",
",+	c #7976EC",
"'+	c #412577",
")+	c #3F3277",
"!+	c #345B77",
"~+	c #365577",
"{+	c #3F2271",
"]+	c #311053",
"^+	c #4F3D95",
"/+	c #807EFA",
"(+	c #7D97FB",
"_+	c #6EE9FC",
":+	c #88E0EF",
"<+	c #B7DCE2",
"[+	c #E8F1F2",
"}+	c #C7E3E5",
"|+	c #B3E4EB",
"1+	c #61D8FB",
"2+	c #C5F5F6",
"3+	c #B4DBE1",
"4+	c #92D1EA",
"5+	c #76DEFC",
"6+	c #8983ED",
"7+	c #345F7B",
"8+	c #37597A",
"9+	c #311054",
"0+	c #503F97",
"a+	c #84E3F2",
"b+	c #83DFEF",
"c+	c #76E9FB",
"d+	c #CAFAFA",
"e+	c #BEF6FA",
"f+	c #63E4F8",
"g+	c #B1DDE3",
"h+	c #B3DBE0",
"i+	c #9FD5E3",
"j+	c #8B8FE5",
"k+	c #495E76",
"l+	c #3E647D",
"m+	c #606E7E",
"n+	c #697199",
"o+	c #92ACEF",
"p+	c #94DFEB",
"q+	c #9EC4CD",
"r+	c #A0C5CE",
"s+	c #BDD1D4",
"t+	c #B9CFD3",
"u+	c #9DC3CC",
"                          . + + + +           @ + + + #         ",
"                          . + + + +     $ % & * = - ; #         ",
"                    > , ' + + +       ) ! ~ & * = - { ] ^       ",
"                ^ / % ~ ( _ + + : < [ % } | 1 ~ ~ ~ 2 - 3       ",
"              4 5 ~ ~ ~ & 6 = - { * 7 ~ } | 1 ~ ~ ~ 2 - { 8     ",
"            9 0 } | | | a ~ ~ ~ } b b | | | | | | | a ~ & c     ",
"          ^ d ~ } | | | a ~ ~ ~ } | | | | | | | | | a ~ & e     ",
"          f b | | | | | | | | | | | | | | | | | | | | | a ~ g   ",
"        h | | | | | | | | | | | | | | | | | | | | | | | 1 ~ i   ",
"        j | | | | | | | | | | | | | | | | | | | | | | | 1 ~ k   ",
"      l m | | | | | | | | | | | | | | | | | | | | | n o p q r   ",
"    s t } | | | | | | | | | | | | | | | | | | | | | 1 ~ 2 - -   ",
"    + u } | | | | | | | | | | | | | | | | | | | | | 1 ~ 2 v -   ",
"    + q } | | | | | | | | | | | | | | | | | | | | | 1 ~ & * =   ",
"    w x y | | | | | | | | | | | | | | | | | | | | | a x z A B   ",
"@ @ C | | | | | | | | | | | | | | | | | | | | | | | | | a ~ &   ",
"+ + D | | | | | | | | | | | | | | | | | | | | | | | | | E x F s ",
"# # G | | | | | | H I J K L L M M N L L J O | | | | | | | | P s ",
"  ^ Q | | | | | R S T U V V W V V W V V X Y Z ` | | | | | | P   ",
"   .} | | | | | ..+.@.#.$.$.$.$.$.$.$.$.%.&.*.=.| | | | | | P   ",
". -.} | | | | ;.>.,.'.).!.~.~.~.~.~.~.!.{.].^./.(.| | | _.:.<.  ",
". % } | | | | [.}.|.1.2.$.~.3.4.5.6.~.$.7.8.9.0.a.| | | 1 ~ b.  ",
"  c.d.| | | | e.}.f.f.g.~.~.h.i.j.k.~.!.l.m.n.o.p.| | | 1 ~ q.  ",
"  r.m | | | | s.t.u.v.w.x.y.z.A.A.B.C.D.E.F.G.H.I.| | | 1 ~ i   ",
"  J.m K.L.| | M.N.O.P.Q.R.S.T.U.U.V.W.&.X.Y.Z.`. +K..+++@+#+^   ",
"$+%+&+~ } | | | | | | | | | | | | | | | | | | | 1 ~ & * *+=+  @ ",
"-+-+;+>+,+'+)+!+~+E {+| | | | | | | | | | | ]+'+^+/+(+_+:+    <+",
"[+[+}+|+1+~ & * 7 ~ } | | | | | | | | | | | 1 ~ & * = 2+s     3+",
"        4+& (+= 5+2 6+7+8+E K.| | | | | 9+E 0+& (+= a+.         ",
"        ^ b+c+- - d+e+f+7 ~ } | | | | | 1 ~ & * = 2+g+h+h+h+    ",
"                        i+q.j+k+P P l+m+n+r o+b+p+g++ + + #     ",
"q+q+q+q+q+q+q+q+q+q+q+q+q+q+q+r+s+s+s+s+q+q+q+q+q+r+s+s+s+t+q+u+"};
