/* XPM */
static char * hole2_xpm[] = {
"32 32 530 2",
"  	c #A8D7DE",
". 	c #A7D5DC",
"+ 	c #A6D3DA",
"@ 	c #844546",
"# 	c #884745",
"$ 	c #8A4845",
"% 	c #8B4845",
"& 	c #884645",
"* 	c #86585A",
"= 	c #A5D3DA",
"- 	c #AED8DD",
"; 	c #CFE7E7",
"> 	c #C9E4E5",
", 	c #92A0A5",
"' 	c #824545",
") 	c #BC4342",
"! 	c #DF614D",
"~ 	c #F67253",
"{ 	c #D75A4A",
"] 	c #B94342",
"^ 	c #7E4748",
"/ 	c #63BCCD",
"( 	c #72E9FC",
"_ 	c #CDFEFE",
": 	c #CBF3F4",
"< 	c #8D9BA1",
"[ 	c #99787C",
"} 	c #A64441",
"| 	c #E2614F",
"1 	c #EE6B52",
"2 	c #F77252",
"3 	c #F77253",
"4 	c #EB6951",
"5 	c #DE5F4E",
"6 	c #A54443",
"7 	c #858894",
"8 	c #73AFBD",
"9 	c #C1FBFE",
"0 	c #73E2F5",
"a 	c #A6D7DE",
"b 	c #7F4646",
"c 	c #A44443",
"d 	c #BE433E",
"e 	c #F57256",
"f 	c #F67254",
"g 	c #F47457",
"h 	c #F1765B",
"i 	c #F1765C",
"j 	c #F47356",
"k 	c #F67255",
"l 	c #F27055",
"m 	c #BE433F",
"n 	c #9E4442",
"o 	c #7E4A69",
"p 	c #8461F8",
"q 	c #9288FB",
"r 	c #BAEAED",
"s 	c #7F4647",
"t 	c #BE4240",
"u 	c #E0604C",
"v 	c #F9D0C7",
"w 	c #FFFEFB",
"x 	c #FEFDFB",
"y 	c #F5BDB3",
"z 	c #D85948",
"A 	c #BE423F",
"B 	c #BE4341",
"C 	c #9D4443",
"D 	c #7F4A69",
"E 	c #A4D8E0",
"F 	c #99D3E7",
"G 	c #563133",
"H 	c #843D3B",
"I 	c #A14442",
"J 	c #BE4241",
"K 	c #CF5246",
"L 	c #D95E4D",
"M 	c #D998A1",
"N 	c #D8ABAD",
"O 	c #DCBAB8",
"P 	c #D8A6AA",
"Q 	c #D9959D",
"R 	c #DB5D4B",
"S 	c #CB4E44",
"T 	c #BC4241",
"U 	c #A04442",
"V 	c #7C3938",
"W 	c #522F35",
"X 	c #2C0848",
"Y 	c #44277C",
"Z 	c #7E82F9",
"` 	c #86DFEE",
" .	c #67D5F8",
"..	c #010102",
"+.	c #5C3535",
"@.	c #804645",
"#.	c #BB4443",
"$.	c #BA4343",
"%.	c #B64748",
"&.	c #B6B4CF",
"*.	c #B58395",
"=.	c #BA4340",
"-.	c #B991A6",
";.	c #B7B1CB",
">.	c #BB4342",
",.	c #B84443",
"'.	c #7D4746",
").	c #502D2D",
"!.	c #070213",
"~.	c #63E2F9",
"{.	c #7C9BA7",
"].	c #2D0148",
"^.	c #000102",
"/.	c #020000",
"(.	c #050000",
"_.	c #BCA7B1",
":.	c #DBD4E2",
"<.	c #FDFEFE",
"[.	c #FEFDFC",
"}.	c #FCFCFD",
"|.	c #AE959E",
"1.	c #7D4343",
"2.	c #010000",
"3.	c #080213",
"4.	c #A4CDE2",
"5.	c #95CCD6",
"6.	c #45254A",
"7.	c #583149",
"8.	c #AF8C6E",
"9.	c #7A624D",
"0.	c #070404",
"a.	c #C69E95",
"b.	c #B5A2AD",
"c.	c #A6A6C0",
"d.	c #C5C4CE",
"e.	c #C4C4CF",
"f.	c #C4C4CE",
"g.	c #C4C3CD",
"h.	c #A5A5C0",
"i.	c #B8A2A9",
"j.	c #C09991",
"k.	c #010001",
"l.	c #896F58",
"m.	c #AA866C",
"n.	c #58334A",
"o.	c #3E214A",
"p.	c #44287D",
"q.	c #9DBAE8",
"r.	c #6BD3E5",
"s.	c #5F3449",
"t.	c #7F4544",
"u.	c #F9C699",
"v.	c #B08C6D",
"w.	c #0A0606",
"x.	c #FCD7C8",
"y.	c #B39AA0",
"z.	c #3E3B75",
"A.	c #3D3C76",
"B.	c #3F3B76",
"C.	c #3E3C76",
"D.	c #3E3B74",
"E.	c #C9ADAF",
"F.	c #F4D0C3",
"G.	c #C59D7B",
"H.	c #F2BE93",
"I.	c #804546",
"J.	c #552F49",
"K.	c #95A2EF",
"L.	c #9ED9E3",
"M.	c #51D3EB",
"N.	c #5E3449",
"O.	c #804644",
"P.	c #FAC599",
"Q.	c #D29E7D",
"R.	c #A26F60",
"S.	c #FDD6C6",
"T.	c #FAD6CA",
"U.	c #F6D5CC",
"V.	c #000007",
"W.	c #C2A8A0",
"X.	c #F9D6CC",
"Y.	c #F9D6CD",
"Z.	c #A79088",
"`.	c #372F30",
" +	c #F8D6CC",
".+	c #FBD6CA",
"++	c #F8D2C2",
"@+	c #A26E60",
"#+	c #DDA984",
"$+	c #F1BF93",
"%+	c #804646",
"&+	c #552F4C",
"*+	c #331358",
"=+	c #492F83",
"-+	c #8A6DF9",
";+	c #9091F4",
">+	c #ABDAE0",
",+	c #9FB7EA",
"'+	c #7C5AEA",
")+	c #492A4C",
"!+	c #623649",
"~+	c #D3A081",
"{+	c #C88F76",
"]+	c #BC8069",
"^+	c #EEBFAB",
"/+	c #F5C8B1",
"(+	c #F8CFB4",
"_+	c #000000",
":+	c #C2A38F",
"<+	c #FBD0B4",
"[+	c #A88C7A",
"}+	c #372D28",
"|+	c #F3C5AF",
"1+	c #EBBBA7",
"2+	c #BC7F69",
"3+	c #CA9479",
"4+	c #CB9A7D",
"5+	c #61384B",
"6+	c #503375",
"7+	c #A39FF4",
"8+	c #7D4749",
"9+	c #B57963",
"0+	c #D79576",
"a+	c #D79575",
"b+	c #ECB28A",
"c+	c #F7C599",
"d+	c #C19B79",
"e+	c #FBC597",
"f+	c #A78467",
"g+	c #362B22",
"h+	c #FAC697",
"i+	c #E6AA85",
"j+	c #D79477",
"k+	c #A96F5D",
"l+	c #794448",
"m+	c #CBFEFE",
"n+	c #31144A",
"o+	c #663B4D",
"p+	c #894E48",
"q+	c #D89775",
"r+	c #DB9877",
"s+	c #CE9277",
"t+	c #E9B28C",
"u+	c #FAC696",
"v+	c #FAC698",
"w+	c #E1AA85",
"x+	c #CF9277",
"y+	c #D79675",
"z+	c #D39274",
"A+	c #884E48",
"B+	c #5D354C",
"C+	c #341249",
"D+	c #53E6FC",
"E+	c #C5D9E9",
"F+	c #825FF4",
"G+	c #7A58E4",
"H+	c #4C2A42",
"I+	c #633737",
"J+	c #A87761",
"K+	c #B27A63",
"L+	c #BA7D66",
"M+	c #E4A782",
"N+	c #EDB48A",
"O+	c #E0A37F",
"P+	c #D69474",
"Q+	c #B07963",
"R+	c #A4745F",
"S+	c #623737",
"T+	c #462443",
"U+	c #7D7FF6",
"V+	c #57E1FC",
"W+	c #73E6FC",
"X+	c #AFDADF",
"Y+	c #AFD5DB",
"Z+	c #1C0631",
"`+	c #5F3534",
" @	c #824745",
".@	c #D69677",
"+@	c #D39377",
"@@	c #804545",
"#@	c #522C2C",
"$@	c #210638",
"%@	c #81CEDD",
"&@	c #0B0419",
"*@	c #587287",
"=@	c #7598B4",
"-@	c #883433",
";@	c #B34442",
">@	c #4C3932",
",@	c #4B3A32",
"'@	c #533A33",
")@	c #B74341",
"!@	c #762B2B",
"~@	c #1E262D",
"{@	c #7499B5",
"]@	c #4C6376",
"^@	c #100321",
"/@	c #43267A",
"(@	c #7C80F4",
"_@	c #6DD2E4",
":@	c #3F234C",
"<@	c #4F2F4B",
"[@	c #A18268",
"}@	c #AD9E96",
"|@	c #B5B2B4",
"1@	c #8E3331",
"2@	c #BC4341",
"3@	c #722D2D",
"4@	c #765F68",
"5@	c #777686",
"6@	c #73565D",
"7@	c #762E2F",
"8@	c #7C2B28",
"9@	c #2F2F2F",
"0@	c #B5B2B5",
"a@	c #A9978B",
"b@	c #9C7D66",
"c@	c #4F2F4C",
"d@	c #3B1E4B",
"e@	c #35627D",
"f@	c #59CEEA",
"g@	c #603349",
"h@	c #FAC699",
"i@	c #F9C59A",
"j@	c #BD4341",
"k@	c #BC90A5",
"l@	c #B5B4D4",
"m@	c #B5B4D3",
"n@	c #B98294",
"o@	c #7C2A29",
"p@	c #43362B",
"q@	c #FAC598",
"r@	c #552F48",
"s@	c #9AB0EB",
"t@	c #5D3549",
"u@	c #804544",
"v@	c #DE9F7D",
"w@	c #DF9F7D",
"x@	c #DD9F7F",
"y@	c #8C8092",
"z@	c #B9A4BC",
"A@	c #EC6C50",
"B@	c #E1ACB3",
"C@	c #D0D0E2",
"D@	c #D1D0E1",
"E@	c #E09EA1",
"F@	c #E96F59",
"G@	c #B6A6C0",
"H@	c #786E7E",
"I@	c #392A23",
"J@	c #D89A79",
"K@	c #ABD8DF",
"L@	c #8D85F5",
"M@	c #4E2B4B",
"N@	c #6A3947",
"O@	c #B07B62",
"P@	c #AF7B61",
"Q@	c #AD7B64",
"R@	c #232241",
"S@	c #787692",
"T@	c #9C97B6",
"U@	c #EE9B94",
"V@	c #E3BEC6",
"W@	c #D5D5E6",
"X@	c #E3B6BB",
"Y@	c #E99C97",
"Z@	c #9998BA",
"`@	c #6A6781",
" #	c #383045",
".#	c #AE7B62",
"+#	c #AB775F",
"@#	c #6A3A48",
"##	c #47274B",
"$#	c #300F52",
"%#	c #3C1F6C",
"&#	c #40668F",
"*#	c #8564FA",
"=#	c #010204",
"-#	c #010105",
";#	c #3E3C79",
">#	c #424079",
",#	c #D5D5E5",
"'#	c #D6D5E5",
")#	c #D5D6E5",
"!#	c #D2D1E4",
"~#	c #3E3B78",
"{#	c #3E3B79",
"]#	c #3C3A74",
"^#	c #010002",
"/#	c #080314",
"(#	c #8A89F5",
"_#	c #8179FA",
":#	c #7971EA",
"<#	c #270841",
"[#	c #19052C",
"}#	c #020406",
"|#	c #7096B6",
"1#	c #596E96",
"2#	c #3E3D78",
"3#	c #737199",
"4#	c #727199",
"5#	c #727299",
"6#	c #717098",
"7#	c #3D3C78",
"8#	c #617BA1",
"9#	c #6D91B0",
"0#	c #010100",
"a#	c #1D0532",
"b#	c #280841",
"c#	c #98ABEC",
"d#	c #5AE5FB",
"e#	c #1C0531",
"f#	c #030305",
"g#	c #7B90A9",
"h#	c #6A7A9C",
"i#	c #546693",
"j#	c #546694",
"k#	c #495185",
"l#	c #4D5789",
"m#	c #6F80A1",
"n#	c #788BA2",
"o#	c #7CE1F1",
"p#	c #402374",
"q#	c #3D206E",
"r#	c #040101",
"s#	c #7D839A",
"t#	c #78A3C3",
"u#	c #78A4C2",
"v#	c #5C769D",
"w#	c #3E3C78",
"x#	c #6785AA",
"y#	c #78A3C4",
"z#	c #7B778B",
"A#	c #7B4445",
"B#	c #000001",
"C#	c #3E2F74",
"D#	c #335774",
"E#	c #465E94",
"F#	c #8481F8",
"G#	c #BEDFE4",
"H#	c #B3E0E8",
"I#	c #72D9FB",
"J#	c #1C0431",
"K#	c #030101",
"L#	c #9C555C",
"M#	c #AC606A",
"N#	c #7E626D",
"O#	c #564352",
"P#	c #1B1934",
"Q#	c #634E5C",
"R#	c #80626C",
"S#	c #AE5F69",
"T#	c #955056",
"U#	c #56E6FB",
"V#	c #97DBE6",
"W#	c #F8F8F8",
"X#	c #BEDFEC",
"Y#	c #8882F9",
"Z#	c #7976EC",
"`#	c #412577",
" $	c #3F3277",
".$	c #345B77",
"+$	c #28415D",
"@$	c #1F103C",
"#$	c #6E3F3F",
"$$	c #8E3F3E",
"%$	c #A13E3D",
"&$	c #703E3E",
"*$	c #4B282F",
"=$	c #120322",
"-$	c #120321",
";$	c #563235",
">$	c #733E3E",
",$	c #A43D3C",
"'$	c #873E3D",
")$	c #6A3E3C",
"!$	c #150527",
"~$	c #361E64",
"{$	c #4F3D95",
"]$	c #807EFA",
"^$	c #7D97FB",
"/$	c #6EE9FC",
"($	c #88E0EF",
"_$	c #B7DCE2",
":$	c #E8F1F2",
"<$	c #C7E3E5",
"[$	c #B3E4EB",
"}$	c #61D8FB",
"|$	c #5DD8FC",
"1$	c #010203",
"2$	c #010101",
"3$	c #200537",
"4$	c #1A042E",
"5$	c #020101",
"6$	c #07010F",
"7$	c #C5F5F6",
"8$	c #B4DBE1",
"9$	c #92D1EA",
"0$	c #76DEFC",
"a$	c #7973D2",
"b$	c #2D536D",
"c$	c #304E6C",
"d$	c #3A216C",
"e$	c #3D216F",
"f$	c #280843",
"g$	c #26073F",
"h$	c #2A0D4A",
"i$	c #3B216D",
"j$	c #503F97",
"k$	c #84E3F2",
"l$	c #83DFEF",
"m$	c #76E9FB",
"n$	c #CAFAFA",
"o$	c #BEF6FA",
"p$	c #63E4F8",
"q$	c #B1DDE3",
"r$	c #B3DBE0",
"s$	c #9FD5E3",
"t$	c #8B8FE5",
"u$	c #495E76",
"v$	c #3E647D",
"w$	c #606E7E",
"x$	c #697199",
"y$	c #92ACEF",
"z$	c #94DFEB",
"A$	c #9EC4CD",
"B$	c #A0C5CE",
"C$	c #BDD1D4",
"D$	c #B9CFD3",
"E$	c #9DC3CC",
"                . + @ # $ $ % $ $ % $ $ & * = - ; ; ; >         ",
"                , ' ) ! ~ ~ ~ ~ ~ ~ ~ ~ { ] ^ / ( _ : >         ",
"              < [ } | 1 2 3 3 3 3 3 3 2 4 5 6 7 8 _ 9 0 a       ",
"              b c d e f ~ 3 g h i j 3 ~ k l m n o p q _ r       ",
"              s c t t u 3 3 v w x y 3 2 z A B C D p q _ 9 E     ",
"            F G H I J K L M N O O P Q R S T U V W X Y p Z `     ",
"          a  ...+.@.#.$.%.&.*.=.=.-.;.] >.,.'.).!.X Y p Z ~.    ",
"          {.].^./.(.' _.:.<.[.x x [.}.:.|.1.2./.3.X X X Y p 4.  ",
"        5.6.7.8.9.0.a.b.c.d.e.f.f.e.g.h.i.j.k.l.m.n.o.X p.p q.  ",
"        r.s.t.u.v.w.x.y.z.A.z.B.B.C.A.D.E.F.k.G.H.I.J.X p.p K.  ",
"      L.M.N.O.P.Q.R.S.T.U.V.W.X.Y.Z.`. +.+++@+#+$+%+&+*+=+-+;+  ",
"    >+,+'+)+!+~+{+]+^+/+(+_+:+<+<+[+}+<+|+1+2+3+4+5+6+p q _ _   ",
"    ; 7+'+X X 8+9+0+a+b+c+_+d+e+e+f+g+h+i+a+j+k+l+X p.p q m+_   ",
"    ; -+'+X X n+o+p+0+q+r+s+t+u+v+w+x+r+y+z+A+B+C+X p.p Z D+(   ",
"    E+F+G+X X X H+I+J+K+L+a+M+N+N+O+P+L+Q+R+S+T+X X Y F+U+V+W+  ",
"X+X+Y+X X X X X Z+..k.`+ @.@a+a+a+0++@@@#@k...$@X X X X Y p Z   ",
"; ; %@X X X X &@*@=@_+-@;@>@,@,@,@,@'@)@!@~@{@]@^@X X X /@F+(@>+",
"> > _@X X :@<@[@}@|@_+1@2@3@4@5@5@6@7@t 8@9@0@a@b@c@d@X X X e@>+",
"  a f@X X g@@@h@v+i@_+1@j@A k@l@m@n@A j@o@p@q@h+$+@.r@X X X e@  ",
"  s@'+X X t@u@v@w@x@_+y@z@A@B@C@D@E@F@G@H@I@w@w@J@@.J.X X X e@  ",
"K@L@'+X X M@N@O@P@Q@R@S@T@U@V@W@W@X@Y@Z@`@ #.#P@+#@###X $#%#&#  ",
"K@*#'+X X X X =#k.-#;#;#>#W@,#,#'#)#!#~#{#]#^#^#/#X X X p.p (#  ",
"  _#:#X X X X <#[#}#|#1#2#3#4#5#5#4#6#7#8#9#0#a#b#X X X p.p c#  ",
"  d#M.X X X X X e#f#g#h#i#j#k#~#~#l#j#i#m#n#k.$@X X X X p.p q.  ",
"  o#M.p#q#X X X e#r#%+s#t#u#v#w#7#x#t#y#z#A#B#$@$#p#C#D#E#F#a   ",
"G#H#I#p '+X X X J#K#%+L#M#N#O#P#P#Q#R#S#T#A#B#$@p.p Z D+U#V#  X+",
"W#W#X#Y#Z#`# $.$+$@$#$$$%$&$*$=$-$;$>$,$'$)$!$~${$]$^$/$($    _$",
":$:$<$[$}$p Z D+|$p 1$2$k.2$3$X X 4$2$5$2$6$p.p Z D+( 7$>+    8$",
"        9$Z ^$( 0$q a$b$c$d$e$X X f$g$g$h$i$j$Z ^$( k$K@        ",
"        a l$m$_ _ n$o$p$|$p '+X X X X X p.p Z D+( 7$q$r$r$r$    ",
"                        s$c#t$u$e@e@v$w$x$;+y$l$z$q$; ; ; >     ",
"A$A$A$A$A$A$A$A$A$A$A$A$A$A$A$B$C$C$C$C$A$A$A$A$A$B$C$C$C$D$A$E$"};
