/* XPM */
static char * hole6_xpm[] = {
"32 32 334 2",
"  	c #A8D7DE",
". 	c #ABD8DF",
"+ 	c #CFE7E7",
"@ 	c #AFDADF",
"# 	c #C9E4E5",
"$ 	c #AAD4E6",
"% 	c #8564FA",
"& 	c #7E82F9",
"* 	c #53E6FC",
"= 	c #72E9FC",
"- 	c #CDFEFE",
"; 	c #CBF3F4",
"> 	c #A2DCE5",
", 	c #BEEEF0",
"' 	c #CEEDED",
") 	c #B0DFE5",
"! 	c #C2ECFB",
"~ 	c #8461F8",
"{ 	c #C1FBFE",
"] 	c #73E2F5",
"^ 	c #A6D7DE",
"/ 	c #9090F3",
"( 	c #8083FA",
"_ 	c #A1E7F2",
": 	c #ABDCE3",
"< 	c #93DCE9",
"[ 	c #84D5F0",
"} 	c #7C5AEA",
"| 	c #2C0848",
"1 	c #44287D",
"2 	c #9288FB",
"3 	c #BAEAED",
"4 	c #A5D7E0",
"5 	c #7AD3F3",
"6 	c #54E5FC",
"7 	c #5DD8FC",
"8 	c #A4D8E0",
"9 	c #99D3E7",
"0 	c #8B7CF6",
"a 	c #44277C",
"b 	c #2D0148",
"c 	c #86DFEE",
"d 	c #67D5F8",
"e 	c #63E2F9",
"f 	c #7C9BA7",
"g 	c #A4CDE2",
"h 	c #95CCD6",
"i 	c #9DBAE8",
"j 	c #6BD3E5",
"k 	c #95A2EF",
"l 	c #9ED9E3",
"m 	c #51D3EB",
"n 	c #2E0B4C",
"o 	c #331358",
"p 	c #492F83",
"q 	c #8A6DF9",
"r 	c #9091F4",
"s 	c #ABDAE0",
"t 	c #9FB7EA",
"u 	c #A39FF4",
"v 	c #2D0B48",
"w 	c #603A4C",
"x 	c #60384C",
"y 	c #60394C",
"z 	c #61384B",
"A 	c #60394B",
"B 	c #61394B",
"C 	c #5C384D",
"D 	c #CBFEFE",
"E 	c #2E0E49",
"F 	c #321149",
"G 	c #844546",
"H 	c #884745",
"I 	c #8A4845",
"J 	c #8B4845",
"K 	c #884645",
"L 	c #804346",
"M 	c #2F134A",
"N 	c #2D0D49",
"O 	c #C5D9E9",
"P 	c #825FF4",
"Q 	c #7A58E4",
"R 	c #60364A",
"S 	c #824545",
"T 	c #BC4342",
"U 	c #DF614D",
"V 	c #F67253",
"W 	c #D75A4A",
"X 	c #B94342",
"Y 	c #7E4748",
"Z 	c #542F49",
"` 	c #7D7FF6",
" .	c #57E1FC",
"..	c #73E6FC",
"+.	c #AFD5DB",
"@.	c #5D384C",
"#.	c #884048",
"$.	c #A64441",
"%.	c #E2614F",
"&.	c #EE6B52",
"*.	c #F77252",
"=.	c #F77253",
"-.	c #EB6951",
";.	c #DE5F4E",
">.	c #A54443",
",.	c #803D49",
"'.	c #5A374D",
").	c #81CEDD",
"!.	c #7F4646",
"~.	c #A44443",
"{.	c #BE433E",
"].	c #F57256",
"^.	c #F67254",
"/.	c #F47457",
"(.	c #F1765B",
"_.	c #F1765C",
":.	c #F47356",
"<.	c #F67255",
"[.	c #F27055",
"}.	c #BE433F",
"|.	c #9E4442",
"1.	c #784446",
"2.	c #43267A",
"3.	c #7C80F4",
"4.	c #6DD2E4",
"5.	c #7F4647",
"6.	c #BE4240",
"7.	c #E0604C",
"8.	c #F9D0C7",
"9.	c #FFFEFB",
"0.	c #FEFDFB",
"a.	c #F5BDB3",
"b.	c #D85948",
"c.	c #BE423F",
"d.	c #BE4341",
"e.	c #9D4443",
"f.	c #794446",
"g.	c #35627D",
"h.	c #59CEEA",
"i.	c #563133",
"j.	c #843D3B",
"k.	c #A14442",
"l.	c #BE4241",
"m.	c #CF5246",
"n.	c #D95E4D",
"o.	c #D998A1",
"p.	c #D8ABAD",
"q.	c #DCBAB8",
"r.	c #D8A6AA",
"s.	c #D9959D",
"t.	c #DB5D4B",
"u.	c #CB4E44",
"v.	c #BC4241",
"w.	c #A04442",
"x.	c #7C3938",
"y.	c #522F35",
"z.	c #9AB0EB",
"A.	c #010102",
"B.	c #5C3535",
"C.	c #804645",
"D.	c #BB4443",
"E.	c #BA4343",
"F.	c #B64748",
"G.	c #B6B4CF",
"H.	c #B58395",
"I.	c #BA4340",
"J.	c #B991A6",
"K.	c #B7B1CB",
"L.	c #BB4342",
"M.	c #B84443",
"N.	c #7D4746",
"O.	c #502D2D",
"P.	c #070213",
"Q.	c #8D85F5",
"R.	c #000102",
"S.	c #020000",
"T.	c #050000",
"U.	c #BCA7B1",
"V.	c #DBD4E2",
"W.	c #FDFEFE",
"X.	c #FEFDFC",
"Y.	c #FCFCFD",
"Z.	c #AE959E",
"`.	c #7D4343",
" +	c #010000",
".+	c #080213",
"++	c #300F52",
"@+	c #3C1F6C",
"#+	c #40668F",
"$+	c #45254A",
"%+	c #583149",
"&+	c #AF8C6E",
"*+	c #7A624D",
"=+	c #070404",
"-+	c #C69E95",
";+	c #B5A2AD",
">+	c #A6A6C0",
",+	c #C5C4CE",
"'+	c #C4C4CF",
")+	c #C4C4CE",
"!+	c #C4C3CD",
"~+	c #A5A5C0",
"{+	c #B8A2A9",
"]+	c #C09991",
"^+	c #010001",
"/+	c #896F58",
"(+	c #AA866C",
"_+	c #58334A",
":+	c #3E214A",
"<+	c #8A89F5",
"[+	c #8179FA",
"}+	c #7971EA",
"|+	c #5F3449",
"1+	c #7F4544",
"2+	c #F9C699",
"3+	c #B08C6D",
"4+	c #0A0606",
"5+	c #FCD7C8",
"6+	c #B39AA0",
"7+	c #3E3B75",
"8+	c #3D3C76",
"9+	c #3F3B76",
"0+	c #3E3C76",
"a+	c #3E3B74",
"b+	c #C9ADAF",
"c+	c #F4D0C3",
"d+	c #C59D7B",
"e+	c #F2BE93",
"f+	c #804546",
"g+	c #552F49",
"h+	c #98ABEC",
"i+	c #5AE5FB",
"j+	c #5E3449",
"k+	c #804644",
"l+	c #FAC599",
"m+	c #D29E7D",
"n+	c #A26F60",
"o+	c #FDD6C6",
"p+	c #FAD6CA",
"q+	c #F6D5CC",
"r+	c #000007",
"s+	c #C2A8A0",
"t+	c #F9D6CC",
"u+	c #F9D6CD",
"v+	c #A79088",
"w+	c #372F30",
"x+	c #F8D6CC",
"y+	c #FBD6CA",
"z+	c #F8D2C2",
"A+	c #A26E60",
"B+	c #DDA984",
"C+	c #F1BF93",
"D+	c #804646",
"E+	c #7CE1F1",
"F+	c #402374",
"G+	c #3D206E",
"H+	c #492A4C",
"I+	c #623649",
"J+	c #D3A081",
"K+	c #C88F76",
"L+	c #BC8069",
"M+	c #EEBFAB",
"N+	c #F5C8B1",
"O+	c #F8CFB4",
"P+	c #000000",
"Q+	c #C2A38F",
"R+	c #FBD0B4",
"S+	c #A88C7A",
"T+	c #372D28",
"U+	c #F3C5AF",
"V+	c #EBBBA7",
"W+	c #BC7F69",
"X+	c #CA9479",
"Y+	c #CC9A7E",
"Z+	c #653C60",
"`+	c #4D386E",
" @	c #335774",
".@	c #465E94",
"+@	c #8481F8",
"@@	c #BEDFE4",
"#@	c #B3E0E8",
"$@	c #72D9FB",
"%@	c #56E6FB",
"&@	c #97DBE6",
"*@	c #F8F8F8",
"=@	c #BEDFEC",
"-@	c #8882F9",
";@	c #7976EC",
">@	c #412577",
",@	c #3F3277",
"'@	c #345B77",
")@	c #365577",
"!@	c #3F2271",
"~@	c #311053",
"{@	c #4F3D95",
"]@	c #807EFA",
"^@	c #7D97FB",
"/@	c #6EE9FC",
"(@	c #88E0EF",
"_@	c #B7DCE2",
":@	c #E8F1F2",
"<@	c #C7E3E5",
"[@	c #B3E4EB",
"}@	c #61D8FB",
"|@	c #C5F5F6",
"1@	c #B4DBE1",
"2@	c #92D1EA",
"3@	c #76DEFC",
"4@	c #8983ED",
"5@	c #345F7B",
"6@	c #37597A",
"7@	c #311054",
"8@	c #503F97",
"9@	c #84E3F2",
"0@	c #83DFEF",
"a@	c #76E9FB",
"b@	c #CAFAFA",
"c@	c #BEF6FA",
"d@	c #63E4F8",
"e@	c #B1DDE3",
"f@	c #B3DBE0",
"g@	c #9FD5E3",
"h@	c #8B8FE5",
"i@	c #495E76",
"j@	c #3E647D",
"k@	c #606E7E",
"l@	c #697199",
"m@	c #92ACEF",
"n@	c #94DFEB",
"o@	c #9EC4CD",
"p@	c #A0C5CE",
"q@	c #BDD1D4",
"r@	c #B9CFD3",
"s@	c #9DC3CC",
"                          . + + + +           @ + + + #         ",
"                          . + + + +     $ % & * = - ; #         ",
"                    > , ' + + +       ) ! ~ & * = - { ] ^       ",
"                ^ / % ~ ( _ + + : < [ % } | 1 ~ ~ ~ 2 - 3       ",
"              4 5 ~ ~ ~ & 6 = - { * 7 ~ } | 1 ~ ~ ~ 2 - { 8     ",
"            9 0 } | | | a ~ ~ ~ } b b | | | | | | | a ~ & c     ",
"          ^ d ~ } | | | a ~ ~ ~ } | | | | | | | | | a ~ & e     ",
"          f b | | | | | | | | | | | | | | | | | | | | | a ~ g   ",
"        h | | | | | | | | | | | | | | | | | | | | | | | 1 ~ i   ",
"        j | | | | | | | | | | | | | | | | | | | | | | | 1 ~ k   ",
"      l m | | | | | | | | | | | | | | | | | | | | | n o p q r   ",
"    s t } | | | | | | | | | | | | | | | | | | | | | 1 ~ 2 - -   ",
"    + u } | | | | v w x y z z A A B z z x C | | | | 1 ~ 2 D -   ",
"    + q } | | | E F G H I I J I I J I I K L M N | | 1 ~ & * =   ",
"    O P Q | | | R S T U V V V V V V V V W X Y Z | | a P `  ...  ",
"@ @ +.| | | | @.#.$.%.&.*.=.=.=.=.=.=.*.-.;.>.,.'.| | | a ~ &   ",
"+ + ).| | | | !.~.{.].^.V =./.(._.:.=.V <.[.}.|.1.| | | 2.P 3.s ",
"# # 4.| | | | 5.~.6.6.7.=.=.8.9.0.a.=.*.b.c.d.e.f.| | | | | g.s ",
"  ^ h.| | | | i.j.k.l.m.n.o.p.q.q.r.s.t.u.v.w.x.y.| | | | | g.  ",
"  z.} | | | | A.B.C.D.E.F.G.H.I.I.J.K.X L.M.N.O.P.| | | | | g.  ",
". Q.} | | | | R.S.T.S U.V.W.X.0.0.X.Y.V.Z.`. +S..+| | | ++@+#+  ",
". % } | | $+%+&+*+=+-+;+>+,+'+)+)+'+!+~+{+]+^+/+(+_+:+| 1 ~ <+  ",
"  [+}+| | |+1+2+3+4+5+6+7+8+7+9+9+0+8+a+b+c+^+d+e+f+g+| 1 ~ h+  ",
"  i+m | | j+k+l+m+n+o+p+q+r+s+t+u+v+w+x+y+z+A+B+C+D+g+| 1 ~ i   ",
"  E+m F+G+H+I+J+K+L+M+N+O+P+Q+R+R+S+T+R+U+V+W+X+Y+Z+`+ @.@+@^   ",
"@@#@$@~ } | | | | | | | | | | | | | | | | | | | 1 ~ & * %@&@  @ ",
"*@*@=@-@;@>@,@'@)@2.!@| | | | | | | | | | | ~@>@{@]@^@/@(@    _@",
":@:@<@[@}@~ & * 7 ~ } | | | | | | | | | | | 1 ~ & * = |@s     1@",
"        2@& ^@= 3@2 4@5@6@2.F+| | | | | 7@2.8@& ^@= 9@.         ",
"        ^ 0@a@- - b@c@d@7 ~ } | | | | | 1 ~ & * = |@e@f@f@f@    ",
"                        g@h+h@i@g.g.j@k@l@r m@0@n@e@+ + + #     ",
"o@o@o@o@o@o@o@o@o@o@o@o@o@o@o@p@q@q@q@q@o@o@o@o@o@p@q@q@q@r@o@s@"};
