/* XPM */
static char * hole5_xpm[] = {
"32 32 386 2",
"  	c #A8D7DE",
". 	c #ABD8DF",
"+ 	c #CFE7E7",
"@ 	c #AFDADF",
"# 	c #C9E4E5",
"$ 	c #AAD4E6",
"% 	c #8564FA",
"& 	c #7E82F9",
"* 	c #53E6FC",
"= 	c #72E9FC",
"- 	c #CDFEFE",
"; 	c #CBF3F4",
"> 	c #A2DCE5",
", 	c #BEEEF0",
"' 	c #CEEDED",
") 	c #B0DFE5",
"! 	c #C2ECFB",
"~ 	c #8461F8",
"{ 	c #C1FBFE",
"] 	c #73E2F5",
"^ 	c #A6D7DE",
"/ 	c #9090F3",
"( 	c #8083FA",
"_ 	c #A1E7F2",
": 	c #ABDCE3",
"< 	c #93DCE9",
"[ 	c #84D5F0",
"} 	c #7C5AEA",
"| 	c #2C0848",
"1 	c #44287D",
"2 	c #9288FB",
"3 	c #BAEAED",
"4 	c #A5D7E0",
"5 	c #7AD3F3",
"6 	c #54E5FC",
"7 	c #5DD8FC",
"8 	c #A4D8E0",
"9 	c #99D3E7",
"0 	c #8B7CF6",
"a 	c #44277C",
"b 	c #2D0148",
"c 	c #86DFEE",
"d 	c #67D5F8",
"e 	c #63E2F9",
"f 	c #7C9BA7",
"g 	c #A4CDE2",
"h 	c #95CCD6",
"i 	c #2D0B48",
"j 	c #603A4C",
"k 	c #60384C",
"l 	c #60394C",
"m 	c #61384B",
"n 	c #60394B",
"o 	c #61394B",
"p 	c #5C384D",
"q 	c #9DBAE8",
"r 	c #6BD3E5",
"s 	c #2E0E49",
"t 	c #321149",
"u 	c #844546",
"v 	c #884745",
"w 	c #8A4845",
"x 	c #8B4845",
"y 	c #884645",
"z 	c #804346",
"A 	c #2F134A",
"B 	c #2D0D49",
"C 	c #95A2EF",
"D 	c #9ED9E3",
"E 	c #51D3EB",
"F 	c #60364A",
"G 	c #824545",
"H 	c #BC4342",
"I 	c #DF614D",
"J 	c #F67253",
"K 	c #D75A4A",
"L 	c #B94342",
"M 	c #7E4748",
"N 	c #542F49",
"O 	c #2E0B4C",
"P 	c #331358",
"Q 	c #492F83",
"R 	c #8A6DF9",
"S 	c #9091F4",
"T 	c #ABDAE0",
"U 	c #9FB7EA",
"V 	c #5D384C",
"W 	c #884048",
"X 	c #A64441",
"Y 	c #E2614F",
"Z 	c #EE6B52",
"` 	c #F77252",
" .	c #F77253",
"..	c #EB6951",
"+.	c #DE5F4E",
"@.	c #A54443",
"#.	c #803D49",
"$.	c #5A374D",
"%.	c #A39FF4",
"&.	c #7F4646",
"*.	c #A44443",
"=.	c #BE433E",
"-.	c #F57256",
";.	c #F67254",
">.	c #F47457",
",.	c #F1765B",
"'.	c #F1765C",
").	c #F47356",
"!.	c #F67255",
"~.	c #F27055",
"{.	c #BE433F",
"].	c #9E4442",
"^.	c #784446",
"/.	c #CBFEFE",
"(.	c #7F4647",
"_.	c #BE4240",
":.	c #E0604C",
"<.	c #F9D0C7",
"[.	c #FFFEFB",
"}.	c #FEFDFB",
"|.	c #F5BDB3",
"1.	c #D85948",
"2.	c #BE423F",
"3.	c #BE4341",
"4.	c #9D4443",
"5.	c #794446",
"6.	c #C5D9E9",
"7.	c #825FF4",
"8.	c #7A58E4",
"9.	c #563133",
"0.	c #843D3B",
"a.	c #A14442",
"b.	c #BE4241",
"c.	c #CF5246",
"d.	c #D95E4D",
"e.	c #D998A1",
"f.	c #D8ABAD",
"g.	c #DCBAB8",
"h.	c #D8A6AA",
"i.	c #D9959D",
"j.	c #DB5D4B",
"k.	c #CB4E44",
"l.	c #BC4241",
"m.	c #A04442",
"n.	c #7C3938",
"o.	c #522F35",
"p.	c #7D7FF6",
"q.	c #57E1FC",
"r.	c #73E6FC",
"s.	c #AFD5DB",
"t.	c #010102",
"u.	c #5C3535",
"v.	c #804645",
"w.	c #BB4443",
"x.	c #BA4343",
"y.	c #B64748",
"z.	c #B6B4CF",
"A.	c #B58395",
"B.	c #BA4340",
"C.	c #B991A6",
"D.	c #B7B1CB",
"E.	c #BB4342",
"F.	c #B84443",
"G.	c #7D4746",
"H.	c #502D2D",
"I.	c #070213",
"J.	c #81CEDD",
"K.	c #000102",
"L.	c #020000",
"M.	c #050000",
"N.	c #BCA7B1",
"O.	c #DBD4E2",
"P.	c #FDFEFE",
"Q.	c #FEFDFC",
"R.	c #FCFCFD",
"S.	c #AE959E",
"T.	c #7D4343",
"U.	c #010000",
"V.	c #080213",
"W.	c #43267A",
"X.	c #7C80F4",
"Y.	c #6DD2E4",
"Z.	c #45254A",
"`.	c #583149",
" +	c #AF8C6E",
".+	c #7A624D",
"++	c #070404",
"@+	c #C69E95",
"#+	c #B5A2AD",
"$+	c #A6A6C0",
"%+	c #C5C4CE",
"&+	c #C4C4CF",
"*+	c #C4C4CE",
"=+	c #C4C3CD",
"-+	c #A5A5C0",
";+	c #B8A2A9",
">+	c #C09991",
",+	c #010001",
"'+	c #896F58",
")+	c #AA866C",
"!+	c #58334A",
"~+	c #3E214A",
"{+	c #35627D",
"]+	c #59CEEA",
"^+	c #5F3449",
"/+	c #7F4544",
"(+	c #F9C699",
"_+	c #B08C6D",
":+	c #0A0606",
"<+	c #FCD7C8",
"[+	c #B39AA0",
"}+	c #3E3B75",
"|+	c #3D3C76",
"1+	c #3F3B76",
"2+	c #3E3C76",
"3+	c #3E3B74",
"4+	c #C9ADAF",
"5+	c #F4D0C3",
"6+	c #C59D7B",
"7+	c #F2BE93",
"8+	c #804546",
"9+	c #552F49",
"0+	c #9AB0EB",
"a+	c #5E3449",
"b+	c #804644",
"c+	c #FAC599",
"d+	c #D29E7D",
"e+	c #A26F60",
"f+	c #FDD6C6",
"g+	c #FAD6CA",
"h+	c #F6D5CC",
"i+	c #000007",
"j+	c #C2A8A0",
"k+	c #F9D6CC",
"l+	c #F9D6CD",
"m+	c #A79088",
"n+	c #372F30",
"o+	c #F8D6CC",
"p+	c #FBD6CA",
"q+	c #F8D2C2",
"r+	c #A26E60",
"s+	c #DDA984",
"t+	c #F1BF93",
"u+	c #804646",
"v+	c #8D85F5",
"w+	c #492A4C",
"x+	c #623649",
"y+	c #D3A081",
"z+	c #C88F76",
"A+	c #BC8069",
"B+	c #EEBFAB",
"C+	c #F5C8B1",
"D+	c #F8CFB4",
"E+	c #000000",
"F+	c #C2A38F",
"G+	c #FBD0B4",
"H+	c #A88C7A",
"I+	c #372D28",
"J+	c #F3C5AF",
"K+	c #EBBBA7",
"L+	c #BC7F69",
"M+	c #CA9479",
"N+	c #CB9A7D",
"O+	c #43264B",
"P+	c #300F52",
"Q+	c #3C1F6C",
"R+	c #40668F",
"S+	c #7D4749",
"T+	c #B57963",
"U+	c #D79576",
"V+	c #D79575",
"W+	c #ECB28A",
"X+	c #F7C599",
"Y+	c #C19B79",
"Z+	c #FBC597",
"`+	c #A78467",
" @	c #362B22",
".@	c #FAC697",
"+@	c #E6AA85",
"@@	c #D79477",
"#@	c #A96F5D",
"$@	c #794448",
"%@	c #8A89F5",
"&@	c #8179FA",
"*@	c #7971EA",
"=@	c #31144A",
"-@	c #663B4D",
";@	c #894E48",
">@	c #D89775",
",@	c #DB9877",
"'@	c #CE9277",
")@	c #E9B28C",
"!@	c #FAC696",
"~@	c #FAC698",
"{@	c #E1AA85",
"]@	c #CF9277",
"^@	c #D79675",
"/@	c #D39274",
"(@	c #884E48",
"_@	c #5D354C",
":@	c #341249",
"<@	c #98ABEC",
"[@	c #5AE5FB",
"}@	c #4C2A42",
"|@	c #633737",
"1@	c #A87761",
"2@	c #B27A63",
"3@	c #BA7D66",
"4@	c #E4A782",
"5@	c #EDB48A",
"6@	c #E0A37F",
"7@	c #D69474",
"8@	c #B07963",
"9@	c #A4745F",
"0@	c #623737",
"a@	c #462443",
"b@	c #7CE1F1",
"c@	c #402374",
"d@	c #3D206E",
"e@	c #1C0631",
"f@	c #5F3534",
"g@	c #824745",
"h@	c #D69677",
"i@	c #D39377",
"j@	c #804545",
"k@	c #522C2C",
"l@	c #210638",
"m@	c #3E2F74",
"n@	c #335774",
"o@	c #465E94",
"p@	c #8481F8",
"q@	c #BEDFE4",
"r@	c #B3E0E8",
"s@	c #72D9FB",
"t@	c #56E6FB",
"u@	c #97DBE6",
"v@	c #F8F8F8",
"w@	c #BEDFEC",
"x@	c #8882F9",
"y@	c #7976EC",
"z@	c #412577",
"A@	c #3F3277",
"B@	c #345B77",
"C@	c #365577",
"D@	c #3F2271",
"E@	c #311053",
"F@	c #4F3D95",
"G@	c #807EFA",
"H@	c #7D97FB",
"I@	c #6EE9FC",
"J@	c #88E0EF",
"K@	c #B7DCE2",
"L@	c #E8F1F2",
"M@	c #C7E3E5",
"N@	c #B3E4EB",
"O@	c #61D8FB",
"P@	c #C5F5F6",
"Q@	c #B4DBE1",
"R@	c #92D1EA",
"S@	c #76DEFC",
"T@	c #8983ED",
"U@	c #345F7B",
"V@	c #37597A",
"W@	c #311054",
"X@	c #503F97",
"Y@	c #84E3F2",
"Z@	c #83DFEF",
"`@	c #76E9FB",
" #	c #CAFAFA",
".#	c #BEF6FA",
"+#	c #63E4F8",
"@#	c #B1DDE3",
"##	c #B3DBE0",
"$#	c #9FD5E3",
"%#	c #8B8FE5",
"&#	c #495E76",
"*#	c #3E647D",
"=#	c #606E7E",
"-#	c #697199",
";#	c #92ACEF",
">#	c #94DFEB",
",#	c #9EC4CD",
"'#	c #A0C5CE",
")#	c #BDD1D4",
"!#	c #B9CFD3",
"~#	c #9DC3CC",
"                          . + + + +           @ + + + #         ",
"                          . + + + +     $ % & * = - ; #         ",
"                    > , ' + + +       ) ! ~ & * = - { ] ^       ",
"                ^ / % ~ ( _ + + : < [ % } | 1 ~ ~ ~ 2 - 3       ",
"              4 5 ~ ~ ~ & 6 = - { * 7 ~ } | 1 ~ ~ ~ 2 - { 8     ",
"            9 0 } | | | a ~ ~ ~ } b b | | | | | | | a ~ & c     ",
"          ^ d ~ } | | | a ~ ~ ~ } | | | | | | | | | a ~ & e     ",
"          f b | | | | | | | | | | | | | | | | | | | | | a ~ g   ",
"        h | | | | i j k l m m n n o m m k p | | | | | | 1 ~ q   ",
"        r | | | s t u v w w x w w x w w y z A B | | | | 1 ~ C   ",
"      D E | | | F G H I J J J J J J J J K L M N | | O P Q R S   ",
"    T U } | | V W X Y Z `  . . . . . .` ..+.@.#.$.| 1 ~ 2 - -   ",
"    + %.} | | &.*.=.-.;.J  .>.,.'.). .J !.~.{.].^.| 1 ~ 2 /.-   ",
"    + R } | | (.*._._.:. . .<.[.}.|. .` 1.2.3.4.5.| 1 ~ & * =   ",
"    6.7.8.| | 9.0.a.b.c.d.e.f.g.g.h.i.j.k.l.m.n.o.| a 7.p.q.r.  ",
"@ @ s.| | | | t.u.v.w.x.y.z.A.B.B.C.D.L E.F.G.H.I.| | | a ~ &   ",
"+ + J.| | | | K.L.M.G N.O.P.Q.}.}.Q.R.O.S.T.U.L.V.| | | W.7.X.T ",
"# # Y.| | Z.`. +.+++@+#+$+%+&+*+*+&+=+-+;+>+,+'+)+!+~+| | | {+T ",
"  ^ ]+| | ^+/+(+_+:+<+[+}+|+}+1+1+2+|+3+4+5+,+6+7+8+9+| | | {+  ",
"  0+} | | a+b+c+d+e+f+g+h+i+j+k+l+m+n+o+p+q+r+s+t+u+9+| | | {+  ",
". v+} | | w+x+y+z+A+B+C+D+E+F+G+G+H+I+G+J+K+L+M+N+m O+| P+Q+R+  ",
". % } | | | | S+T+U+V+W+X+E+Y+Z+Z+`+ @.@+@V+@@#@$@| | | 1 ~ %@  ",
"  &@*@| | | | =@-@;@U+>@,@'@)@!@~@{@]@,@^@/@(@_@:@| | | 1 ~ <@  ",
"  [@E | | | | | }@|@1@2@3@V+4@5@5@6@7@3@8@9@0@a@| | | | 1 ~ q   ",
"  b@E c@d@| | | e@t.,+f@g@h@V+V+V+U+i@j@k@,+t.l@P+c@m@n@o@p@^   ",
"q@r@s@~ } | | | | | | | | | | | | | | | | | | | 1 ~ & * t@u@  @ ",
"v@v@w@x@y@z@A@B@C@W.D@| | | | | | | | | | | E@z@F@G@H@I@J@    K@",
"L@L@M@N@O@~ & * 7 ~ } | | | | | | | | | | | 1 ~ & * = P@T     Q@",
"        R@& H@= S@2 T@U@V@W.c@| | | | | W@W.X@& H@= Y@.         ",
"        ^ Z@`@- -  #.#+#7 ~ } | | | | | 1 ~ & * = P@@#######    ",
"                        $#<@%#&#{+{+*#=#-#S ;#Z@>#@#+ + + #     ",
",#,#,#,#,#,#,#,#,#,#,#,#,#,#,#'#)#)#)#)#,#,#,#,#,#'#)#)#)#!#,#~#"};
