/* XPM */
static char *a8339e8179144919933b5ae9a57943f05qmp1hIo8UjXRuer[] = {
/* columns rows colors chars-per-pixel */
"32 32 149 2 ",
"   c #2D0148",
".  c #2C0848",
"X  c #2E0B4C",
"o  c #300F52",
"O  c #311053",
"+  c #311054",
"@  c #331358",
"#  c #3C1F6C",
"$  c #3D206E",
"%  c #3F2271",
"&  c #3E2F74",
"*  c #3F3277",
"=  c #402374",
"-  c #412577",
";  c #43267A",
":  c #44277C",
">  c #44287D",
",  c #335774",
"<  c #365577",
"1  c #345B77",
"2  c #37597A",
"3  c #345F7B",
"4  c #35627D",
"5  c #3E647D",
"6  c #495E76",
"7  c #606E7E",
"8  c #492F83",
"9  c #4F3D95",
"0  c #503F97",
"q  c #465E94",
"w  c #40668F",
"e  c #697199",
"r  c #7A58E4",
"t  c #7C5AEA",
"y  c #7C5BEA",
"u  c #7971EA",
"i  c #7976EC",
"p  c #7D7FF6",
"a  c #825FF4",
"s  c #8461F8",
"d  c #8564FA",
"f  c #8A6DF9",
"g  c #8B7CF6",
"h  c #8179FA",
"j  c #807EFA",
"k  c #7C9BA7",
"l  c #7C80F4",
"z  c #7E82F9",
"x  c #7D95FB",
"c  c #7D97FB",
"v  c #59CEEA",
"b  c #51D3EB",
"n  c #5DD8FC",
"m  c #6BD3E5",
"M  c #6DD2E4",
"N  c #67D5F8",
"B  c #61D8FB",
"V  c #7AD3F3",
"C  c #72D9FB",
"Z  c #76DEFC",
"A  c #56E6FB",
"S  c #57E1FC",
"D  c #53E6FC",
"F  c #54E5FC",
"G  c #5AE5FB",
"H  c #63E2F9",
"J  c #63E4F8",
"K  c #6EE9FC",
"L  c #73E2F5",
"P  c #7CE1F1",
"I  c #73E6FC",
"U  c #76E9FB",
"Y  c #72E9FC",
"T  c #8B8FE5",
"R  c #8983ED",
"E  c #8D85F5",
"W  c #8A89F5",
"Q  c #8083FA",
"!  c #8481F8",
"~  c #8882F9",
"^  c #9288FB",
"/  c #928AFB",
"(  c #9090F3",
")  c #9091F4",
"_  c #A39FF4",
"`  c #95A2EF",
"'  c #92ACEF",
"]  c #98ABEC",
"[  c #9AB0EB",
"{  c #9FB7EA",
"}  c #9DBAE8",
"|  c #9DC3CC",
" . c #9EC4CD",
".. c #81CEDD",
"X. c #95CCD6",
"o. c #A0C5CE",
"O. c #B9CFD3",
"+. c #A6D7DE",
"@. c #AFD5DB",
"#. c #A8D7DE",
"$. c #ABD8DF",
"%. c #AFDADF",
"&. c #BDD1D4",
"*. c #83DFEF",
"=. c #86DFEE",
"-. c #9FD5E3",
";. c #99D3E7",
":. c #97DBE6",
">. c #9ED9E3",
",. c #92D1EA",
"<. c #93DCE9",
"1. c #94DFEB",
"2. c #84D5F0",
"3. c #A4CDE2",
"4. c #A5D7E0",
"5. c #AAD4E6",
"6. c #A4D8E0",
"7. c #A2DCE5",
"8. c #ABDAE0",
"9. c #ABDCE3",
"0. c #B3DBE0",
"q. c #B4DBE1",
"w. c #B1DDE3",
"e. c #B7DCE2",
"r. c #B0DFE5",
"t. c #BEDFE4",
"y. c #BEDFEC",
"u. c #88E0EF",
"i. c #84E3F2",
"p. c #B3E0E8",
"a. c #B3E4EB",
"s. c #BAEAED",
"d. c #A1E7F2",
"f. c #BEEEF0",
"g. c #BEF6FA",
"h. c #C5D9E9",
"j. c #C7E3E5",
"k. c #C9E4E5",
"l. c #CFE7E7",
"z. c #CEEDED",
"x. c #C2ECFB",
"c. c #C5F5F6",
"v. c #CBF3F4",
"b. c #C1FBFE",
"n. c #CAFAFA",
"m. c #CBFEFE",
"M. c #CDFEFE",
"N. c #E8F1F2",
"B. c #F8F8F8",
/* pixels */
"#.#.#.#.#.#.#.#.#.#.#.#.#.$.l.l.l.l.#.#.#.#.#.%.l.l.l.k.#.#.#.#.",
"#.#.#.#.#.#.#.#.#.#.#.#.#.$.l.l.l.l.#.#.5.d z D Y M.v.k.#.#.#.#.",
"#.#.#.#.#.#.#.#.#.#.7.f.z.l.l.l.#.#.#.r.x.s z D Y M.b.L +.#.#.#.",
"#.#.#.#.#.#.#.#.+.( d s Q d.l.l.9.<.2.d t . > s s s ^ M.s.#.#.#.",
"#.#.#.#.#.#.#.4.V s s s z F Y M.b.D n s t . > s s s ^ M.b.6.#.#.",
"#.#.#.#.#.#.;.g t . . . : s s s t     . . . . . . . : s z =.#.#.",
"#.#.#.#.#.+.N s t . . . : s s s t . . . . . . . . . : s z H #.#.",
"#.#.#.#.#.k   . . . . . . . . . . . . . . . . . . . . . : s 3.#.",
"#.#.#.#.X.. . . . . . . . . . . . . . . . . . . . . . . > s } #.",
"#.#.#.#.m . . . . . . . . . . . . . . . . . . . . . . . > s ` #.",
"#.#.#.>.b . . . . . . . . . . . . . . . . . . . . . X @ 8 f ) #.",
"#.#.8.{ t . . . . . . . . . . . . . . . . . . . . . > s ^ M.M.#.",
"#.#.l._ t . . . . . . . . . . . . . . . . . . . . . > s ^ m.M.#.",
"#.#.l.f t . . . . . . . . . . . . . . . . . . . . . > s z D Y #.",
"#.#.h.a r . . . . . . . . . . . . . . . . . . . . . : a p S I #.",
"%.%.@.. . . . . . . . . . . . . . . . . . . . . . . . . : s z #.",
"l.l.... . . . . . . . . . . . . . . . . . . . . . . . . ; a l 8.",
"k.k.M . . . . . . . . . . . . . . . . . . . . . . . . . . . 4 8.",
"#.+.v . . . . . . . . . . . . . . . . . . . . . . . . . . . 4 #.",
"#.[ t . . . . . . . . . . . . . . . . . . . . . . . . . . . 4 #.",
"$.E t . . . . . . . . . . . . . . . . . . . . . . . . . o # w #.",
"$.d t . . . . . . . . . . . . . . . . . . . . . . . . . > s W #.",
"#.h u . . . . . . . . . . . . . . . . . . . . . . . . . > s ] #.",
"#.G b . . . . . . . . . . . . . . . . . . . . . . . . . > s } #.",
"#.P b = $ . . . . . . . . . . . . . . . . . . . o = & , q ! +.#.",
"t.p.C s t . . . . . . . . . . . . . . . . . . . > s z D A :.#.%.",
"B.B.y.~ i - * 1 < ; % . . . . . . . . . . . O - 9 j c K u.#.#.e.",
"N.N.j.a.B s z D n s t . . . . . . . . . . . > s z D Y c.8.#.#.q.",
"#.#.#.#.,.z c Y Z ^ R 3 2 ; = . . . . . + ; 0 z c Y i.$.#.#.#.#.",
"#.#.#.#.+.*.U M.M.n.g.J n s t . . . . . > s z D Y c.w.0.0.0.#.#.",
"#.#.#.#.#.#.#.#.#.#.#.#.-.] T 6 4 4 5 7 e ) ' *.1.w.l.l.l.k.#.#.",
" . . . . . . . . . . . . . . .o.&.&.&.&. . . . . .o.&.&.&.O. .| "
};
