/* XPM */
static char * hole4_xpm[] = {
"32 32 471 2",
"  	c #A8D7DE",
". 	c #ABD8DF",
"+ 	c #CFE7E7",
"@ 	c #AFDADF",
"# 	c #C9E4E5",
"$ 	c #AAD4E6",
"% 	c #8564FA",
"& 	c #7E82F9",
"* 	c #53E6FC",
"= 	c #72E9FC",
"- 	c #CDFEFE",
"; 	c #CBF3F4",
"> 	c #899BA2",
", 	c #98A7A9",
"' 	c #A2A7A8",
") 	c #A2A3A4",
"! 	c #8D999E",
"~ 	c #8E999E",
"{ 	c #8E989E",
"] 	c #929DA2",
"^ 	c #9BA6B1",
"/ 	c #7B55B5",
"( 	c #C1FBFE",
"_ 	c #73E2F5",
": 	c #A6D7DE",
"< 	c #A5D5DC",
"[ 	c #8F8DEE",
"} 	c #844546",
"| 	c #884745",
"1 	c #8A4845",
"2 	c #8B4845",
"3 	c #884645",
"4 	c #804346",
"5 	c #452B7C",
"6 	c #8361F6",
"7 	c #8461F8",
"8 	c #9288FB",
"9 	c #BAEAED",
"0 	c #A5D7E0",
"a 	c #7A9DB3",
"b 	c #824545",
"c 	c #BC4342",
"d 	c #DF614D",
"e 	c #F67253",
"f 	c #D75A4A",
"g 	c #B94342",
"h 	c #7E4748",
"i 	c #7F59CA",
"j 	c #A4D8E0",
"k 	c #99D3E7",
"l 	c #7E63B0",
"m 	c #904B81",
"n 	c #A64441",
"o 	c #E2614F",
"p 	c #EE6B52",
"q 	c #F77252",
"r 	c #F77253",
"s 	c #EB6951",
"t 	c #DE5F4E",
"u 	c #A54443",
"v 	c #803D49",
"w 	c #5A374D",
"x 	c #2C0848",
"y 	c #44277C",
"z 	c #86DFEE",
"A 	c #67D5F8",
"B 	c #7F4646",
"C 	c #A44443",
"D 	c #BE433E",
"E 	c #F57256",
"F 	c #F67254",
"G 	c #F47457",
"H 	c #F1765B",
"I 	c #F1765C",
"J 	c #F47356",
"K 	c #F67255",
"L 	c #F27055",
"M 	c #BE433F",
"N 	c #9E4442",
"O 	c #784446",
"P 	c #63E2F9",
"Q 	c #7C9BA7",
"R 	c #2D0148",
"S 	c #7F4647",
"T 	c #BE4240",
"U 	c #E0604C",
"V 	c #F9D0C7",
"W 	c #FFFEFB",
"X 	c #FEFDFB",
"Y 	c #F5BDB3",
"Z 	c #D85948",
"` 	c #BE423F",
" .	c #BE4341",
"..	c #9D4443",
"+.	c #794446",
"@.	c #A4CDE2",
"#.	c #95CCD6",
"$.	c #563133",
"%.	c #843D3B",
"&.	c #A14442",
"*.	c #BE4241",
"=.	c #CF5246",
"-.	c #D95E4D",
";.	c #D998A1",
">.	c #D8ABAD",
",.	c #DCBAB8",
"'.	c #D8A6AA",
").	c #D9959D",
"!.	c #DB5D4B",
"~.	c #CB4E44",
"{.	c #BC4241",
"].	c #A04442",
"^.	c #7C3938",
"/.	c #522F35",
"(.	c #44287D",
"_.	c #9DBAE8",
":.	c #6BD3E5",
"<.	c #010102",
"[.	c #5C3535",
"}.	c #804645",
"|.	c #BB4443",
"1.	c #BA4343",
"2.	c #B64748",
"3.	c #B6B4CF",
"4.	c #B58395",
"5.	c #BA4340",
"6.	c #B991A6",
"7.	c #B7B1CB",
"8.	c #BB4342",
"9.	c #B84443",
"0.	c #7D4746",
"a.	c #502D2D",
"b.	c #070213",
"c.	c #95A2EF",
"d.	c #9ED9E3",
"e.	c #51D3EB",
"f.	c #000102",
"g.	c #020000",
"h.	c #050000",
"i.	c #BCA7B1",
"j.	c #DBD4E2",
"k.	c #FDFEFE",
"l.	c #FEFDFC",
"m.	c #FCFCFD",
"n.	c #AE959E",
"o.	c #7D4343",
"p.	c #010000",
"q.	c #080213",
"r.	c #2E0B4C",
"s.	c #331358",
"t.	c #492F83",
"u.	c #8A6DF9",
"v.	c #9091F4",
"w.	c #ABDAE0",
"x.	c #9FB7EA",
"y.	c #7C5AEA",
"z.	c #45254A",
"A.	c #583149",
"B.	c #AF8C6E",
"C.	c #7A624D",
"D.	c #070404",
"E.	c #C69E95",
"F.	c #B5A2AD",
"G.	c #A6A6C0",
"H.	c #C5C4CE",
"I.	c #C4C4CF",
"J.	c #C4C4CE",
"K.	c #C4C3CD",
"L.	c #A5A5C0",
"M.	c #B8A2A9",
"N.	c #C09991",
"O.	c #010001",
"P.	c #896F58",
"Q.	c #AA866C",
"R.	c #58334A",
"S.	c #4D3177",
"T.	c #A39FF4",
"U.	c #5F3449",
"V.	c #7F4544",
"W.	c #F9C699",
"X.	c #B08C6D",
"Y.	c #0A0606",
"Z.	c #FCD7C8",
"`.	c #B39AA0",
" +	c #3E3B75",
".+	c #3D3C76",
"++	c #3F3B76",
"@+	c #3E3C76",
"#+	c #3E3B74",
"$+	c #C9ADAF",
"%+	c #F4D0C3",
"&+	c #C59D7B",
"*+	c #F2BE93",
"=+	c #804546",
"-+	c #5D386C",
";+	c #CBFEFE",
">+	c #5E3449",
",+	c #804644",
"'+	c #FAC599",
")+	c #D29E7D",
"!+	c #A26F60",
"~+	c #FDD6C6",
"{+	c #FAD6CA",
"]+	c #F6D5CC",
"^+	c #000007",
"/+	c #C2A8A0",
"(+	c #F9D6CC",
"_+	c #F9D6CD",
":+	c #A79088",
"<+	c #372F30",
"[+	c #F8D6CC",
"}+	c #FBD6CA",
"|+	c #F8D2C2",
"1+	c #A26E60",
"2+	c #DDA984",
"3+	c #F1BF93",
"4+	c #804646",
"5+	c #C5D9E9",
"6+	c #825FF4",
"7+	c #7A58E4",
"8+	c #492A4C",
"9+	c #623649",
"0+	c #D3A081",
"a+	c #C88F76",
"b+	c #BC8069",
"c+	c #EEBFAB",
"d+	c #F5C8B1",
"e+	c #F8CFB4",
"f+	c #000000",
"g+	c #C2A38F",
"h+	c #FBD0B4",
"i+	c #A88C7A",
"j+	c #372D28",
"k+	c #F3C5AF",
"l+	c #EBBBA7",
"m+	c #BC7F69",
"n+	c #CA9479",
"o+	c #CB9A7D",
"p+	c #61384B",
"q+	c #503374",
"r+	c #7D7FF6",
"s+	c #57E1FC",
"t+	c #73E6FC",
"u+	c #AFD5DB",
"v+	c #7D4749",
"w+	c #B57963",
"x+	c #D79576",
"y+	c #D79575",
"z+	c #ECB28A",
"A+	c #F7C599",
"B+	c #C19B79",
"C+	c #FBC597",
"D+	c #A78467",
"E+	c #362B22",
"F+	c #FAC697",
"G+	c #E6AA85",
"H+	c #D79477",
"I+	c #A96F5D",
"J+	c #794448",
"K+	c #81CEDD",
"L+	c #31144A",
"M+	c #663B4D",
"N+	c #894E48",
"O+	c #D89775",
"P+	c #DB9877",
"Q+	c #CE9277",
"R+	c #E9B28C",
"S+	c #FAC696",
"T+	c #FAC698",
"U+	c #E1AA85",
"V+	c #CF9277",
"W+	c #D79675",
"X+	c #D39274",
"Y+	c #884E48",
"Z+	c #5D354C",
"`+	c #341249",
" @	c #43267A",
".@	c #7C80F4",
"+@	c #6DD2E4",
"@@	c #4C2A42",
"#@	c #633737",
"$@	c #A87761",
"%@	c #B27A63",
"&@	c #BA7D66",
"*@	c #E4A782",
"=@	c #EDB48A",
"-@	c #E0A37F",
";@	c #D69474",
">@	c #B07963",
",@	c #A4745F",
"'@	c #623737",
")@	c #462443",
"!@	c #35627D",
"~@	c #59CEEA",
"{@	c #1C0631",
"]@	c #5F3534",
"^@	c #824745",
"/@	c #D69677",
"(@	c #D39377",
"_@	c #804545",
":@	c #522C2C",
"<@	c #210638",
"[@	c #9AB0EB",
"}@	c #0B0419",
"|@	c #587287",
"1@	c #7598B4",
"2@	c #883433",
"3@	c #B34442",
"4@	c #4C3932",
"5@	c #4B3A32",
"6@	c #533A33",
"7@	c #B74341",
"8@	c #762B2B",
"9@	c #1E262D",
"0@	c #7499B5",
"a@	c #4C6376",
"b@	c #100321",
"c@	c #8D85F5",
"d@	c #3F234C",
"e@	c #4F2F4B",
"f@	c #A18268",
"g@	c #AD9E96",
"h@	c #B5B2B4",
"i@	c #8E3331",
"j@	c #BC4341",
"k@	c #722D2D",
"l@	c #765F68",
"m@	c #777686",
"n@	c #73565D",
"o@	c #762E2F",
"p@	c #7C2B28",
"q@	c #2F2F2F",
"r@	c #B5B2B5",
"s@	c #A9978B",
"t@	c #9C7D66",
"u@	c #4F2F4C",
"v@	c #3B1E4B",
"w@	c #300F52",
"x@	c #3C1F6C",
"y@	c #40668F",
"z@	c #603349",
"A@	c #FAC699",
"B@	c #F9C59A",
"C@	c #BD4341",
"D@	c #BC90A5",
"E@	c #B5B4D4",
"F@	c #B5B4D3",
"G@	c #B98294",
"H@	c #7C2A29",
"I@	c #43362B",
"J@	c #FAC598",
"K@	c #552F48",
"L@	c #8A89F5",
"M@	c #8179FA",
"N@	c #7971EA",
"O@	c #5D3549",
"P@	c #804544",
"Q@	c #DE9F7D",
"R@	c #DF9F7D",
"S@	c #DD9F7F",
"T@	c #8C8092",
"U@	c #B9A4BC",
"V@	c #EC6C50",
"W@	c #E1ACB3",
"X@	c #D0D0E2",
"Y@	c #D1D0E1",
"Z@	c #E09EA1",
"`@	c #E96F59",
" #	c #B6A6C0",
".#	c #786E7E",
"+#	c #392A23",
"@#	c #D89A79",
"##	c #552F49",
"$#	c #98ABEC",
"%#	c #5AE5FB",
"&#	c #4E2B4B",
"*#	c #6A3947",
"=#	c #B07B62",
"-#	c #AF7B61",
";#	c #AD7B64",
">#	c #232241",
",#	c #787692",
"'#	c #9C97B6",
")#	c #EE9B94",
"!#	c #E3BEC6",
"~#	c #D5D5E6",
"{#	c #E3B6BB",
"]#	c #E99C97",
"^#	c #9998BA",
"/#	c #6A6781",
"(#	c #383045",
"_#	c #AE7B62",
":#	c #AB775F",
"<#	c #6A3A48",
"[#	c #47274B",
"}#	c #7CE1F1",
"|#	c #402374",
"1#	c #3D206E",
"2#	c #010204",
"3#	c #010105",
"4#	c #3E3C79",
"5#	c #424079",
"6#	c #D5D5E5",
"7#	c #D6D5E5",
"8#	c #D5D6E5",
"9#	c #D2D1E4",
"0#	c #3E3B78",
"a#	c #3E3B79",
"b#	c #3C3A74",
"c#	c #010002",
"d#	c #090317",
"e#	c #3E2F74",
"f#	c #335774",
"g#	c #465E94",
"h#	c #8481F8",
"i#	c #BEDFE4",
"j#	c #B3E0E8",
"k#	c #72D9FB",
"l#	c #56E6FB",
"m#	c #97DBE6",
"n#	c #F8F8F8",
"o#	c #BEDFEC",
"p#	c #8882F9",
"q#	c #7976EC",
"r#	c #412577",
"s#	c #3F3277",
"t#	c #345B77",
"u#	c #365577",
"v#	c #3F2271",
"w#	c #311053",
"x#	c #4F3D95",
"y#	c #807EFA",
"z#	c #7D97FB",
"A#	c #6EE9FC",
"B#	c #88E0EF",
"C#	c #B7DCE2",
"D#	c #E8F1F2",
"E#	c #C7E3E5",
"F#	c #B3E4EB",
"G#	c #61D8FB",
"H#	c #5DD8FC",
"I#	c #C5F5F6",
"J#	c #B4DBE1",
"K#	c #92D1EA",
"L#	c #76DEFC",
"M#	c #8983ED",
"N#	c #345F7B",
"O#	c #37597A",
"P#	c #311054",
"Q#	c #503F97",
"R#	c #84E3F2",
"S#	c #83DFEF",
"T#	c #76E9FB",
"U#	c #CAFAFA",
"V#	c #BEF6FA",
"W#	c #63E4F8",
"X#	c #B1DDE3",
"Y#	c #B3DBE0",
"Z#	c #9FD5E3",
"`#	c #8B8FE5",
" $	c #495E76",
".$	c #3E647D",
"+$	c #606E7E",
"@$	c #697199",
"#$	c #92ACEF",
"$$	c #94DFEB",
"%$	c #9EC4CD",
"&$	c #A0C5CE",
"*$	c #BDD1D4",
"=$	c #B9CFD3",
"-$	c #9DC3CC",
"                          . + + + +           @ + + + #         ",
"                          . + + + +     $ % & * = - ; #         ",
"                    > , ' ) ) ) ! ~ { ] ^ / & * = - ( _ :       ",
"                < [ } | 1 1 2 1 1 2 1 1 3 4 5 6 7 7 8 - 9       ",
"              0 a b c d e e e e e e e e f g h i 7 7 8 - ( j     ",
"            k l m n o p q r r r r r r q s t u v w x y 7 & z     ",
"          : A B C D E F e r G H I J r e K L M N O x y 7 & P     ",
"          Q R S C T T U r r V W X Y r q Z `  ...+.x x x y 7 @.  ",
"        #.x x $.%.&.*.=.-.;.>.,.,.'.).!.~.{.].^./.x x x (.7 _.  ",
"        :.x x <.[.}.|.1.2.3.4.5.5.6.7.g 8.9.0.a.b.x x x (.7 c.  ",
"      d.e.x x f.g.h.b i.j.k.l.X X l.m.j.n.o.p.g.q.x r.s.t.u.v.  ",
"    w.x.y.z.A.B.C.D.E.F.G.H.I.J.J.I.K.L.M.N.O.P.Q.R.S.7 8 - -   ",
"    + T.y.U.V.W.X.Y.Z.`. +.+ +++++@+.+#+$+%+O.&+*+=+-+7 8 ;+-   ",
"    + u.y.>+,+'+)+!+~+{+]+^+/+(+_+:+<+[+}+|+1+2+3+4+-+7 & * =   ",
"    5+6+7+8+9+0+a+b+c+d+e+f+g+h+h+i+j+h+k+l+m+n+o+p+q+6+r+s+t+  ",
"@ @ u+x x x x v+w+x+y+z+A+f+B+C+C+D+E+F+G+y+H+I+J+x x x y 7 &   ",
"+ + K+x x x x L+M+N+x+O+P+Q+R+S+T+U+V+P+W+X+Y+Z+`+x x x  @6+.@w.",
"# # +@x x x x x @@#@$@%@&@y+*@=@=@-@;@&@>@,@'@)@x x x x x x !@w.",
"  : ~@x x x x x {@<.O.]@^@/@y+y+y+x+(@_@:@O.<.<@x x x x x x !@  ",
"  [@y.x x x x }@|@1@f+2@3@4@5@5@5@5@6@7@8@9@0@a@b@x x x x x !@  ",
". c@y.x x d@e@f@g@h@f+i@j@k@l@m@m@n@o@T p@q@r@s@t@u@v@x w@x@y@  ",
". % y.x x z@_@A@T+B@f+i@C@` D@E@F@G@` C@H@I@J@F+3+}.K@x (.7 L@  ",
"  M@N@x x O@P@Q@R@S@f+T@U@V@W@X@Y@Z@`@ #.#+#R@R@@#}.##x (.7 $#  ",
"  %#e.x x &#*#=#-#;#>#,#'#)#!#~#~#{#]#^#/#(#_#-#:#<#[#x (.7 _.  ",
"  }#e.|#1#x x 2#O.3#4#4#5#~#6#6#7#8#9#0#a#b#c#c#d#|#e#f#g#h#:   ",
"i#j#k#7 y.x x x x x x x x x x x x x x x x x x x (.7 & * l#m#  @ ",
"n#n#o#p#q#r#s#t#u# @v#x x x x x x x x x x x w#r#x#y#z#A#B#    C#",
"D#D#E#F#G#7 & * H#7 y.x x x x x x x x x x x (.7 & * = I#w.    J#",
"        K#& z#= L#8 M#N#O# @|#x x x x x P# @Q#& z#= R#.         ",
"        : S#T#- - U#V#W#H#7 y.x x x x x (.7 & * = I#X#Y#Y#Y#    ",
"                        Z#$#`# $!@!@.$+$@$v.#$S#$$X#+ + + #     ",
"%$%$%$%$%$%$%$%$%$%$%$%$%$%$%$&$*$*$*$*$%$%$%$%$%$&$*$*$*$=$%$-$"};
