/* XPM */
static char * playerdown2_xpm[] = {
"32 32 321 2",
"  	c #A8D7DE",
". 	c #B1DAE0",
"+ 	c #D8EBEA",
"@ 	c #D8EBEB",
"# 	c #F1F5F5",
"$ 	c #F0F4F4",
"% 	c #C3E1E4",
"& 	c #C1E0E3",
"* 	c #64BACF",
"= 	c #65BACF",
"- 	c #68BCCF",
"; 	c #81C7D5",
"> 	c #83C8D5",
", 	c #95CED9",
"' 	c #97CFD9",
") 	c #CFE7E7",
"! 	c #F8F8F8",
"~ 	c #F7F8F8",
"{ 	c #CEE6E7",
"] 	c #7E666C",
"^ 	c #80676C",
"/ 	c #80676B",
"( 	c #81676C",
"_ 	c #80666B",
": 	c #7E676D",
"< 	c #8CCBD7",
"[ 	c #CBE5E6",
"} 	c #D9EBEB",
"| 	c #F0F5F5",
"1 	c #C2E1E3",
"2 	c #81B7C4",
"3 	c #80A5B0",
"4 	c #984644",
"5 	c #A95149",
"6 	c #B75C4D",
"7 	c #B75B4D",
"8 	c #AA5149",
"9 	c #984545",
"0 	c #8DABB3",
"a 	c #95C0C8",
"b 	c #C8E4E5",
"c 	c #C4E2E4",
"d 	c #A9D7DE",
"e 	c #CEE7E7",
"f 	c #8099A3",
"g 	c #824444",
"h 	c #BD4342",
"i 	c #DD5D4B",
"j 	c #F77253",
"k 	c #BD4341",
"l 	c #824544",
"m 	c #AAAEAF",
"n 	c #BEDFE4",
"o 	c #EFF4F4",
"p 	c #C7E4E5",
"q 	c #C6E3E5",
"r 	c #8BCBD7",
"s 	c #806D71",
"t 	c #9E5B5E",
"u 	c #B44340",
"v 	c #EF6B52",
"w 	c #F26F52",
"x 	c #F77252",
"y 	c #EF6B51",
"z 	c #B54240",
"A 	c #A36161",
"B 	c #867174",
"C 	c #ACD8DF",
"D 	c #7E4646",
"E 	c #A34442",
"F 	c #BF4141",
"G 	c #F67253",
"H 	c #BE4141",
"I 	c #B7DCE2",
"J 	c #E8F1F2",
"K 	c #C7E3E5",
"L 	c #BE4240",
"M 	c #7E4746",
"N 	c #B4DBE1",
"O 	c #BE4242",
"P 	c #CA4E45",
"Q 	c #E1624D",
"R 	c #64393A",
"S 	c #993E3D",
"T 	c #BD4240",
"U 	c #D25546",
"V 	c #E5644D",
"W 	c #BD4241",
"X 	c #A9D8DE",
"Y 	c #B3DBE0",
"Z 	c #B2DBE0",
"` 	c #010203",
" .	c #88302F",
"..	c #BE423F",
"+.	c #BE4241",
"@.	c #A34443",
"#.	c #7D4746",
"$.	c #ADD9DF",
"%.	c #CAE5E6",
"&.	c #9EC4CD",
"*.	c #92A1A8",
"=.	c #866F72",
"-.	c #C1886D",
";.	c #936654",
">.	c #4D2020",
",.	c #BB4441",
"'.	c #913634",
").	c #4D2021",
"!.	c #4C2020",
"~.	c #9A6855",
"{.	c #CA8A70",
"].	c #886E73",
"^.	c #A7ABAE",
"/.	c #BDD1D4",
"(.	c #B9CFD3",
"_.	c #9DC3CC",
":.	c #ACAFAF",
"<.	c #7F4546",
"[.	c #D79576",
"}.	c #A8755E",
"|.	c #5F423B",
"1.	c #993937",
"2.	c #9A3837",
"3.	c #AD4442",
"4.	c #843937",
"5.	c #462A28",
"6.	c #472A28",
"7.	c #60423B",
"8.	c #A9755E",
"9.	c #D79675",
"0.	c #804545",
"a.	c #95A4A9",
"b.	c #804544",
"c.	c #D89577",
"d.	c #C1836A",
"e.	c #A66E5E",
"f.	c #000000",
"g.	c #7F4647",
"h.	c #7F4645",
"i.	c #804645",
"j.	c #A66F5E",
"k.	c #D79577",
"l.	c #94A4AA",
"m.	c #C4DCDD",
"n.	c #81B7C3",
"o.	c #955D54",
"p.	c #B57865",
"q.	c #CD8F72",
"r.	c #010000",
"s.	c #010101",
"t.	c #351F20",
"u.	c #361F20",
"v.	c #85B8C4",
"w.	c #A4CED5",
"x.	c #A7D7DE",
"y.	c #7E4647",
"z.	c #A56A5B",
"A.	c #C1846D",
"B.	c #422627",
"C.	c #2D1A1B",
"D.	c #C1846C",
"E.	c #A5827B",
"F.	c #7F8087",
"G.	c #86C9D6",
"H.	c #AFDADF",
"I.	c #C9E5E6",
"J.	c #804546",
"K.	c #5A3233",
"L.	c #000001",
"M.	c #8098A3",
"N.	c #98B0B6",
"O.	c #7F7177",
"P.	c #CA8970",
"Q.	c #966754",
"R.	c #371F20",
"S.	c #583334",
"T.	c #71403F",
"U.	c #64939E",
"V.	c #C9E4E6",
"W.	c #C9E4E5",
"X.	c #94A4A9",
"Y.	c #7F4644",
"Z.	c #D89575",
"`.	c #9E6E60",
" +	c #1F1E38",
".+	c #5B3230",
"++	c #7F4646",
"@+	c #6C3D3C",
"#+	c #6C3D3D",
"$+	c #1F1E39",
"%+	c #6093A0",
"&+	c #AED9DF",
"*+	c #A17378",
"=+	c #3E3C77",
"-+	c #5B3231",
";+	c #010001",
">+	c #010002",
",+	c #3D3C76",
"'+	c #6697AF",
")+	c #B0DAE0",
"!+	c #ACD1D7",
"~+	c #C9D5D5",
"{+	c #965D53",
"]+	c #754F67",
"^+	c #241516",
"/+	c #361F21",
"(+	c #A38C49",
"_+	c #C7C0AC",
":+	c #E6E6E5",
"<+	c #E5E6E5",
"[+	c #352D4C",
"}+	c #373568",
"|+	c #7194B9",
"1+	c #5D7E95",
"2+	c #3C6068",
"3+	c #D0E7E7",
"4+	c #A58E8F",
"5+	c #746877",
"6+	c #363564",
"7+	c #392824",
"8+	c #513831",
"9+	c #CAAE54",
"0+	c #E5D6AA",
"a+	c #FDF7DF",
"b+	c #C9AE53",
"c+	c #3C2020",
"d+	c #49334E",
"e+	c #533D6C",
"f+	c #A2ACB7",
"g+	c #7F7F86",
"h+	c #3B2323",
"i+	c #8FA5A8",
"j+	c #000101",
"k+	c #785044",
"l+	c #A66E5C",
"m+	c #FCDD6B",
"n+	c #FCDE66",
"o+	c #FDDD67",
"p+	c #FCDD68",
"q+	c #FBDE67",
"r+	c #7F4542",
"s+	c #804646",
"t+	c #7F4543",
"u+	c #FBC599",
"v+	c #C99779",
"w+	c #7ABDCA",
"x+	c #73B3BF",
"y+	c #373668",
"z+	c #7E5763",
"A+	c #A76E5C",
"B+	c #BD8F61",
"C+	c #BD8F5F",
"D+	c #BD8F5E",
"E+	c #BD905E",
"F+	c #BE8F60",
"G+	c #643637",
"H+	c #DFA17F",
"I+	c #B77D67",
"J+	c #363767",
"K+	c #715267",
"L+	c #956564",
"M+	c #AB7958",
"N+	c #AA7A56",
"O+	c #AA7A57",
"P+	c #AB7A57",
"Q+	c #AB7A59",
"R+	c #724453",
"S+	c #51303C",
"T+	c #BD876F",
"U+	c #A38074",
"V+	c #938182",
"W+	c #010102",
"X+	c #2B2955",
"Y+	c #3E3B76",
"Z+	c #B69C4B",
"`+	c #B89B46",
" @	c #B89B45",
".@	c #B89B47",
"+@	c #B79B4A",
"@@	c #3D3B75",
"#@	c #2B2957",
"$@	c #95A8A9",
"%@	c #50303D",
"&@	c #714455",
"*@	c #695D6C",
"=@	c #6A5D6C",
"-@	c #6A5C6C",
";@	c #645650",
">@	c #5B4F2C",
",@	c #1D1A36",
"'@	c #638891",
")@	c #8BBAC3",
"!@	c #B8CECE",
"~@	c #C0D9DA",
"{@	c #000102",
"]@	c #523E6B",
"^@	c #513D6D",
"/@	c #503E6D",
"(@	c #383568",
"_@	c #46566D",
":@	c #51696D",
"<@	c #536A6D",
"[@	c #A5B9B9",
"}@	c #5A3231",
"|@	c #7F4745",
"1@	c #7B9DA3",
"2@	c #B5DCE1",
"3@	c #93BCC2",
"4@	c #728B90",
"5@	c #3F2324",
"6@	c #3F2425",
"7@	c #A1CBD2",
"8@	c #CCE6E6",
"9@	c #85ABB1",
"0@	c #50686C",
"a@	c #50676B",
"b@	c #C3E2E4",
"c@	c #ABD8DF",
"d@	c #A0C5CE",
"e@	c #BBD0D4",
"f@	c #A2C5CE",
"    . . + @ # $ % & * = = = = = = = = = = - ; > , '             ",
"    ) ) ! ~ ) { ; ; ] ^ / ( / _ _ ^ ( ( ( : ; < ) [             ",
"    @ } | $ 1 & 2 3 4 5 6 7 6 6 7 6 6 7 8 9 0 a b c             ",
"  d ! ! ) e ; ; f g h i j j j j j j j j i k l m                 ",
"n n $ o p q r s t u v w x j j j j j j x w y z A B             C ",
"! ! ) )       D E F G j j j j j j j j j j G H E D             I ",
"J J K q       D E L G j j j j j j j j j j G L E M             N ",
"              D E O P Q j j j j j j j j Q P O E M               ",
"              R S T L U V V V V V V V V U L W E M X Y Y Y Z     ",
"              `  ...L L ..L L L L L L L L L +.@.#.$.) ) ) %.    ",
"&.&.&.&.&.*.=.-.;.>.,.L L L '.).).'.L L L ,.!.~.{.].^././.(.&._.",
"    $.$.) :.<.[.}.|.1.2.2.3.4.5.6.4.3.2.2.1.7.8.9.0.a.          ",
"    ) ) ) :.b.c.d.e.f.f.f.g.h.i.i.h.g.f.f.f.j.d.k.b.l.          ",
"    ) ) %.m.n.o.p.q.f.r.s.t.u.u.u.u.t.s.r.f.q.p.o.v.w.          ",
"    ) )   x.; y.z.A.B.C.f.f.f.f.f.f.f.f.C.B.D.E.F.G.            ",
"H.H.%.I.  x.; y.J.i.i.K.L.L.L.L.L.L.L.L.K.i.i.M.; G.          d ",
") )       N.O.P.Q.R.R.S.T.T.T.T.T.T.T.T.S.R.R.U.; G.          H.",
"V.W.      X.Y.Z.`. +L..+++@+#+#+#+#+@+++.+L.$+%+; G.          &+",
"          a.b.[.*+=+f.-+++f.;+;+;+>+f.++.+L.,+'+; G.            ",
"        )+!+~+{+]+=+f.^+/+(+_+:+<+_+(+/+[+}+|+1+2+G.            ",
"        ) 3+! 4+5+6+L.7+8+9+0+a+a+0+b+c+d+e+f+g+h+G.            ",
"    . . + @ # $ i+>+j+k+l+m+n+o+p+q+m+r+s+t+u+v+i.'             ",
"    ) ) ! ~ ) { w+x+y+z+A+B+C+D+C+E+F+0.G+R.H+I+y.[             ",
"    @ } | $ 1 & ; ; J+K+L+M+N+O+P+P+Q+R+S+f.T+U+V+c             ",
"  d ! ! ) e ; ; ; ; W+X+Y+Z+`+`+ @.@+@@@#@;+s.$@                ",
"n n $ o p q r r r r W+%@&@*@*@=@-@;@>@,@'@)@!@~@              C ",
"! ! ) )             {@.+y.]@^@/@(@_@:@<@[@) ) [               I ",
"J J K q             {@}@i.s+i.|@L.1@Z 2@) e K c               N ",
"                    3@4@5@5@5@6@3@7@) ) ) 8@                    ",
"                      9@0@0@0@a@Y 2@) e q b@      X Y Y Y Z     ",
"                              c@) ) ) 8@          $.) ) ) %.    ",
"&.&.&.&.&.&.&.&.&.&.&.&.&.&.&.d@/././.e@&.&.&.&.&.f@/././.(.&._."};
