/* XPM */
static char * playerdown3_xpm[] = {
"32 32 394 2",
"  	c #A8D7DE",
". 	c #CFE7E7",
"+ 	c #CEE6E7",
"@ 	c #80C7D5",
"# 	c #5CB7CD",
"$ 	c #66BACE",
"% 	c #D2E8E8",
"& 	c #F8F8F8",
"* 	c #F5F7F7",
"= 	c #C8E3E5",
"- 	c #60B9CE",
"; 	c #81C7D5",
"> 	c #86C9D6",
", 	c #ADD9DF",
"' 	c #C8E4E5",
") 	c #C7E3E5",
"! 	c #737784",
"~ 	c #756C77",
"{ 	c #796E77",
"] 	c #7C6F77",
"^ 	c #948283",
"/ 	c #958283",
"( 	c #9F8889",
"_ 	c #9E8788",
": 	c #8F7F81",
"< 	c #8D7D80",
"[ 	c #756D78",
"} 	c #7EC1CE",
"| 	c #CEE7E7",
"1 	c #80C0CD",
"2 	c #80B4C0",
"3 	c #8D575C",
"4 	c #9A4B45",
"5 	c #A75348",
"6 	c #A75248",
"7 	c #A65348",
"8 	c #9E4D46",
"9 	c #914542",
"0 	c #80ACB8",
"a 	c #7FBCC9",
"b 	c #CAE5E6",
"c 	c #7FA3AF",
"d 	c #804546",
"e 	c #B74342",
"f 	c #D7594A",
"g 	c #F77252",
"h 	c #F77253",
"i 	c #E2624C",
"j 	c #BE4241",
"k 	c #884545",
"l 	c #7F8D97",
"m 	c #A7D7DE",
"n 	c #7E818A",
"o 	c #946569",
"p 	c #B14440",
"q 	c #E5674F",
"r 	c #F16D52",
"s 	c #F26F52",
"t 	c #EB6A51",
"u 	c #B94944",
"v 	c #9E5C5F",
"w 	c #7D747B",
"x 	c #83C2CF",
"y 	c #AFDADF",
"z 	c #C9E5E6",
"A 	c #7F6164",
"B 	c #9C4544",
"C 	c #BE433F",
"D 	c #F16E52",
"E 	c #C54A43",
"F 	c #A84342",
"G 	c #7F4645",
"H 	c #85C0CC",
"I 	c #A9D7DE",
"J 	c #F16E51",
"K 	c #C54A42",
"L 	c #804645",
"M 	c #C9E4E6",
"N 	c #C9E4E5",
"O 	c #92CDD8",
"P 	c #826366",
"Q 	c #BE423F",
"R 	c #CB5045",
"S 	c #DF5F4C",
"T 	c #E7674F",
"U 	c #CD5146",
"V 	c #C04540",
"W 	c #86C0CC",
"X 	c #AED9DF",
"Y 	c #8B6B6A",
"Z 	c #BE4240",
"` 	c #D15547",
" .	c #ED6950",
"..	c #EC6A51",
"+.	c #DC5D4A",
"@.	c #A34240",
"#.	c #713F3F",
"$.	c #83C0CC",
"%.	c #B0DAE0",
"&.	c #B1DAE0",
"*.	c #D7EAEA",
"=.	c #8D6C6B",
"-.	c #BE4340",
";.	c #913635",
">.	c #010103",
",.	c #7FBFCB",
"'.	c #BCC9C9",
").	c #AA9595",
"!.	c #C18772",
"~.	c #A56C5A",
"{.	c #652222",
"].	c #B4413F",
"^.	c #9E3A38",
"/.	c #662223",
"(.	c #652221",
"_.	c #8D3433",
":.	c #BD4340",
"<.	c #6E2A2B",
"[.	c #895A4D",
"}.	c #BA8168",
"|.	c #877D81",
"1.	c #97ABB1",
"2.	c #D8EBEA",
"3.	c #BAC0C0",
"4.	c #7F4644",
"5.	c #CF8F72",
"6.	c #AF7A63",
"7.	c #4D322B",
"8.	c #9E3D3C",
"9.	c #A93C3B",
"0.	c #B24341",
"a.	c #8E393A",
"b.	c #391E21",
"c.	c #391E20",
"d.	c #773334",
"e.	c #B34341",
"f.	c #AA3D3C",
"g.	c #A83D3B",
"h.	c #563630",
"i.	c #956A55",
"j.	c #D89477",
"k.	c #8D534D",
"l.	c #91979B",
"m.	c #CFCACB",
"n.	c #D08E72",
"o.	c #C6876C",
"p.	c #A66E5D",
"q.	c #362623",
"r.	c #000000",
"s.	c #010100",
"t.	c #784343",
"u.	c #814645",
"v.	c #261718",
"w.	c #010001",
"x.	c #9B695A",
"y.	c #BC7F69",
"z.	c #D79576",
"A.	c #8D534C",
"B.	c #90979C",
"C.	c #D8EBEB",
"D.	c #D9EBEB",
"E.	c #F0F5F5",
"F.	c #E5E8E9",
"G.	c #B1C3C5",
"H.	c #A2756C",
"I.	c #B27664",
"J.	c #CA8B6F",
"K.	c #43322B",
"L.	c #010000",
"M.	c #402426",
"N.	c #462526",
"O.	c #452625",
"P.	c #452626",
"Q.	c #442628",
"R.	c #13080A",
"S.	c #020002",
"T.	c #BE846B",
"U.	c #BC7D69",
"V.	c #A06658",
"W.	c #B0BDBE",
"X.	c #A1C7CD",
"Y.	c #807F86",
"Z.	c #A27B74",
"`.	c #CA896F",
" +	c #543B34",
".+	c #271818",
"++	c #1D1212",
"@+	c #371F1F",
"#+	c #BE836C",
"$+	c #B17462",
"%+	c #7F4546",
"&+	c #A4CDD3",
"*+	c #BEDFE4",
"=+	c #F0F4F4",
"-+	c #EFF4F4",
";+	c #C7E4E5",
">+	c #C6E3E5",
",+	c #8BCBD7",
"'+	c #85A7B0",
")+	c #814546",
"!+	c #643637",
"~+	c #000001",
"{+	c #502D2E",
"]+	c #ACD8DF",
"^+	c #8AADB3",
"/+	c #482828",
"(+	c #492828",
"_+	c #543132",
":+	c #693A3A",
"<+	c #693A39",
"[+	c #5C3435",
"}+	c #482928",
"|+	c #855B4F",
"1+	c #C18168",
"2+	c #948C8E",
"3+	c #99AFB5",
"4+	c #B7DCE2",
"5+	c #E8F1F2",
"6+	c #86ACB3",
"7+	c #191831",
"8+	c #05040A",
"9+	c #4F2D2D",
"0+	c #804644",
"a+	c #744040",
"b+	c #733F3F",
"c+	c #723F40",
"d+	c #7E4544",
"e+	c #633738",
"f+	c #000002",
"g+	c #17162D",
"h+	c #8D6458",
"i+	c #8D534E",
"j+	c #8E989D",
"k+	c #B4DBE1",
"l+	c #89AFBD",
"m+	c #3D3C77",
"n+	c #121221",
"o+	c #7F4646",
"p+	c #261717",
"q+	c #020101",
"r+	c #774342",
"s+	c #633737",
"t+	c #393870",
"u+	c #916B7A",
"v+	c #D89575",
"w+	c #8D544E",
"x+	c #8F979C",
"y+	c #729399",
"z+	c #6A8998",
"A+	c #6889AD",
"B+	c #3B416C",
"C+	c #3A2F4E",
"D+	c #4B2B28",
"E+	c #8E793D",
"F+	c #B0A68B",
"G+	c #D1D1D1",
"H+	c #D1D2D1",
"I+	c #BBB6A7",
"J+	c #957F3B",
"K+	c #563C33",
"L+	c #382022",
"M+	c #3A386F",
"N+	c #72536E",
"O+	c #A56B5C",
"P+	c #9BAFB3",
"Q+	c #A9C7CC",
"R+	c #B3DBE0",
"S+	c #B2DBE0",
"T+	c #4C5458",
"U+	c #6D727B",
"V+	c #97AABE",
"W+	c #59537E",
"X+	c #44345A",
"Y+	c #331E1D",
"Z+	c #BCA14F",
"`+	c #DDCEA1",
" @	c #FCF8EB",
".@	c #FCF9EB",
"+@	c #E8DDBD",
"@@	c #C6A950",
"#@	c #5F4C37",
"$@	c #362523",
"%@	c #010002",
"&@	c #343364",
"*@	c #605670",
"=@	c #887577",
"-@	c #AAD1D7",
";@	c #9EC4CD",
">@	c #845F62",
",@	c #BD8B72",
"'@	c #FAC698",
")@	c #955F57",
"!@	c #F2D269",
"~@	c #FCDD67",
"{@	c #FCDD68",
"]@	c #FCDD69",
"^@	c #B38060",
"/@	c #82574B",
"(@	c #010003",
"_@	c #678288",
":@	c #A2C5CE",
"<@	c #BDD1D4",
"[@	c #B9CFD3",
"}@	c #9DC3CC",
"|@	c #F7F8F8",
"1@	c #8B6969",
"2@	c #B17967",
"3@	c #E5A985",
"4@	c #6B4B42",
"5@	c #633939",
"6@	c #C69B63",
"7@	c #CCA265",
"8@	c #CCA364",
"9@	c #CDA265",
"0@	c #CDA264",
"a@	c #CEA266",
"b@	c #AB755F",
"c@	c #855B5E",
"d@	c #302F5F",
"e@	c #6399A6",
"f@	c #7CB5C0",
"g@	c #CBE5E6",
"h@	c #C2E1E3",
"i@	c #938789",
"j@	c #A07771",
"k@	c #C6896B",
"l@	c #423129",
"m@	c #4A2C33",
"n@	c #78444C",
"o@	c #A6725A",
"p@	c #AB765B",
"q@	c #AA765B",
"r@	c #9D6960",
"s@	c #7E5864",
"t@	c #37376E",
"u@	c #8FC5D1",
"v@	c #9CD1DA",
"w@	c #C4E2E4",
"x@	c #669EAA",
"y@	c #27254A",
"z@	c #3E3C76",
"A@	c #AE944F",
"B@	c #B79C46",
"C@	c #B79B46",
"D@	c #B89B46",
"E@	c #B89B47",
"F@	c #B69C48",
"G@	c #544E73",
"H@	c #2F2E5D",
"I@	c #C4DBDB",
"J@	c #81BCC7",
"K@	c #6EA2AC",
"L@	c #5A838F",
"M@	c #272447",
"N@	c #706035",
"O@	c #79694B",
"P@	c #7D6D6B",
"Q@	c #7D6E69",
"R@	c #7D6E6A",
"S@	c #806D69",
"T@	c #6C495C",
"U@	c #533446",
"V@	c #010101",
"W@	c #8BB3B9",
"X@	c #44595C",
"Y@	c #404F62",
"Z@	c #39376E",
"`@	c #473C73",
" #	c #493E73",
".#	c #493E71",
"+#	c #7A454C",
"@#	c #85ABB1",
"##	c #020100",
"$#	c #814545",
"%#	c #623738",
"&#	c #000101",
"*#	c #BDD7D9",
"=#	c #9CC7CE",
"-#	c #564A4C",
";#	c #502C2D",
">#	c #502D2B",
",#	c #7A7E7E",
"'#	c #A2B7B7",
")#	c #A4D2D9",
"!#	c #576C6F",
"~#	c #415153",
"{#	c #4B5555",
"]#	c #8CA2A3",
"^#	c #C3E2E4",
"/#	c #A9D8DE",
"(#	c #ABD8DF",
"_#	c #CCE6E6",
":#	c #A0C5CE",
"<#	c #BBD0D4",
"        . . . + @ @ # # # $ . % & * . = # - ; ; ; >             ",
"    , , . . ' ) ; @ ! ~ { ] ^ / ( _ : < ~ [ } ; ; >             ",
"    . . . | ; ; 1 2 3 4 5 6 5 5 6 5 5 7 8 9 0 a ; >             ",
"    . . b b ; ; c d e f g h h h h h h h i j k l ; >             ",
"    . .   m ; n o p q r g h h h h h h h s t u v w x             ",
"y y b z   m ; A B C D h h h h h h h h h h h E F G H           I ",
". .       m ; A B C J g h h h h h h h h h g K F L H           y ",
"M N         O P B Q R S g h h h h h h g T U V F G W           X ",
"          I . Y B Z j `  ...............+.Z Z @.#.$.            ",
"        %.&.*.=.B Z Z -.-.-.C C -.C C -.j Z Z ;.>.,.            ",
"        . '.).!.~.{.].Z Z Z ^./.(._.Z Z Z :.<.[.}.|.1.          ",
"    &.&.2.3.4.5.6.7.8.9.9.0.a.b.c.d.e.f.9.g.h.i.j.k.l.          ",
"    . . & m.4.n.o.p.q.r.s.t.L L u.L L v.r.w.x.y.z.A.B.          ",
"    C.D.E.F.G.H.I.J.K.r.L.M.N.O.O.P.Q.R.r.S.T.U.V.W.X.          ",
"  I & & . | ; Y.Z.`. +.+L.r.r.r.r.r.r.r.++@+#+$+%+&+            ",
"*+*+=+-+;+>+,+,+'+)+G !+~+w.w.~+w.w.~+w.{+G d d G &+          ]+",
"& & . .         ^+/+(+_+:+:+<+<+:+:+<+:+[+(+}+|+1+2+3+        4+",
"5+5+) >+        6+7+8+9+0+a+b+b+b+b+c+d+e+f+g+h+z.i+j+        k+",
"                l+m+n+9+o+p+w.w.w.w.q+r+s+f+t+u+v+w+x+          ",
"              y+z+A+B+C+D+E+F+G+H+I+J+K+L+~+M+N+O+P+Q+R+R+S+    ",
"              T+U+V+W+X+Y+Z+`+ @.@+@@@#@$@%@&@*@=@-@. . . b     ",
";@;@;@;@;@;@;@>@,@'@)@L 4.!@~@{@~@{@]@^@/@~+(@_@;@:@<@<@<@[@;@}@",
"    . . & |@. 1@2@3@4@5@L 6@7@8@9@0@a@b@c@d@e@f@. g@            ",
"    C.D.E.=+h@i@j@k@l@m@n@o@p@q@q@p@q@r@s@t@u@v@' w@            ",
"  I & & . | ; ; x@w.~+y@z@A@B@C@D@E@F@G@H@w.I@g@                ",
"*+*+=+-+;+>+,+,+J@K@K@L@M@N@O@P@Q@R@S@T@U@V@I@g@              ]+",
"& & . .               W@X@X@Y@Z@`@ #.#+#e+V@I@g@              4+",
"5+5+) >+                    @###r+0+o+$#%#&#*#w@              k+",
"                            =#@#-#;#>#>#,#'#)#                  ",
"                              I !#~#{#{#]#^#      /#R+R+R+S+    ",
"                              (#. . . _#          , . . . b     ",
";@;@;@;@;@;@;@;@;@;@;@;@;@;@;@:#<@<@<@<#;@;@;@;@;@:@<@<@<@[@;@}@"};
