/* XPM */
static char * playerleft3_xpm[] = {
"32 32 405 2",
"  	c #A8D7DE",
". 	c #AAD8DE",
"+ 	c #CFE7E7",
"@ 	c #CDE6E6",
"# 	c #ADD9DF",
"$ 	c #CAE5E6",
"% 	c #ABD8DF",
"& 	c #CCE6E6",
"* 	c #ACD9DF",
"= 	c #D4E9E9",
"- 	c #F8F8F8",
"; 	c #F0F4F5",
"> 	c #A9D7DE",
", 	c #CEE7E7",
"' 	c #9AAEB4",
") 	c #907272",
"! 	c #917273",
"~ 	c #9A7878",
"{ 	c #977777",
"] 	c #886C6E",
"^ 	c #876C6E",
"/ 	c #876C6F",
"( 	c #96ADB3",
"_ 	c #D0E7E7",
": 	c #D5E9E9",
"< 	c #F7F8F8",
"[ 	c #EFF4F5",
"} 	c #CDE6E7",
"| 	c #A1C5CC",
"1 	c #9DB2B7",
"2 	c #B6BEBD",
"3 	c #B89A96",
"4 	c #B75C4D",
"5 	c #B75B4D",
"6 	c #B75C4E",
"7 	c #9A4543",
"8 	c #998A8D",
"9 	c #9AB1B6",
"0 	c #D4CBCB",
"a 	c #E2E2E2",
"b 	c #CBE5E6",
"c 	c #A7D6DE",
"d 	c #A7D7DE",
"e 	c #95A5AA",
"f 	c #7F4645",
"g 	c #804644",
"h 	c #C65F4E",
"i 	c #F67253",
"j 	c #F77253",
"k 	c #F67255",
"l 	c #BE433E",
"m 	c #A34443",
"n 	c #804645",
"o 	c #C3BBBB",
"p 	c #C9E4E5",
"q 	c #80C7D5",
"r 	c #81C7D5",
"s 	c #7E6C71",
"t 	c #C6BDBC",
"u 	c #EEEBEB",
"v 	c #F0BAB2",
"w 	c #F77252",
"x 	c #EF6C50",
"y 	c #D65A49",
"z 	c #B54340",
"A 	c #876263",
"B 	c #7E6B71",
"C 	c #86C9D6",
"D 	c #87C9D6",
"E 	c #7F4646",
"F 	c #BA9E9D",
"G 	c #E3D0CF",
"H 	c #FEFEFE",
"I 	c #F8C8C1",
"J 	c #F67254",
"K 	c #E4634D",
"L 	c #D25547",
"M 	c #BD4341",
"N 	c #994543",
"O 	c #8D4545",
"P 	c #7E4646",
"Q 	c #7E4648",
"R 	c #A14443",
"S 	c #BB413E",
"T 	c #FEFEFC",
"U 	c #F8C7C0",
"V 	c #F77153",
"W 	c #BE423F",
"X 	c #BE4241",
"Y 	c #BE4240",
"Z 	c #7EC6D4",
"` 	c #7FC6D4",
" .	c #8ACAD7",
"..	c #77A5B9",
"+.	c #707996",
"@.	c #4C3E71",
"#.	c #8E7F9F",
"$.	c #B5A6C0",
"%.	c #C5C5DA",
"&.	c #C798A5",
"*.	c #C94E46",
"=.	c #CA4E46",
"-.	c #CA4E45",
";.	c #C94E45",
">.	c #A34442",
",.	c #5CB7CD",
"'.	c #66BACE",
").	c #AEC1C9",
"!.	c #ABB5C0",
"~.	c #A7A6B6",
"{.	c #A6A6B6",
"].	c #BDBECF",
"^.	c #D3D3E3",
"/.	c #C8ADBA",
"(.	c #BE7885",
"_.	c #BE433F",
":.	c #AC4241",
"<.	c #8E3E3D",
"[.	c #64393A",
"}.	c #5DB7CD",
"|.	c #70BDD0",
"1.	c #78BFD1",
"2.	c #3E3C79",
"3.	c #BFBFC9",
"4.	c #FFFFFE",
"5.	c #DDDDE9",
"6.	c #B8B4D1",
"7.	c #BB4241",
"8.	c #824545",
"9.	c #5A3330",
"0.	c #000104",
"a.	c #64B9CE",
"b.	c #D1E8E8",
"c.	c #E3E3E6",
"d.	c #BBBBC6",
"e.	c #84839D",
"f.	c #83839D",
"g.	c #84839E",
"h.	c #747497",
"i.	c #666290",
"j.	c #8B4647",
"k.	c #8C4645",
"l.	c #8D4645",
"m.	c #713738",
"n.	c #4B2123",
"o.	c #351F20",
"p.	c #221514",
"q.	c #000102",
"r.	c #74BED1",
"s.	c #7AC0D2",
"t.	c #D7EAEA",
"u.	c #F3F6F6",
"v.	c #CCCFD6",
"w.	c #8090A5",
"x.	c #573F6A",
"y.	c #816C87",
"z.	c #9D8A9E",
"A.	c #766A84",
"B.	c #33315F",
"C.	c #B58C86",
"D.	c #AD7C71",
"E.	c #A26A5B",
"F.	c #683A3A",
"G.	c #49292A",
"H.	c #010100",
"I.	c #000000",
"J.	c #010101",
"K.	c #000103",
"L.	c #F6F7F7",
"M.	c #CAE4E6",
"N.	c #5BB7CD",
"O.	c #7E4647",
"P.	c #CBA399",
"Q.	c #FCD7C7",
"R.	c #B89E91",
"S.	c #FCD6C8",
"T.	c #EABAA4",
"U.	c #D69576",
"V.	c #010102",
"W.	c #010001",
"X.	c #000001",
"Y.	c #020203",
"Z.	c #D6EAEA",
"`.	c #F2F6F6",
" +	c #F0F5F5",
".+	c #C3E0E3",
"++	c #BFDEE2",
"@+	c #C99A80",
"#+	c #FAC9A0",
"$+	c #FAC9A1",
"%+	c #B69478",
"&+	c #F9CAA3",
"*+	c #EAB18D",
"=+	c #D69678",
"-+	c #A38469",
";+	c #E2B38D",
">+	c #C0876C",
",+	c #8A6350",
"'+	c #010000",
")+	c #54848D",
"!+	c #74B4C1",
"~+	c #F7F7F7",
"{+	c #757783",
"]+	c #B59487",
"^+	c #DEAB88",
"/+	c #F1B98E",
"(+	c #C09275",
"_+	c #765649",
":+	c #F1B990",
"<+	c #E5A883",
"[+	c #D79576",
"}+	c #785746",
"|+	c #C69C79",
"1+	c #FBC698",
"2+	c #D69574",
"3+	c #A6755E",
"4+	c #584039",
"5+	c #5D929C",
"6+	c #AFDADF",
"7+	c #F2F5F5",
"8+	c #C1E0E3",
"9+	c #BEDEE2",
"0+	c #6F8D9D",
"a+	c #7F4644",
"b+	c #D89577",
"c+	c #D89575",
"d+	c #D79575",
"e+	c #E9B087",
"f+	c #FAC698",
"g+	c #D79474",
"h+	c #C1836A",
"i+	c #A66F5E",
"j+	c #5D919C",
"k+	c #AED9DF",
"l+	c #CCE5E6",
"m+	c #5FB0C5",
"n+	c #65A8BC",
"o+	c #955D53",
"p+	c #965D54",
"q+	c #965C53",
"r+	c #DB9B7A",
"s+	c #DEA07F",
"t+	c #60473B",
"u+	c #573F35",
"v+	c #4A342E",
"w+	c #7BBECB",
"x+	c #C0DFE2",
"y+	c #75737E",
"z+	c #7B6067",
"A+	c #804545",
"B+	c #C4856D",
"C+	c #C99282",
"D+	c #CE9E95",
"E+	c #C39180",
"F+	c #B7836A",
"G+	c #60542E",
"H+	c #776939",
"I+	c #887A45",
"J+	c #70ADBA",
"K+	c #79BBC8",
"L+	c #708F9D",
"M+	c #9E8BA0",
"N+	c #B5B5D2",
"O+	c #B5B4D2",
"P+	c #858499",
"Q+	c #B89B4A",
"R+	c #DDC05A",
"S+	c #FBDE6B",
"T+	c #64BACF",
"U+	c #65BACF",
"V+	c #746E78",
"W+	c #948D9E",
"X+	c #B0A4BE",
"Y+	c #7F4545",
"Z+	c #875960",
"`+	c #8D6876",
" @	c #B6B5D2",
".@	c #85849A",
"+@	c #B79B4A",
"@@	c #DCC05A",
"#@	c #FBDD69",
"$@	c #E1C867",
"%@	c #A79F69",
"&@	c #46646A",
"*@	c #97CFD9",
"=@	c #79BCC9",
"-@	c #72B0BD",
";@	c #804647",
">@	c #997D8E",
",@	c #ADA2B9",
"'@	c #A77663",
")@	c #A97662",
"!@	c #AEA1B9",
"~@	c #8B788A",
"{@	c #592322",
"]@	c #9F8947",
"^@	c #CAAC5A",
"/@	c #EBC868",
"(@	c #AB9350",
"_@	c #010103",
":@	c #000002",
"<@	c #FAC699",
"[@	c #FBC598",
"}@	c #FBC699",
"|@	c #7F4543",
"1@	c #BC4342",
"2@	c #765044",
"3@	c #A86D5E",
"4@	c #784F45",
"5@	c #C4E2E4",
"6@	c #3D6269",
"7@	c #585357",
"8@	c #6E4040",
"9@	c #523D6C",
"0@	c #47314F",
"a@	c #391E1E",
"b@	c #DFA17F",
"c@	c #DFA17E",
"d@	c #381E1E",
"e@	c #472121",
"f@	c #55211F",
"g@	c #816A3A",
"h@	c #B5934E",
"i@	c #B5924E",
"j@	c #816A3B",
"k@	c #010002",
"l@	c #8BCBD7",
"m@	c #5B3232",
"n@	c #7F4649",
"o@	c #3F3B76",
"p@	c #2F2E5D",
"q@	c #191835",
"r@	c #BC866E",
"s@	c #BD866D",
"t@	c #191933",
"u@	c #1B1A36",
"v@	c #1C1A34",
"w@	c #756434",
"x@	c #A28A46",
"y@	c #ACD8DF",
"z@	c #5A3331",
"A@	c #3E3C76",
"B@	c #3D3C79",
"C@	c #3D3C77",
"D@	c #3D3C78",
"E@	c #3E3C78",
"F@	c #020101",
"G@	c #B7DCE2",
"H@	c #96BFC6",
"I@	c #799094",
"J@	c #3B2122",
"K@	c #724454",
"L@	c #5A4168",
"M@	c #3D3D76",
"N@	c #1D1B37",
"O@	c #312F5D",
"P@	c #373466",
"Q@	c #373566",
"R@	c #383464",
"S@	c #A03E3D",
"T@	c #752C2B",
"U@	c #020103",
"V@	c #B4DBE1",
"W@	c #A5B9B9",
"X@	c #657171",
"Y@	c #704040",
"Z@	c #573B57",
"`@	c #383767",
" #	c #51696D",
".#	c #47566C",
"+#	c #373667",
"@#	c #653D6C",
"##	c #5C3E6C",
"$#	c #A43F3E",
"%#	c #815759",
"&#	c #50686C",
"*#	c #B3DBE0",
"=#	c #B5DCE1",
"-#	c #010104",
";#	c #020204",
">#	c #A9D8DE",
",#	c #82A0A4",
"'#	c #BC4441",
")#	c #7F4647",
"!#	c #7A9DA3",
"~#	c #B2DBE0",
"{#	c #93BCC2",
"]#	c #93BCC3",
"^#	c #C3D9D9",
"/#	c #B5CBCB",
"(#	c #5E2424",
"_#	c #502325",
":#	c #3F2425",
"<#	c #93BDC3",
"[#	c #9ECAD1",
"}#	c #9EC4CD",
"|#	c #A0C5CE",
"1#	c #BDD1D4",
"2#	c #BBD0D4",
"3#	c #A2C5CE",
"4#	c #586365",
"5#	c #4B5E63",
"6#	c #495D62",
"7#	c #B9CFD3",
"8#	c #9DC3CC",
"      . + + + @           # + + + $           # + + + $         ",
"      % + + + &           # + + + $           # + + + $         ",
"  . + + + @           * + = - ;             + = - ;             ",
"> % + + , &         > ' ) ! ~ { ] ^ ^ / (   _ : < [             ",
"+ + + }         | 1 2 3 4 5 4 4 5 4 6 7 8 9 0 a + b             ",
"+ + @ b c c c d e f g h i j j j j j k l m g n o @ p             ",
"+ @ q r r r r s t u u v w j j j j w j x y z g A B C             ",
"b p r r r r D E F G H I j j j j j w J K L M N O P C             ",
"q r r r r D + Q R S T U V j j j j j J W X Y Y m P C             ",
"Z Z Z `  ...+.@.#.$.%.&.*.=.-.-.=.;.=.W Y Y X >.P C             ",
",.,.,.'.).!.~.{.].^.^./.(._.Y Y Y Y W Y Y Y :.<.[.C             ",
",.}.|.1.2.3.4.4.4.4.4.5.6.7.Y Y Y Y Y Y Y M 8.9.0.C             ",
",.a.+ b.c.d.e.f.g.e.e.h.i.j.k.O l.l.l.l.m.n.o.p.q.C             ",
"r.s.: t.u.v.w.x.y.z.z.A.B.C.D.E.F.F.F.F.G.H.I.J.K.C             ",
"+ b.- L.+ M.N.O.P.Q.Q.R.I.S.T.U.I.V.W.X.J.I.I.V.Y.C             ",
"Z.t.`. +.+++,.Q @+#+$+%+I.&+*+=+I.-+;+>+,+W.'+)+!+C           > ",
"- ~++ b N.,.,.{+]+^+/+(+_+:+<+[+}+|+1+2+3+4+I.5+r C           6+",
"7+; 8+9+N.,.,.,.0+a+b+c+d+c+d+d+[+e+f+g+h+i+I.j+r C           k+",
"+ l+N.,.,.,.,.,.m+n+o+p+q+[+d+d+d+r+s+t+u+v+!+w+r C             ",
"x+9+N.,.,.,.,.,.,.,.y+z+A+B+C+D+D+E+F+G+H+I+J+K+r C             ",
"N.,.,.,.,.,.,.,.,.,.,.L+E f M+N+O+P+I.Q+R+S+I.j+r C             ",
"T+U+U+U+U+U+U+U+U+U+V+W+X+Y+Z+`+ @.@I.+@@@#@$@%@&@*@            ",
"r r r r r r r r =@-@;@>@,@'@)@'@!@~@{@]@^@/@/@(@_@b             ",
"r r r r r r r r j+:@O.g A+<@[@}@|@m 1@X.2@3@3@4@_@5@            ",
"r r r r r r r 6@7@8@9@0@a@b@c@b@d@e@f@W.g@h@i@j@k@              ",
"l@l@l@l@l@l@l@W.m@n@o@p@q@r@s@r@t@u@v@X.w@x@x@w@J.            y@",
"              _@z@n@A@B@C@I.I.I.D@C@E@I.I.W.V.F@_@            G@",
"              H@I@J@K@L@M@X.X.I.N@O@2.P@Q@R@S@T@U@            V@",
"              % W@X@Y@Z@`@ # # # #.#+#@###9@$#%#&#              ",
"          > *#=#+ , -#J.;#    >#*#,#I.'#>.)#X.!#  >#*#*#*#~#    ",
"          % + + + & {#{#]#    # + ^#/#(#_#:#<#[#  # + + + $     ",
"}#}#}#}#}#|#1#1#1#2#}#}#}#}#}#3#1#1#1#4#5#6#}#}#}#3#1#1#1#7#}#8#"};
