/* XPM */
static char * playerup2_xpm[] = {
"32 32 449 2",
"  	c #A8D7DE",
". 	c #AAD8DE",
"+ 	c #CFE7E7",
"@ 	c #CDE6E6",
"# 	c #ADD9DF",
"$ 	c #CAE5E6",
"% 	c #A5D2D9",
"& 	c #7C4C4D",
"* 	c #7D4B4D",
"= 	c #7C4D4E",
"- 	c #7E4D4F",
"; 	c #7D4D4F",
"> 	c #7D4C4D",
", 	c #774F54",
"' 	c #9DC0C7",
") 	c #98AAAF",
"! 	c #9D4444",
"~ 	c #B35248",
"{ 	c #BE5B4C",
"] 	c #BF5B4B",
"^ 	c #AD4F46",
"/ 	c #9B4647",
"( 	c #B4BBBB",
"_ 	c #C5D6D6",
": 	c #F8F8F8",
"< 	c #F0F4F5",
"[ 	c #8D999D",
"} 	c #874544",
"| 	c #BD4341",
"1 	c #E2624D",
"2 	c #F77252",
"3 	c #F77253",
"4 	c #D95C49",
"5 	c #BA4441",
"6 	c #824544",
"7 	c #B2B6B7",
"8 	c #F7F8F8",
"9 	c #EFF4F5",
"0 	c #A3D0D7",
"a 	c #7F585A",
"b 	c #A44C4C",
"c 	c #C04642",
"d 	c #F46F53",
"e 	c #F57152",
"f 	c #F57153",
"g 	c #F36F55",
"h 	c #BB4340",
"i 	c #A15253",
"j 	c #7E5D60",
"k 	c #CBE5E6",
"l 	c #A3CFD7",
"m 	c #7E4747",
"n 	c #A74443",
"o 	c #C04540",
"p 	c #EE6C51",
"q 	c #F6A091",
"r 	c #F7BBB0",
"s 	c #F7BBB1",
"t 	c #F49685",
"u 	c #EC6950",
"v 	c #E1634E",
"w 	c #BE423F",
"x 	c #A04442",
"y 	c #7A484C",
"z 	c #C9E4E5",
"A 	c #7E4748",
"B 	c #BD4241",
"C 	c #BE4340",
"D 	c #E1624D",
"E 	c #F8D1C9",
"F 	c #FEFEFD",
"G 	c #FEFEFE",
"H 	c #F4BEB4",
"I 	c #BE4240",
"J 	c #A04443",
"K 	c #86C9D6",
"L 	c #A4CFD6",
"M 	c #271719",
"N 	c #6C3939",
"O 	c #8E4545",
"P 	c #C34743",
"Q 	c #C25250",
"R 	c #C0ADC6",
"S 	c #C18D99",
"T 	c #C5706F",
"U 	c #C5706E",
"V 	c #C495A4",
"W 	c #C3ABC3",
"X 	c #C34B46",
"Y 	c #C14640",
"Z 	c #BB4442",
"` 	c #8A4545",
" .	c #613334",
"..	c #26181C",
"+.	c #A9D7DE",
"@.	c #C6DEDE",
"#.	c #000102",
"$.	c #4B2B2C",
"%.	c #6C3736",
"&.	c #A94342",
"*.	c #BF787E",
"=.	c #C8959E",
"-.	c #D6D5E3",
";.	c #D6BDC5",
">.	c #D9ACAB",
",.	c #D8C3CB",
"'.	c #D8D4E1",
").	c #C8929B",
"!.	c #BA6E73",
"~.	c #A64444",
"{.	c #673635",
"].	c #432526",
"^.	c #010206",
"/.	c #ACD8DF",
"(.	c #ACD9DF",
"_.	c #010102",
":.	c #010101",
"<.	c #1D0F10",
"[.	c #7F4646",
"}.	c #BAADB7",
"|.	c #D8D7E5",
"1.	c #FDFEFD",
"2.	c #FDFFFE",
"3.	c #D6D5E5",
"4.	c #AE9AA4",
"5.	c #7D4748",
"6.	c #000001",
"7.	c #010001",
"8.	c #010205",
"9.	c #ABB1B2",
"0.	c #9B807C",
"a.	c #E5B58B",
"b.	c #957860",
"c.	c #3E3835",
"d.	c #EBC7B9",
"e.	c #AE9AA6",
"f.	c #6F6E97",
"g.	c #807F9C",
"h.	c #817E9B",
"i.	c #7F7F9B",
"j.	c #6E6D98",
"k.	c #BFA7AE",
"l.	c #EAC7BA",
"m.	c #000000",
"n.	c #AB896C",
"o.	c #E5B58E",
"p.	c #7F6D72",
"q.	c #96B0B6",
"r.	c #A2A2A3",
"s.	c #915B53",
"t.	c #FAC697",
"u.	c #B38C6F",
"v.	c #765850",
"w.	c #FBD7C8",
"x.	c #CCAFB2",
"y.	c #9E8C9C",
"z.	c #313063",
"A.	c #827389",
"B.	c #A38E9E",
"C.	c #726681",
"D.	c #343263",
"E.	c #A48E9F",
"F.	c #D9BBBB",
"G.	c #FAD7C7",
"H.	c #64433A",
"I.	c #C59C7C",
"J.	c #FAC699",
"K.	c #7F4542",
"L.	c #92A6AC",
"M.	c #A1A2A3",
"N.	c #915B51",
"O.	c #F9C698",
"P.	c #CE997B",
"Q.	c #AE7868",
"R.	c #FCD7C7",
"S.	c #F5D3C5",
"T.	c #C5AA9F",
"U.	c #FCD6C8",
"V.	c #AC9288",
"W.	c #1B1615",
"X.	c #FCD7C8",
"Y.	c #FCD7C6",
"Z.	c #FCD6C6",
"`.	c #A66D5C",
" +	c #D9A481",
".+	c #FBC59A",
"++	c #7F4443",
"@+	c #C2DADB",
"#+	c #81B2BE",
"$+	c #A07060",
"%+	c #BE836C",
"&+	c #D09073",
"*+	c #DFA489",
"=+	c #F0BB99",
"-+	c #F3C6A2",
";+	c #020002",
">+	c #C2A084",
",+	c #FAC9A1",
"'+	c #FAC9A2",
")+	c #A88971",
"!+	c #1B1512",
"~+	c #F9CAA4",
"{+	c #ECB695",
"]+	c #CF8E72",
"^+	c #B97F6A",
"/+	c #9F7062",
"(+	c #82B9C5",
"_+	c #A3CFD6",
":+	c #A7D7DE",
"<+	c #80C0CD",
"[+	c #804645",
"}+	c #AB705F",
"|+	c #C5846C",
"1+	c #D79574",
"2+	c #E7AB85",
"3+	c #EBB790",
"4+	c #795444",
"5+	c #CEA481",
"6+	c #FAC698",
"7+	c #BA9373",
"8+	c #7A5746",
"9+	c #EFBA90",
"0+	c #E2A780",
"a+	c #D79475",
"b+	c #C3846B",
"c+	c #A3817B",
"d+	c #7B7F89",
"e+	c #AFDADF",
"f+	c #C9E5E6",
"g+	c #81C0CD",
"h+	c #7F4745",
"i+	c #7F4645",
"j+	c #884E4A",
"k+	c #D89576",
"l+	c #D79576",
"m+	c #EDB38A",
"n+	c #FAC598",
"o+	c #E8AC85",
"p+	c #D89574",
"q+	c #D89476",
"r+	c #D79575",
"s+	c #D79578",
"t+	c #804545",
"u+	c #7C9DA9",
"v+	c #81C7D5",
"w+	c #91A8AE",
"x+	c #877479",
"y+	c #C9896F",
"z+	c #8E6570",
"A+	c #523F69",
"B+	c #654739",
"C+	c #85564A",
"D+	c #9C6053",
"E+	c #DC9C79",
"F+	c #DFA07D",
"G+	c #DB9A78",
"H+	c #D69477",
"I+	c #975D51",
"J+	c #7E5245",
"K+	c #65473A",
"L+	c #3A1E1C",
"M+	c #6698A3",
"N+	c #C9E4E6",
"O+	c #8D989D",
"P+	c #8A514B",
"Q+	c #936B77",
"R+	c #3B3B71",
"S+	c #000002",
"T+	c #6F3637",
"U+	c #934946",
"V+	c #BD856B",
"W+	c #BD856A",
"X+	c #BE856A",
"Y+	c #BD846D",
"Z+	c #914544",
"`+	c #602E2E",
" @	c #020103",
".@	c #1C1A37",
"+@	c #6298A5",
"@@	c #AED9DF",
"#@	c #8E989D",
"$@	c #8B514B",
"%@	c #3B3A72",
"&@	c #903735",
"*@	c #B54442",
"=@	c #040101",
"-@	c #010000",
";@	c #140405",
">@	c #BB4342",
",@	c #7E2E2D",
"'@	c #010107",
")@	c #3E3C76",
"!@	c #679BB2",
"~@	c #B0DAE0",
"{@	c #AACDD3",
"]@	c #C3CBCB",
"^@	c #9A6054",
"/@	c #6C4D6A",
"(@	c #3C3A72",
"_@	c #913634",
":@	c #BB4341",
"<@	c #A53B39",
"[@	c #A58092",
"}@	c #A1A0B9",
"|@	c #A1A0BA",
"1@	c #A27381",
"2@	c #A63C39",
"3@	c #030409",
"4@	c #7092B4",
"5@	c #5C7C91",
"6@	c #40666E",
"7@	c #D0E7E7",
"8@	c #F1F1F1",
"9@	c #9E8788",
"0@	c #675D73",
"a@	c #363364",
"b@	c #905258",
"c@	c #BD656F",
"d@	c #CB4E46",
"e@	c #C599A9",
"f@	c #BDBBD6",
"g@	c #BDBCD7",
"h@	c #C28A98",
"i@	c #CB4F47",
"j@	c #B24441",
"k@	c #92554B",
"l@	c #79604B",
"m@	c #9FABB9",
"n@	c #767A81",
"o@	c #381F23",
"p@	c #6F8F94",
"q@	c #000103",
"r@	c #8F8FA4",
"s@	c #BDB0CA",
"t@	c #F57355",
"u@	c #E7B3B6",
"v@	c #E6A5A3",
"w@	c #F37355",
"x@	c #824545",
"y@	c #CF9E7F",
"z@	c #C59378",
"A@	c #7E4648",
"B@	c #9AC5CC",
"C@	c #8BB3BA",
"D@	c #343165",
"E@	c #605E87",
"F@	c #7C769A",
"G@	c #DFBEC7",
"H@	c #DBCCD8",
"I@	c #D5D5E5",
"J@	c #DBC8D3",
"K@	c #DFBDC5",
"L@	c #BF866D",
"M@	c #E3A580",
"N@	c #E3A581",
"O@	c #B67E67",
"P@	c #7A494B",
"Q@	c #A3D1D9",
"R@	c #36366C",
"S@	c #474E7E",
"T@	c #596290",
"U@	c #C4C1D7",
"V@	c #C3C3D5",
"W@	c #C3C3D6",
"X@	c #C5C0D3",
"Y@	c #734451",
"Z@	c #A56F61",
"`@	c #C2876B",
" #	c #C2876A",
".#	c #AB8377",
"+#	c #9E8588",
"@#	c #A3D1D7",
"##	c #638096",
"$#	c #789FC2",
"%#	c #3D3C78",
"&#	c #3D3B78",
"*#	c #3E3B79",
"=#	c #28274E",
"-#	c #A1B1B1",
";#	c #A4D2D7",
">#	c #635964",
",#	c #7D7383",
"'#	c #6988AB",
")#	c #6889AF",
"!#	c #6887AC",
"~#	c #3C3C78",
"{#	c #312F5D",
"]#	c #242246",
"^#	c #232247",
"/#	c #859498",
"(#	c #AEBFBF",
"_#	c #CBCBCC",
":#	c #E1E3E3",
"<#	c #A6D2D8",
"[#	c #613738",
"}#	c #7D4C50",
"|#	c #8597B3",
"1#	c #7C98B5",
"2#	c #7896B5",
"3#	c #37376C",
"4#	c #435267",
"5#	c #4B6164",
"6#	c #4C6164",
"7#	c #ABBEBE",
"8#	c #D5E9E9",
"9#	c #F7F7F7",
"0#	c #F2F6F6",
"a#	c #C9E0E0",
"b#	c #010103",
"c#	c #613837",
"d#	c #864444",
"e#	c #BD4340",
"f#	c #9F4442",
"g#	c #7D4646",
"h#	c #020101",
"i#	c #6A9DA7",
"j#	c #D3E9E9",
"k#	c #F5F6F6",
"l#	c #C8E4E5",
"m#	c #ABD8DF",
"n#	c #CCE4E4",
"o#	c #A2B8B9",
"p#	c #787E7E",
"q#	c #542B2B",
"r#	c #752C2A",
"s#	c #622B2C",
"t#	c #4E3436",
"u#	c #6BA1AB",
"v#	c #83BCC6",
"w#	c #D2E8E8",
"x#	c #F6F7F7",
"y#	c #F2F5F5",
"z#	c #C5E2E4",
"A#	c #80C7D5",
"B#	c #5B8E98",
"C#	c #2C484E",
"D#	c #335056",
"E#	c #F5F7F7",
"F#	c #7EC6D4",
"G#	c #7FC6D4",
"H#	c #8ACAD7",
"I#	c #90CCD8",
"J#	c #D6EAEA",
"K#	c #C8E3E5",
"L#	c #C3E1E3",
"M#	c #CEE6E7",
"N#	c #5CB7CD",
"O#	c #66BACE",
"P#	c #60B9CE",
"                          . + + + @           # + + + $         ",
"                  % & & * & = - - ; & & > ,   # + + + $         ",
"                ' ) ! ~ { ] ] ] ] ] ] ] ^ / ( _ : <             ",
"                [ } | 1 2 3 3 3 3 3 3 2 4 5 6 7 8 9             ",
"            0 a b c d e 3 3 3 3 3 3 3 3 f g h i j k             ",
"            l m n o 1 p 3 3 q r s t 3 2 u v w x y z             ",
"            l A n B C D 3 3 E F G H 3 2 4 C I J y K             ",
"            L M N O B P Q R S T U V W X Y Z `  ...K             ",
"          +.@.#.$.%.&.*.=.-.;.>.>.,.'.).!.~.{.].^.K             ",
"        /.(.@._.:.<.[.}.|.1.F 2.F 1.G 3.4.5.6.7.8.K             ",
"        + 9.0.a.b.c.d.e.f.g.h.i.i.i.g.j.k.l.m.n.o.p.q.          ",
"    # # + r.s.t.u.v.w.x.y.z.A.B.B.C.D.E.F.G.H.I.J.K.L.          ",
"    + + + M.N.O.P.Q.R.R.S.7.T.U.R.V.W.X.Y.Z.`. +.+++L.          ",
"    + + $ @+#+$+%+&+*+=+-+;+>+,+'+)+!+~+{+*+]+^+/+(+_+          ",
"    + +   :+<+[+}+|+1+2+3+4+5+t.6+7+8+9+0+a+b+c+d+K             ",
"e+e+$ f+  :+g+h+i+j+a+k+l+1+m+n+n+o+p+q+r+s+t+u+v+K           +.",
"+ +       w+x+y+z+A+B+C+D+l+E+F+F+G+H+I+J+K+L+M+v+K           e+",
"N+z       O+P+l+Q+R+S+T+U+V+W+X+X+W+Y+Z+`+ @.@+@v+K           @@",
"          #@$@r+Q+%@S+&@*@=@7.-@m.7.;@>@,@'@)@!@v+K             ",
"        ~@{@]@^@/@(@S+_@:@<@[@}@|@1@2@| ,@3@4@5@6@K             ",
"        + 7@8@9@0@a@S+b@c@d@e@f@g@h@i@j@k@l@m@n@o@K             ",
"                p@q@m.r@s@t@u@3.3.v@w@x@y@6+t.z@A@+ + $         ",
"                B@C@D@E@F@G@H@I@I@J@K@[.L@M@N@O@P@+ + $         ",
"                  Q@R@S@T@U@V@W@W@W@X@Y@Z@`@ #.#+#<             ",
"                  @#_.##$#%#&#&#%#%#%#*#=#7.6.-#8 9             ",
"                  ;##.>#,#'#)#!#~#{#]#^#/#(#_#:#+ k             ",
"                . <#q@[#}#|#1#2#3#4#5#6#7#8#9#0#@ z             ",
"              +.+ a#b#c#d#e#f#g#h#i#+ j#: k#+ l#v+K             ",
"            m#/.+ n#o#p#q#r#s#t#u#v#w#8#x#y#k z#v+K             ",
"          +.+ + + @ A#B#C#C#C#D#+ w#: E#+ z v+v+v+K             ",
"        /.(.+ + $ l#F#F#F#G#H#I#j#J#E#y#K#L#v+v+v+K             ",
"        + + + M#A#A#N#N#N#O#+ w#: E#+ K#N#P#v+v+v+K             "};
