/* XPM */
static char * playerup3_xpm[] = {
"32 32 451 2",
"  	c #A8D7DE",
". 	c #AAD8DE",
"+ 	c #CFE7E7",
"@ 	c #CDE6E6",
"# 	c #ADD9DF",
"$ 	c #CAE5E6",
"% 	c #897F83",
"& 	c #856C6F",
"* 	c #836D71",
"= 	c #8B7274",
"- 	c #A5CFD5",
"; 	c #A1C9D0",
"> 	c #99B1B6",
", 	c #985A5B",
"' 	c #A64F48",
") 	c #B75B4E",
"! 	c #B75B4D",
"~ 	c #B75C4D",
"{ 	c #AD5449",
"] 	c #994543",
"^ 	c #B2B5B5",
"/ 	c #C2D2D2",
"( 	c #F8F8F8",
"_ 	c #F0F4F5",
": 	c #98B0B6",
"< 	c #814544",
"[ 	c #B84341",
"} 	c #D65949",
"| 	c #F77253",
"1 	c #E2624D",
"2 	c #BD4341",
"3 	c #884545",
"4 	c #A8A3A3",
"5 	c #F7F8F8",
"6 	c #EFF4F5",
"7 	c #898286",
"8 	c #9A6365",
"9 	c #B64240",
"0 	c #E8684F",
"a 	c #F26E52",
"b 	c #F67252",
"c 	c #F36F52",
"d 	c #EE6B51",
"e 	c #BD4844",
"f 	c #AA6160",
"g 	c #8F7879",
"h 	c #C5DCDD",
"i 	c #846668",
"j 	c #9C4544",
"k 	c #BE423F",
"l 	c #E0604B",
"m 	c #EC694F",
"n 	c #F4917C",
"o 	c #F6B6A9",
"p 	c #F59E8D",
"q 	c #EF6C51",
"r 	c #E3634D",
"s 	c #C24841",
"t 	c #A84342",
"u 	c #804645",
"v 	c #C3D9DA",
"w 	c #9B4544",
"x 	c #BE4240",
"y 	c #BD4240",
"z 	c #D65A49",
"A 	c #F77252",
"B 	c #F5B9AE",
"C 	c #FDFEFE",
"D 	c #FEFEFD",
"E 	c #F6D3CC",
"F 	c #BE4241",
"G 	c #A94342",
"H 	c #85C0CC",
"I 	c #ABD8DF",
"J 	c #4D5558",
"K 	c #613334",
"L 	c #8B4645",
"M 	c #C34742",
"N 	c #C94E46",
"O 	c #C2A2B6",
"P 	c #C499A9",
"Q 	c #C97F7D",
"R 	c #C6919A",
"S 	c #C0AAC1",
"T 	c #C95D5C",
"U 	c #C54A43",
"V 	c #BD4340",
"W 	c #924645",
"X 	c #713A3A",
"Y 	c #311F20",
"Z 	c #7FBFCB",
"` 	c #A9D7DE",
" .	c #4B5556",
"..	c #3E2324",
"+.	c #673838",
"@.	c #A44242",
"#.	c #BA676A",
"$.	c #CB8B94",
"%.	c #D2CBD9",
"&.	c #D4C1CB",
"*.	c #D6A4A3",
"=.	c #D5A4A1",
"-.	c #D5B7BE",
";.	c #D4D2E1",
">.	c #CC959D",
",.	c #C0757B",
"'.	c #AB4441",
").	c #703A38",
"!.	c #4D2C2D",
"~.	c #010101",
"{.	c #7FBECB",
"].	c #ACD8DF",
"^.	c #ACD9DF",
"/.	c #010001",
"(.	c #764342",
"_.	c #AB959C",
":.	c #D5D5E5",
"<.	c #FAFAFB",
"[.	c #FEFEFE",
"}.	c #FDFFFE",
"|.	c #FEFFFF",
"1.	c #FEFFFD",
"2.	c #DADAE8",
"3.	c #BAAEBA",
"4.	c #7F4645",
"5.	c #271618",
"6.	c #9BB9BE",
"7.	c #87777B",
"8.	c #D9AE8C",
"9.	c #B19072",
"0.	c #020101",
"a.	c #DCBBAE",
"b.	c #C5A9AD",
"c.	c #717199",
"d.	c #82819D",
"e.	c #84839D",
"f.	c #83839D",
"g.	c #84839E",
"h.	c #737299",
"i.	c #AE99A9",
"j.	c #EAC5B7",
"k.	c #524946",
"l.	c #917760",
"m.	c #E1B48D",
"n.	c #9C8581",
"o.	c #ACB2B3",
"p.	c #97B0B6",
"q.	c #804546",
"r.	c #F0BC93",
"s.	c #CDA280",
"t.	c #5F423B",
"u.	c #EFCDBE",
"v.	c #DBBCBB",
"w.	c #9C8A9E",
"x.	c #48436C",
"y.	c #6C627F",
"z.	c #9D8A9D",
"A.	c #9D8A9E",
"B.	c #7F718B",
"C.	c #333162",
"D.	c #958498",
"E.	c #C9AEB3",
"F.	c #FBD7C7",
"G.	c #7D645D",
"H.	c #B18B70",
"I.	c #FBC598",
"J.	c #946055",
"K.	c #A3A2A2",
"L.	c #96B0B7",
"M.	c #7F4646",
"N.	c #F0BC92",
"O.	c #DEA984",
"P.	c #A76E5D",
"Q.	c #F5CDBE",
"R.	c #FCD7C7",
"S.	c #FCD7C8",
"T.	c #594F4B",
"U.	c #A58E86",
"V.	c #FCD6C7",
"W.	c #C7ABA0",
"X.	c #000100",
"Y.	c #EECCBE",
"Z.	c #FCD7C6",
"`.	c #B38070",
" +	c #CE997B",
".+	c #F9C698",
"++	c #956057",
"@+	c #90979B",
"#+	c #A4D0D7",
"$+	c #A0C5CB",
"%+	c #A27D75",
"&+	c #B67C69",
"*+	c #CF8E71",
"=+	c #DDA287",
"-+	c #EAB494",
";+	c #F9CAA2",
">+	c #574B41",
",+	c #A3866F",
"'+	c #FAC9A1",
")+	c #C6A185",
"!+	c #ECBF9B",
"~+	c #F0BB99",
"{+	c #DEA588",
"]+	c #D19174",
"^+	c #BF836D",
"/+	c #A26F61",
"(+	c #D8D6D7",
"_+	c #A1CDD4",
":+	c #919498",
"<+	c #A48681",
"[+	c #C2836C",
"}+	c #D59374",
"|+	c #E2A480",
"1+	c #F0B98E",
"2+	c #8B6857",
"3+	c #B79174",
"4+	c #FBC597",
"5+	c #FAC599",
"6+	c #D0A682",
"7+	c #785647",
"8+	c #E5B28A",
"9+	c #E7AB86",
"0+	c #D79575",
"a+	c #C4856D",
"b+	c #AC7060",
"c+	c #7F4546",
"d+	c #C5DADB",
"e+	c #9BB1B5",
"f+	c #804646",
"g+	c #D89575",
"h+	c #D79574",
"i+	c #E7AA83",
"j+	c #FAC697",
"k+	c #FAC598",
"l+	c #EDB48B",
"m+	c #8D544E",
"n+	c #C2D9DA",
"o+	c #A7B9B9",
"p+	c #371F20",
"q+	c #5D453C",
"r+	c #775246",
"s+	c #975D52",
"t+	c #D19074",
"u+	c #DA9979",
"v+	c #DEA07D",
"w+	c #DFA07D",
"x+	c #DC9B7A",
"y+	c #D79476",
"z+	c #9F6558",
"A+	c #82564B",
"B+	c #61483C",
"C+	c #514068",
"D+	c #8B6673",
"E+	c #CA8A6E",
"F+	c #887678",
"G+	c #92A8AE",
"H+	c #A6B9BB",
"I+	c #1F1E38",
"J+	c #06060C",
"K+	c #5B2D2D",
"L+	c #924543",
"M+	c #B47D68",
"N+	c #B88269",
"O+	c #B88268",
"P+	c #B78369",
"Q+	c #B8826B",
"R+	c #964F4A",
"S+	c #713737",
"T+	c #000001",
"U+	c #39396F",
"V+	c #926B7A",
"W+	c #8D534E",
"X+	c #8E989D",
"Y+	c #A9BCC5",
"Z+	c #3E3C78",
"`+	c #121122",
" @	c #762C2C",
".@	c #BD433F",
"+@	c #39181A",
"@@	c #010102",
"#@	c #020102",
"$@	c #B1403F",
"%@	c #923634",
"&@	c #39386F",
"*@	c #916B79",
"=@	c #8C544D",
"-@	c #90979C",
";@	c #778586",
">@	c #6B808F",
",@	c #7194B6",
"'@	c #2A323D",
")@	c #762C2B",
"!@	c #A93F3C",
"~@	c #A6727F",
"{@	c #A3A3BD",
"]@	c #A3A3BB",
"^@	c #A58498",
"/@	c #A63E3B",
"(@	c #BA4340",
"_@	c #933533",
":@	c #3A3870",
"<@	c #6A4C6B",
"[@	c #86B1BB",
"}@	c #A3CCD3",
"|@	c #5D5B5C",
"1@	c #757478",
"2@	c #A4ACB7",
"3@	c #867263",
"4@	c #915C50",
"5@	c #B14343",
"6@	c #CA5047",
"7@	c #C98892",
"8@	c #BDBDD7",
"9@	c #BEBDD7",
"0@	c #C39CAD",
"a@	c #CD5245",
"b@	c #BD6871",
"c@	c #91565E",
"d@	c #000002",
"e@	c #32315D",
"f@	c #5A5871",
"g@	c #80777E",
"h@	c #85C2CF",
"i@	c #C8E4E5",
"j@	c #8A6869",
"k@	c #BE8B73",
"l@	c #D5A181",
"m@	c #EB6F53",
"n@	c #EBA29D",
"o@	c #D6D5E5",
"p@	c #E4B5B9",
"q@	c #F67255",
"r@	c #BDAEC6",
"s@	c #9090A6",
"t@	c #010002",
"u@	c #54838D",
"v@	c #81C7D5",
"w@	c #86C9D6",
"x@	c #CEE7E7",
"y@	c #7F6065",
"z@	c #AE7564",
"A@	c #DFA17D",
"B@	c #DFA17E",
"C@	c #C0866C",
"D@	c #804647",
"E@	c #D7BAC1",
"F@	c #DBCAD6",
"G@	c #D5D5E6",
"H@	c #DACDDC",
"I@	c #E0C3CB",
"J@	c #7C759A",
"K@	c #585783",
"L@	c #373568",
"M@	c #6EABB9",
"N@	c #79BBC8",
"O@	c #7F8189",
"P@	c #9A7C75",
"Q@	c #BD866C",
"R@	c #BD866D",
"S@	c #A47163",
"T@	c #724456",
"U@	c #BBB7CB",
"V@	c #C0C0D6",
"W@	c #C1C0D6",
"X@	c #C1C0D5",
"Y@	c #656F99",
"Z@	c #48517E",
"`@	c #363667",
" #	c #7BBECD",
".#	c #A7D7DE",
"+#	c #669EAA",
"@#	c #272548",
"##	c #3D3B79",
"$#	c #3D3C78",
"%#	c #3E3B78",
"&#	c #3C3C78",
"*#	c #749BBD",
"=#	c #628198",
"-#	c #7ABDCA",
";#	c #AFDADF",
">#	c #C9E5E6",
",#	c #8BC3CF",
"'#	c #82B6C0",
")#	c #BED0D0",
"!#	c #99A7A9",
"~#	c #1B1B38",
"{#	c #1C1B37",
"]#	c #2D2B55",
"^#	c #3D3C79",
"/#	c #6C8BB0",
"(#	c #7092B6",
"_#	c #7092B4",
":#	c #7C6A7A",
"<#	c #625059",
"[#	c #000102",
"}#	c #83C8D5",
"|#	c #D0E8E8",
"1#	c #D1D1D1",
"2#	c #657172",
"3#	c #637071",
"4#	c #2E4E64",
"5#	c #788DA9",
"6#	c #8394AE",
"7#	c #8E92AC",
"8#	c #815256",
"9#	c #633738",
"0#	c #C9E4E6",
"a#	c #C9E4E5",
"b#	c #92CDD8",
"c#	c #94CED9",
"d#	c #D7EAEA",
"e#	c #D8EAEA",
"f#	c #F2F5F5",
"g#	c #C1E0E3",
"h#	c #BEDEE2",
"i#	c #4791A3",
"j#	c #774342",
"k#	c #9C4443",
"l#	c #894544",
"m#	c #623737",
"n#	c #AED9DF",
"o#	c #D0E7E7",
"p#	c #CCE5E6",
"q#	c #5BB7CD",
"r#	c #5CB7CD",
"s#	c #57AEC4",
"t#	c #50A0B3",
"u#	c #404249",
"v#	c #4C2425",
"w#	c #5D2424",
"x#	c #442324",
"y#	c #466C79",
"z#	c #53A2B4",
"A#	c #7FC5D2",
"B#	c #B0DAE0",
"C#	c #B1DAE0",
"D#	c #F1F5F5",
"E#	c #F0F4F4",
"F#	c #C0DFE2",
"G#	c #316875",
"H#	c #295863",
"I#	c #438899",
"J#	c #60B9CE",
"K#	c #D8EBEA",
"L#	c #D8EBEB",
"M#	c #C3E1E4",
"N#	c #64BACF",
"O#	c #65BACF",
"P#	c #68BCCF",
"Q#	c #95CED9",
"R#	c #97CFD9",
"                          . + + + @           # + + + $         ",
"                    % & & * = = = = * * * * - # + + + $         ",
"                ; > , ' ) ! ~ ~ ! ~ ~ ! { ] ^ / ( _             ",
"                : < [ } | | | | | | | | 1 2 3 4 5 6             ",
"              7 8 9 0 a b | | | | | | | c d e f g h             ",
"              i j k l m b | n o o p | | q r s t u v             ",
"              i w x y z A | B C D E | A 1 x F G u H             ",
"            I J K L [ M N O P Q Q R S T U V W X Y Z             ",
"          ` +  ...+.@.#.$.%.&.*.=.-.;.>.,.'.).!.~.{.            ",
"        ].^.+  ././.(._.:.<.[.}.|.[.1.2.3.4.5.~.~.Z             ",
"          6.7.8.9.0.a.b.c.d.e.e.e.f.g.h.i.j.k.l.m.n.o.$         ",
"          p.q.r.s.t.u.v.w.x.y.z.A.B.C.D.E.F.G.H.I.J.K.$         ",
"          L.M.N.O.P.Q.R.S.T.U.F.V.W.X.Y.Z.R.`. +.+++@+          ",
"          #+$+%+&+*+=+-+;+>+,+'+'+)+~.!+~+{+]+^+/+(+_+          ",
"              :+<+[+}+|+1+2+3+4+5+6+7+8+9+0+a+b+c+d+            ",
"                e+f+*+g+0+h+i+j+k+l+0+0+g+0+m+4.q.n+            ",
"              ` o+p+q+r+s+t+u+v+w+x+y+z+A+B+C+D+E+F+G+          ",
"            I ].H+I+J+K+L+M+N+O+N+P+Q+R+S+T+U+V+0+W+X+          ",
"          ` + + Y+Z+`+ @.@+@~.T+/.@@#@$@%@T+&@*@0+=@-@          ",
"        ].^.+ ;@>@,@'@)@2 !@~@{@]@^@/@(@_@T+:@<@s+[@}@          ",
"        + + + |@1@2@3@4@5@6@7@8@9@0@a@b@c@d@e@f@g@h@            ",
"    # # + + i@j@k@j+j+l@u m@n@:.o@p@q@r@s@T+t@u@v@w@            ",
"    + + + x@v@y@z@A@B@C@D@E@F@o@G@H@I@J@K@L@M@N@v@w@            ",
"    + + $ $ v@O@P@Q@R@S@T@U@V@W@X@W@V@Y@Z@`@ #v@v@w@            ",
"    + +   .#v@v@+#@@~.@#####$#%#$#%#&#*#=#t@-#v@v@w@            ",
";#;#$ >#  .#v@v@,#'#)#!#~#{#]#^#/#(#_#:#<#[#-#v@v@w@          ` ",
"+ +       .#v@}#+ |#( 1#2#3#4#L@5#6#7#8#9#/.-#v@v@w@          ;#",
"0#a#        b#c#d#e#f#_ g#h#i#~.j#k#x l#m#@@-#v@v@w@          n#",
"          ` + o#( 5 + p#q#r#s#t#u#v#w#x#y#z#A#v@v@w@            ",
"        B#C#d#e#D#E#F#h#q#r#r#r#G#H#H#H#I#J#v@v@v@w@            ",
"        + o#( 5 + @ q#r#r#r#r#r#r#r#r#r#r#J#v@v@v@w@            ",
"    C#C#K#L#D#E#M#g#N#O#O#O#O#O#O#O#O#O#O#P#v@}#Q#R#            "};
