/* XPM */
static char *player_xpm[] = {
/* columns rows colors chars-per-pixel */
"32 32 8 1",
". c #AABBCC",
"p c #FFAACC",
"P c #FFCCDD",
"o c #000000",
"w c #FFFFFF",
"c c #44CCCC",
"e c #FF8899",
"E c #FFBBCC",
/* pixels */
"................................",
"................................",
"................................",
"..........pppp..................",
".........ppPPpp.................",
"........ppPPPPpp................",
".......ppppppppppppppp..........",
"......ppPPPPPPPPPPPPPpp.........",
".....ppPPPPPPPPPPPPPPPpp........",
"....ppPPPPPPPPPPPPPPPPPpp.......",
"....pPPPPPPPPPPPPPPPPPPPp.......",
"...ppPPPPPPPPPPPPPPPPPPPpp......",
"...pPPPPPwwwPPPPPPwwwPPPPp......",
"...pPPPPwcowPPPPPwcowPPPPp......",
"...pPPPPwcowPPPPPwcowPPPPp......",
"...pPPPPPwwwPPPPPPwwwPPPPp......",
"...pPPPPPPPPPPPPPPPPPPPPPp......",
"...pPPPPPPPPPeePPPPPPPPPPp......",
"...ppPPPPPPPPPPPPPPPPPPPpp......",
"....pPPPPPPPPPPPPPPPPPPPp.......",
"....ppPPPPPPPPPPPPPPPPPpp.......",
".....ppPPPPPPPPPPPPPPPpp........",
"......ppPPPPPPPPPPPPPpp.........",
".......pppPPPPPPPPPppp..........",
"........EEppppppppppEE..........",
".......EEE..........EEE.........",
"................................",
"................................",
"................................",
"................................",
"................................",
"................................"
};
