/* XPM */
static char * playerup1_xpm[] = {
"32 32 467 2",
"  	c #A8D7DE",
". 	c #AAD8DE",
"+ 	c #CFE7E7",
"@ 	c #CDE6E6",
"# 	c #ADD9DF",
"$ 	c #CAE5E6",
"% 	c #8C989E",
"& 	c #8D989E",
"* 	c #8F999F",
"= 	c #A2A3A4",
"- 	c #A0A2A3",
"; 	c #8E999E",
"> 	c #8E989E",
", 	c #8E9EA4",
"' 	c #A7D5DC",
") 	c #A6D3DA",
"! 	c #844546",
"~ 	c #884745",
"{ 	c #8A4845",
"] 	c #8B4845",
"^ 	c #884645",
"/ 	c #895C5C",
"( 	c #D0E5E5",
"_ 	c #F6F6F6",
": 	c #F0F4F5",
"< 	c #92A0A5",
"[ 	c #824545",
"} 	c #BC4342",
"| 	c #DF614D",
"1 	c #F67253",
"2 	c #D75A4A",
"3 	c #B94342",
"4 	c #7E4748",
"5 	c #D0CACA",
"6 	c #EFF4F5",
"7 	c #8D9BA1",
"8 	c #99797C",
"9 	c #A64441",
"0 	c #E2614F",
"a 	c #EE6B52",
"b 	c #F77252",
"c 	c #F77253",
"d 	c #EB6951",
"e 	c #DE5F4E",
"f 	c #A54443",
"g 	c #A4898A",
"h 	c #A5ACAE",
"i 	c #7F4646",
"j 	c #A44443",
"k 	c #BE433E",
"l 	c #F57256",
"m 	c #F67254",
"n 	c #F47457",
"o 	c #F1765B",
"p 	c #F1765C",
"q 	c #F47356",
"r 	c #F67255",
"s 	c #F27055",
"t 	c #BE433F",
"u 	c #9E4442",
"v 	c #866464",
"w 	c #A9D7DE",
"x 	c #7F4647",
"y 	c #BE4240",
"z 	c #E0604C",
"A 	c #F9D0C7",
"B 	c #FFFEFB",
"C 	c #FEFDFB",
"D 	c #F5BDB3",
"E 	c #D85948",
"F 	c #BE423F",
"G 	c #BE4341",
"H 	c #9D4443",
"I 	c #7F5D60",
"J 	c #ABD8DF",
"K 	c #ACD8DF",
"L 	c #563133",
"M 	c #843D3B",
"N 	c #A14442",
"O 	c #BE4241",
"P 	c #CF5246",
"Q 	c #D95E4D",
"R 	c #D998A1",
"S 	c #D8ABAD",
"T 	c #DCBAB8",
"U 	c #D8A6AA",
"V 	c #D9959D",
"W 	c #DB5D4B",
"X 	c #CB4E44",
"Y 	c #BC4241",
"Z 	c #A04442",
"` 	c #7C3938",
" .	c #5B4F54",
"..	c #010102",
"+.	c #5C3535",
"@.	c #804645",
"#.	c #BB4443",
"$.	c #BA4343",
"%.	c #B64748",
"&.	c #B6B4CF",
"*.	c #B58395",
"=.	c #BA4340",
"-.	c #B991A6",
";.	c #B7B1CB",
">.	c #BB4342",
",.	c #B84443",
"'.	c #7D4746",
").	c #502D2D",
"!.	c #274045",
"~.	c #ACD9DF",
"{.	c #000102",
"].	c #020000",
"^.	c #050000",
"/.	c #BCA7B1",
"(.	c #DBD4E2",
"_.	c #FDFEFE",
":.	c #FEFDFC",
"<.	c #FCFCFD",
"[.	c #AE959E",
"}.	c #7D4343",
"|.	c #010000",
"1.	c #284045",
"2.	c #BED0D0",
"3.	c #ADB4B5",
"4.	c #AF8C6E",
"5.	c #7A624D",
"6.	c #070404",
"7.	c #C69E95",
"8.	c #B5A2AD",
"9.	c #A6A6C0",
"0.	c #C5C4CE",
"a.	c #C4C4CF",
"b.	c #C4C4CE",
"c.	c #C4C3CD",
"d.	c #A5A5C0",
"e.	c #B8A2A9",
"f.	c #C09991",
"g.	c #010001",
"h.	c #896F58",
"i.	c #AC8D75",
"j.	c #94A9AF",
"k.	c #9FC7CE",
"l.	c #A6ACAD",
"m.	c #7F4544",
"n.	c #F9C699",
"o.	c #B08C6D",
"p.	c #0A0606",
"q.	c #FCD7C8",
"r.	c #B39AA0",
"s.	c #3E3B75",
"t.	c #3D3C76",
"u.	c #3F3B76",
"v.	c #3E3C76",
"w.	c #3E3B74",
"x.	c #C9ADAF",
"y.	c #F4D0C3",
"z.	c #C59D7B",
"A.	c #F2BE93",
"B.	c #804546",
"C.	c #97B0B6",
"D.	c #CEE7E7",
"E.	c #7D97A1",
"F.	c #804644",
"G.	c #FAC599",
"H.	c #D29E7D",
"I.	c #A26F60",
"J.	c #FDD6C6",
"K.	c #FAD6CA",
"L.	c #F6D5CC",
"M.	c #000007",
"N.	c #C2A8A0",
"O.	c #F9D6CC",
"P.	c #F9D6CD",
"Q.	c #A79088",
"R.	c #372F30",
"S.	c #F8D6CC",
"T.	c #FBD6CA",
"U.	c #F8D2C2",
"V.	c #A26E60",
"W.	c #DDA984",
"X.	c #F1BF93",
"Y.	c #804646",
"Z.	c #7CAEBB",
"`.	c #7C8F98",
" +	c #D3A081",
".+	c #C88F76",
"++	c #BC8069",
"@+	c #EEBFAB",
"#+	c #F5C8B1",
"$+	c #F8CFB4",
"%+	c #000000",
"&+	c #C2A38F",
"*+	c #FBD0B4",
"=+	c #A88C7A",
"-+	c #372D28",
";+	c #F3C5AF",
">+	c #EBBBA7",
",+	c #BC7F69",
"'+	c #CA9479",
")+	c #CD9F84",
"!+	c #8E999F",
"~+	c #9DC2C9",
"{+	c #A7D7DE",
"]+	c #81C7D5",
"^+	c #7D4749",
"/+	c #B57963",
"(+	c #D79576",
"_+	c #D79575",
":+	c #ECB28A",
"<+	c #F7C599",
"[+	c #C19B79",
"}+	c #FBC597",
"|+	c #A78467",
"1+	c #362B22",
"2+	c #FAC697",
"3+	c #E6AA85",
"4+	c #D79477",
"5+	c #A96F5D",
"6+	c #7E5C60",
"7+	c #AFDADF",
"8+	c #C9E5E6",
"9+	c #8FC7D3",
"0+	c #89979F",
"a+	c #894E48",
"b+	c #D89775",
"c+	c #DB9877",
"d+	c #CE9277",
"e+	c #E9B28C",
"f+	c #FAC696",
"g+	c #FAC698",
"h+	c #E1AA85",
"i+	c #CF9277",
"j+	c #D79675",
"k+	c #D39274",
"l+	c #884E48",
"m+	c #81A1AC",
"n+	c #85C5D1",
"o+	c #83C8D5",
"p+	c #A0A9A9",
"q+	c #633737",
"r+	c #A87761",
"s+	c #B27A63",
"t+	c #BA7D66",
"u+	c #E4A782",
"v+	c #EDB48A",
"w+	c #E0A37F",
"x+	c #D69474",
"y+	c #B07963",
"z+	c #A4745F",
"A+	c #623737",
"B+	c #75A1AC",
"C+	c #86C9D6",
"D+	c #C9E4E6",
"E+	c #C9E4E5",
"F+	c #92CDD8",
"G+	c #94CED9",
"H+	c #D7EAEA",
"I+	c #99A6A6",
"J+	c #5F3534",
"K+	c #824745",
"L+	c #D69677",
"M+	c #D39377",
"N+	c #804545",
"O+	c #522C2C",
"P+	c #669EAA",
"Q+	c #AED9DF",
"R+	c #D0E7E7",
"S+	c #606161",
"T+	c #6D8394",
"U+	c #7598B4",
"V+	c #883433",
"W+	c #B34442",
"X+	c #4C3932",
"Y+	c #4B3A32",
"Z+	c #533A33",
"`+	c #B74341",
" @	c #762B2B",
".@	c #1E262D",
"+@	c #7499B5",
"@@	c #547384",
"#@	c #3E6168",
"$@	c #B0DAE0",
"%@	c #B1DAE0",
"&@	c #C8D7D7",
"*@	c #B9C1C2",
"=@	c #A18268",
"-@	c #AD9E96",
";@	c #B5B2B4",
">@	c #8E3331",
",@	c #BC4341",
"'@	c #722D2D",
")@	c #765F68",
"!@	c #777686",
"~@	c #73565D",
"{@	c #762E2F",
"]@	c #7C2B28",
"^@	c #2F2F2F",
"/@	c #B5B2B5",
"(@	c #A9978B",
"_@	c #9F8571",
":@	c #95B2B8",
"<@	c #A1C9D0",
"[@	c #C5BABA",
"}@	c #FAC699",
"|@	c #F9C59A",
"1@	c #BD4341",
"2@	c #BC90A5",
"3@	c #B5B4D4",
"4@	c #B5B4D3",
"5@	c #B98294",
"6@	c #7C2A29",
"7@	c #43362B",
"8@	c #FAC598",
"9@	c #D8EBEA",
"0@	c #D8EBEB",
"a@	c #C0B8B8",
"b@	c #804544",
"c@	c #DE9F7D",
"d@	c #DF9F7D",
"e@	c #DD9F7F",
"f@	c #8C8092",
"g@	c #B9A4BC",
"h@	c #EC6C50",
"i@	c #E1ACB3",
"j@	c #D0D0E2",
"k@	c #D1D0E1",
"l@	c #E09EA1",
"m@	c #E96F59",
"n@	c #B6A6C0",
"o@	c #786E7E",
"p@	c #392A23",
"q@	c #D89A79",
"r@	c #F8F8F8",
"s@	c #F7F8F8",
"t@	c #B7C5C5",
"u@	c #A09899",
"v@	c #B07B62",
"w@	c #AF7B61",
"x@	c #AD7B64",
"y@	c #232241",
"z@	c #787692",
"A@	c #9C97B6",
"B@	c #EE9B94",
"C@	c #E3BEC6",
"D@	c #D5D5E6",
"E@	c #E3B6BB",
"F@	c #E99C97",
"G@	c #9998BA",
"H@	c #6A6781",
"I@	c #383045",
"J@	c #AE7B62",
"K@	c #AE7E68",
"L@	c #8E9094",
"M@	c #9CBFC6",
"N@	c #D9EBEB",
"O@	c #F0F5F5",
"P@	c #F0F4F4",
"Q@	c #C2E1E3",
"R@	c #C1E0E3",
"S@	c #010204",
"T@	c #010105",
"U@	c #3E3C79",
"V@	c #424079",
"W@	c #D5D5E5",
"X@	c #D6D5E5",
"Y@	c #D5D6E5",
"Z@	c #D2D1E4",
"`@	c #3E3B78",
" #	c #3E3B79",
".#	c #3C3A74",
"+#	c #010002",
"@#	c #3E494A",
"##	c #74B4C1",
"$#	c #517F89",
"%#	c #020406",
"&#	c #7096B6",
"*#	c #596E96",
"=#	c #3E3D78",
"-#	c #737199",
";#	c #727199",
">#	c #727299",
",#	c #717098",
"'#	c #3D3C78",
")#	c #617BA1",
"!#	c #6D91B0",
"~#	c #010100",
"{#	c #789AA0",
"]#	c #9AC5CB",
"^#	c #BEDFE4",
"/#	c #EFF4F4",
"(#	c #C7E4E5",
"_#	c #C6E3E5",
":#	c #8BCBD7",
"<#	c #618F98",
"[#	c #030305",
"}#	c #7B90A9",
"|#	c #6A7A9C",
"1#	c #546693",
"2#	c #546694",
"3#	c #495185",
"4#	c #4D5789",
"5#	c #6F80A1",
"6#	c #788BA2",
"7#	c #85ABB0",
"8#	c #76989D",
"9#	c #040101",
"0#	c #7D839A",
"a#	c #78A3C3",
"b#	c #78A4C2",
"c#	c #5C769D",
"d#	c #3E3C78",
"e#	c #6785AA",
"f#	c #78A3C4",
"g#	c #7B778B",
"h#	c #7B4445",
"i#	c #000001",
"j#	c #B7DCE2",
"k#	c #E8F1F2",
"l#	c #C7E3E5",
"m#	c #030101",
"n#	c #9C555C",
"o#	c #AC606A",
"p#	c #7E626D",
"q#	c #564352",
"r#	c #1B1934",
"s#	c #634E5C",
"t#	c #80626C",
"u#	c #AE5F69",
"v#	c #955056",
"w#	c #B4DBE1",
"x#	c #83A9AF",
"y#	c #546D71",
"z#	c #6E3F3F",
"A#	c #8E3F3E",
"B#	c #A13E3D",
"C#	c #703E3E",
"D#	c #605D5F",
"E#	c #546E72",
"F#	c #566E72",
"G#	c #6C5C5B",
"H#	c #733E3E",
"I#	c #A43D3C",
"J#	c #873E3D",
"K#	c #6C4443",
"L#	c #8EB6BC",
"M#	c #010203",
"N#	c #010101",
"O#	c #83A8AE",
"P#	c #B3DBE0",
"Q#	c #B5DCE1",
"R#	c #8B9B9B",
"S#	c #020101",
"T#	c #2C3A3D",
"U#	c #A9D8DE",
"V#	c #B2DBE0",
"W#	c #94BEC5",
"X#	c #A3CED5",
"Y#	c #C1D8D8",
"Z#	c #B5CCCC",
"`#	c #96C0C7",
" $	c #9EC4CD",
".$	c #A0C5CE",
"+$	c #BDD1D4",
"@$	c #BBD0D4",
"#$	c #A2C5CE",
"$$	c #B9CFD3",
"%$	c #9DC3CC",
"                          . + + + @           # + + + $         ",
"                      % & * = = = - ; > > & , # + + + $         ",
"                  ' ) ! ~ { { ] { { ] { { ^ / ( _ :             ",
"                  < [ } | 1 1 1 1 1 1 1 1 2 3 4 5 6             ",
"                7 8 9 0 a b c c c c c c b d e f g h             ",
"                i j k l m 1 c n o p q c 1 r s t u v             ",
"              w x j y y z c c A B C D c b E F G H I             ",
"            J K L M N O P Q R S T T U V W X Y Z `  .            ",
"          w + + ..+.@.#.$.%.&.*.=.=.-.;.3 >.,.'.).!.            ",
"        K ~.+ + {.].^.[ /.(._.:.C C :.<.(.[.}.|.].1.            ",
"        + + 2.3.4.5.6.7.8.9.0.a.b.b.a.c.d.e.f.g.h.i.j.k.        ",
"    # # + + l.m.n.o.p.q.r.s.t.s.u.u.v.t.w.x.y.g.z.A.B.C.        ",
"    + + + D.E.F.G.H.I.J.K.L.M.N.O.P.Q.R.S.T.U.V.W.X.Y.C.        ",
"    + + $ $ Z.`. +.+++@+#+$+%+&+*+*+=+-+*+;+>+,+'+)+!+~+        ",
"    + +   {+]+]+^+/+(+_+:+<+%+[+}+}+|+1+2+3+_+4+5+6+            ",
"7+7+$ 8+  {+]+]+9+0+a+(+b+c+d+e+f+g+h+i+c+j+k+l+m+n+          w ",
"+ +       {+]+o++ p+q+r+s+t+_+u+v+v+w+x+t+y+z+A+B+C+          7+",
"D+E+        F+G+H+I+..g.J+K+L+_+_+_+(+M+N+O+g...P+C+          Q+",
"          w + R+S+T+U+%+V+W+X+Y+Y+Y+Y+Z+`+ @.@+@@@#@            ",
"        $@%@&@*@=@-@;@%+>@,@'@)@!@!@~@{@y ]@^@/@(@_@:@<@        ",
"        + R+[@N+}@g+|@%+>@1@F 2@3@4@5@F 1@6@7@8@2+X.@.C.        ",
"    %@%@9@0@a@b@c@d@e@%+f@g@h@i@j@k@l@m@n@o@p@d@d@q@@.C.        ",
"    + + r@s@t@u@v@w@x@y@z@A@B@C@D@D@E@F@G@H@I@J@w@K@L@M@        ",
"    0@N@O@P@Q@R@S@g.T@U@U@V@D@W@W@X@Y@Z@`@ #.#+#+#@#            ",
"  w r@r@+ D.]+]+##$#%#&#*#=#-#;#>#>#;#,#'#)#!#~#{#]#            ",
"^#^#P@/#(#_#:#:#:#<#[#}#|#1#2#3#`@`@4#2#1#5#6#g.7#            K ",
"r@r@+ +           8#9#Y.0#a#b#c#d#'#e#a#f#g#h#i#7#            j#",
"k#k#l#_#          8#m#Y.n#o#p#q#r#r#s#t#u#v#h#i#7#            w#",
"                  x#y#z#A#B#C#D#E#F#G#H#I#J#K#E#L#              ",
"                      M#N#g.N#O#P#Q#R#N#S#N#T#    U#P#P#P#V#    ",
"                      W#W#W#W#X#+ + Y#Z#W#W#`#    # + + + $     ",
" $ $ $ $ $ $ $ $ $ $ $ $ $ $ $.$+$+$+$@$ $ $ $ $ $#$+$+$+$$$ $%$"};
