/* XPM */
static char * playerright2_xpm[] = {
"32 32 418 2",
"  	c #A8D7DE",
". 	c #AAD8DE",
"+ 	c #CFE7E7",
"@ 	c #CDE6E6",
"# 	c #ABD8DF",
"$ 	c #CCE6E6",
"% 	c #9CB7BC",
"& 	c #8E7273",
"* 	c #8F7272",
"= 	c #907272",
"- 	c #8F7171",
"; 	c #876C6E",
"> 	c #886C6E",
", 	c #886C6F",
"' 	c #94A2A8",
") 	c #A0C9D1",
"! 	c #99B1B7",
"~ 	c #9AB1B6",
"{ 	c #999498",
"] 	c #994544",
"^ 	c #B5594C",
"/ 	c #B75C4D",
"( 	c #B75B4D",
"_ 	c #B85B4D",
": 	c #AB8786",
"< 	c #A0C1C8",
"[ 	c #A9D7DE",
"} 	c #96B0B6",
"| 	c #804646",
"1 	c #804645",
"2 	c #9C4543",
"3 	c #BE423F",
"4 	c #F16E52",
"5 	c #F77253",
"6 	c #D1634F",
"7 	c #7F4645",
"8 	c #90979B",
"9 	c #A9D8DE",
"0 	c #8B8387",
"a 	c #836365",
"b 	c #804545",
"c 	c #B14341",
"d 	c #CF5549",
"e 	c #EE6C50",
"f 	c #F67153",
"g 	c #EFADA2",
"h 	c #EEEBEB",
"i 	c #CCC4C4",
"j 	c #867276",
"k 	c #A5CFD5",
"l 	c #856567",
"m 	c #894644",
"n 	c #984544",
"o 	c #B94340",
"p 	c #CD5246",
"q 	c #E4634D",
"r 	c #F57053",
"s 	c #F67253",
"t 	c #F6BAAE",
"u 	c #FFFEFE",
"v 	c #E5D5D4",
"w 	c #C2A9A9",
"x 	c #A4CDD4",
"y 	c #866667",
"z 	c #9B4544",
"A 	c #BF4140",
"B 	c #BE4241",
"C 	c #BE4240",
"D 	c #F16D52",
"E 	c #F6B9AE",
"F 	c #FEFEFD",
"G 	c #C36D6A",
"H 	c #A84442",
"I 	c #7F4646",
"J 	c #ACD8DF",
"K 	c #CBE5E6",
"L 	c #8C6A6A",
"M 	c #9C4544",
"N 	c #C84D44",
"O 	c #C94E46",
"P 	c #CA4E46",
"Q 	c #CA4E45",
"R 	c #C88C96",
"S 	c #C6C4DB",
"T 	c #B7AAC3",
"U 	c #9688A8",
"V 	c #4B3E71",
"W 	c #5D6D8F",
"X 	c #83A4B6",
"Y 	c #80C7D5",
"Z 	c #ACD9DF",
"` 	c #786465",
" .	c #863D3D",
"..	c #AC4341",
"+.	c #BB4341",
"@.	c #BE433F",
"#.	c #BF737E",
"$.	c #C7A3B1",
"%.	c #D3D3E3",
"&.	c #C2C2D4",
"*.	c #A6A6B7",
"=.	c #9EADBB",
"-.	c #AEC1C9",
";.	c #CAE5E6",
">.	c #C8E4E5",
",.	c #7EC6D4",
"'.	c #4B5556",
").	c #4F2D2D",
"!.	c #B74341",
"~.	c #BC4440",
"{.	c #B7AAC7",
"].	c #D6D6E3",
"^.	c #FFFFFE",
"/.	c #CDCED4",
"(.	c #3D3C79",
"_.	c #CEE6E7",
":.	c #5CB7CD",
"<.	c #ADD9DF",
"[.	c #485455",
"}.	c #1D1212",
"|.	c #352020",
"1.	c #492022",
"2.	c #6A3435",
"3.	c #8C4644",
"4.	c #8D4645",
"5.	c #6A5F89",
"6.	c #717197",
"7.	c #84839D",
"8.	c #84839E",
"9.	c #83839E",
"0.	c #9EA9B7",
"a.	c #B7D1D6",
"b.	c #C7E3E5",
"c.	c #81C7D5",
"d.	c #CEE7E7",
"e.	c #2C484E",
"f.	c #000001",
"g.	c #000101",
"h.	c #010000",
"i.	c #3F2525",
"j.	c #683A3A",
"k.	c #9C6559",
"l.	c #AA786E",
"m.	c #B58C84",
"n.	c #4E4466",
"o.	c #6C617F",
"p.	c #9C8A9E",
"q.	c #9D8A9E",
"r.	c #86738D",
"s.	c #57406B",
"t.	c #828DA1",
"u.	c #A7BBC4",
"v.	c #020102",
"w.	c #000000",
"x.	c #020101",
"y.	c #010002",
"z.	c #010102",
"A.	c #010001",
"B.	c #CA8D72",
"C.	c #E7B39A",
"D.	c #FCD7C9",
"E.	c #594F4C",
"F.	c #A58E86",
"G.	c #FCD7C7",
"H.	c #D6AFA4",
"I.	c #7F4546",
"J.	c #C3DADB",
"K.	c #74BED1",
"L.	c #A7D7DE",
"M.	c #76B7C3",
"N.	c #5C8F9A",
"O.	c #795A4B",
"P.	c #C1876C",
"Q.	c #DEAF89",
"R.	c #B09072",
"S.	c #010101",
"T.	c #C98E72",
"U.	c #E6AC89",
"V.	c #FAC9A2",
"W.	c #584A41",
"X.	c #A2866F",
"Y.	c #FAC9A1",
"Z.	c #D4A488",
"`.	c #A4CDD3",
" +	c #84C8D6",
".+	c #AFDADF",
"++	c #C9E5E6",
"@+	c #73A2AC",
"#+	c #543C35",
"$+	c #996D5A",
"%+	c #D79576",
"&+	c #F7C194",
"*+	c #D1A581",
"=+	c #795646",
"-+	c #CD9073",
";+	c #E1A481",
">+	c #F1B98F",
",+	c #8A6857",
"'+	c #B3896E",
")+	c #F0B98E",
"!+	c #E0AD88",
"~+	c #C6A28C",
"{+	c #9A9090",
"]+	c #A5D0D7",
"^+	c #91CCD8",
"/+	c #93CDD8",
"(+	c #D6EAEA",
"_+	c #83C8D5",
":+	c #A5B8B8",
"<+	c #9C685A",
"[+	c #BC7F67",
"}+	c #D89576",
"|+	c #EDB48C",
"1+	c #D79575",
"2+	c #D89575",
"3+	c #D89475",
"4+	c #D79574",
"5+	c #D89477",
"6+	c #8D544E",
"7+	c #91979B",
"8+	c #D0E8E8",
"9+	c #F8F8F8",
"0+	c #C9E4E6",
"a+	c #C9E4E5",
"b+	c #92CDD8",
"c+	c #94CED9",
"d+	c #CFE1E1",
"e+	c #C3D4D4",
"f+	c #695E5C",
"g+	c #543D33",
"h+	c #61483C",
"i+	c #D49A79",
"j+	c #DB9C7B",
"k+	c #9F6559",
"l+	c #965D54",
"m+	c #975C54",
"n+	c #B9C8C8",
"o+	c #A4CCD3",
"p+	c #D7EAEA",
"q+	c #D8EAEA",
"r+	c #F2F5F5",
"s+	c #D0E7E7",
"t+	c #ECECEC",
"u+	c #D7D8D8",
"v+	c #8E8662",
"w+	c #7B6C3C",
"x+	c #62532D",
"y+	c #AF7F67",
"z+	c #C28E7B",
"A+	c #CE9E95",
"B+	c #CE9D96",
"C+	c #CB9485",
"D+	c #C4856D",
"E+	c #8A504C",
"F+	c #7D5C61",
"G+	c #8B8386",
"H+	c #F7F8F8",
"I+	c #B0DAE0",
"J+	c #B1DAE0",
"K+	c #C0C3C4",
"L+	c #EED169",
"M+	c #E4C65B",
"N+	c #B69B48",
"O+	c #3E3622",
"P+	c #787688",
"Q+	c #B6B4D3",
"R+	c #B5B5D3",
"S+	c #A394AA",
"T+	c #728390",
"U+	c #F1F5F5",
"V+	c #F0F4F4",
"W+	c #C0DFE2",
"X+	c #8F9090",
"Y+	c #A49B73",
"Z+	c #E0C866",
"`+	c #F9DA69",
" @	c #E4C65D",
".@	c #B79B48",
"+@	c #7B5042",
"@@	c #7C5358",
"#@	c #8D6875",
"$@	c #B2ADC9",
"%@	c #B493A8",
"&@	c #B24442",
"*@	c #AF9CB2",
"=@	c #9B90A4",
"-@	c #857A7F",
";@	c #A5CFD6",
">@	c #5BB7CD",
",@	c #D8EBEA",
"'@	c #D8EBEB",
")@	c #595A5B",
"!@	c #9A834D",
"~@	c #EBC868",
"{@	c #D5B35E",
"]@	c #AD8B4A",
"^@	c #A97862",
"/@	c #A87662",
"(@	c #A87663",
"_@	c #AD9CB2",
":@	c #B38595",
"<@	c #BD4341",
"[@	c #BB97AE",
"}@	c #A68596",
"|@	c #804546",
"1@	c #C3E1E4",
"2@	c #C1E0E3",
"3@	c #64BACF",
"4@	c #6B483D",
"5@	c #A76D5E",
"6@	c #986055",
"7@	c #804644",
"8@	c #F1BC93",
"9@	c #FAC598",
"0@	c #FAC599",
"a@	c #955F56",
"b@	c #BF423F",
"c@	c #A94341",
"d@	c #D9EBEB",
"e@	c #F0F5F5",
"f@	c #C2E1E3",
"g@	c #465254",
"h@	c #735F37",
"i@	c #B5934E",
"j@	c #B5934D",
"k@	c #917544",
"l@	c #3A2020",
"m@	c #D3997A",
"n@	c #E0A07E",
"o@	c #DFA17E",
"p@	c #5D433B",
"q@	c #7E3332",
"r@	c #BD4342",
"s@	c #743E65",
"t@	c #603C6C",
"u@	c #523E6D",
"v@	c #52686E",
"w@	c #A2B1B1",
"x@	c #685933",
"y@	c #A28A46",
"z@	c #A18B46",
"A@	c #7E6D3B",
"B@	c #B17F69",
"C@	c #BD866C",
"D@	c #BD866E",
"E@	c #443742",
"F@	c #693144",
"G@	c #A64253",
"H@	c #4F3C73",
"I@	c #3D3C78",
"J@	c #3D3C77",
"K@	c #552430",
"L@	c #9F9595",
"M@	c #DEDEDE",
"N@	c #CDE5E5",
"O@	c #BEDFE4",
"P@	c #EFF4F4",
"Q@	c #C7E4E5",
"R@	c #C6E3E5",
"S@	c #8BCBD7",
"T@	c #304A4F",
"U@	c #3A386F",
"V@	c #3E3C76",
"W@	c #B14248",
"X@	c #923533",
"Y@	c #BDD8D9",
"Z@	c #97C2C9",
"`@	c #76989D",
" #	c #663C3C",
".#	c #6E3E3F",
"+#	c #6E3F3F",
"@#	c #201313",
"##	c #1B1933",
"$#	c #2D2B57",
"%#	c #3E3B78",
"&#	c #3F3B77",
"*#	c #923534",
"=#	c #9FCCD3",
"-#	c #E8F1F2",
";#	c #8DB5BC",
">#	c #51696D",
",#	c #6B4647",
"'#	c #6F3F40",
")#	c #546669",
"!#	c #495B6A",
"~#	c #373569",
"{#	c #3D3B76",
"]#	c #513C74",
"^#	c #663D6B",
"/#	c #9E3E43",
"(#	c #8B5757",
"_#	c #606F70",
":#	c #A1CED5",
"<#	c #3C4F52",
"[#	c #010103",
"}#	c #88ACB2",
"|#	c #3B386F",
"1#	c #813F65",
"2#	c #BC4341",
"3#	c #391819",
"4#	c #6E8E93",
"5#	c #95C0C6",
"6#	c #93BCC2",
"7#	c #A6D4DB",
"8#	c #B3DBE0",
"9#	c #ACD2D7",
"0#	c #B5CACA",
"a#	c #48505A",
"b#	c #3D2131",
"c#	c #5E2423",
"d#	c #8DB3B8",
"e#	c #9CC7CE",
"f#	c #748484",
"g#	c #50686C",
"h#	c #9EC4CD",
"i#	c #A0C5CE",
"j#	c #BDD1D4",
"k#	c #BBD0D4",
"                          . + + + @                             ",
"                          # + + + $                             ",
"                      % & * = - ; > , , '                       ",
"                ) ! ~ { ] ^ / ( / / ( _ : ~ ~ <               [ ",
"                } | 1 2 3 4 5 5 5 5 5 5 6 7 1 8             9 + ",
"              0 a b c d e f 5 5 5 5 5 5 g h h i j k       . # + ",
"              l m n o p q r 5 5 5 5 5 s t u v w 7 x     [ + + + ",
"            # y z A 3 B C D 5 5 5 5 5 s E F G H I x   # J + + K ",
"          [ + L M C C C C N O P Q Q P Q R S T U V W X + + + @ Y ",
"        J Z + `  ...+.C C C 3 C C C @.#.$.%.%.&.*.*.=.-.+ ;.>.,.",
"        + + + '.).1 !.C C C C C C B ~.{.].^.^.^.^.^./.(._.Y Y :.",
"    <.<.+ + >.[.}.|.1.2.3.4.4.4.3.4.4.5.6.7.7.8.7.9.0.a.b.c.Y :.",
"    + + + d.c.e.f.g.h.i.j.j.j.j.k.l.m.n.o.p.q.r.s.t.u.c.c.c.Y :.",
"    + + ;.;.c.e.v.w.w.x.y.f.z.A.B.C.D.E.F.G.G.H.I.J.;.c.c.c.c.K.",
"    + +   L.c.M.N.h.A.O.P.Q.R.S.T.U.V.W.X.Y.Y.Z.I `.L.c.c.c. ++ ",
".+.+;.++  L.c.c.@+A.#+$+%+&+*+=+-+;+>+,+'+)+!+~+{+]+L.c.c.^+/+(+",
"+ +       L.c._+:+A.<+[+}+&+|+}+1+2+3+2+4+5+6+7+    L.c._++ 8+9+",
"0+a+        b+c+d+e+f+g+h+i+j+1+1+4+5+k+l+m+n+o+      b+c+p+q+r+",
"          [ + s+t+u+v+w+x+y+z+A+B+C+D+E+F+G+]+      [ + s+9+H++ ",
"        I+J+p+q+K+v.L+M+N+O+P+Q+R+S+| 1 T+        I+J+p+q+U+V+W+",
"        + s+9+X+Y+Z+`+ @.@+@@@#@$@%@&@*@=@-@;@    + s+9+H++ @ >@",
"    J+J+,@'@U+)@!@~@~@{@]@^@/@(@_@:@<@[@}@|@x J+J+,@'@U+V+1@2@3@",
"    + + 9+H++ '.4@5@5@6@7@8@9@0@a@z B b@c@| x + + 9+H++ _.c.c.c.",
"    '@d@e@V+f@g@h@i@j@k@l@m@n@o@p@q@r@s@t@u@v@w@d@e@V+f@2@c.c.c.",
"  [ 9+9++ d.c.e.x@y@z@A@x.B@C@D@E@F@G@H@I@J@K@L@M@N@d.c.c.c.c.c.",
"O@O@V+P@Q@R@S@T@z.g.S.h.A.f.w.f.U@I@I@I@I@V@W@X@S.Y@R@S@S@S@S@S@",
"9+9++ +       Z@`@x. #.#+#@#h.w.##$#I@%#J@&#W@*#A.=#            ",
"-#-#b.R@        ;#>#,#'#'#)#>#>#>#!#~#{#]#^#/#(#_#:#            ",
"                    <#A.[#=#      }#[#|#1#2#3#4#                ",
"                    5#6#6#7#  [ 8#9#0#a#b#c#d#e#                ",
"                              # + + + f#g#g#:#                  ",
"h#h#h#h#h#h#h#h#h#h#h#h#h#h#h#i#j#j#j#k#h#h#h#h#h#h#h#h#h#h#h#h#"};
