/* XPM */
static char * playerleft2_xpm[] = {
"32 32 407 2",
"  	c #A8D7DE",
". 	c #ADD9DF",
"+ 	c #CFE7E7",
"@ 	c #CAE5E6",
"# 	c #AAD8DE",
"$ 	c #CDE6E6",
"% 	c #ABD8DF",
"& 	c #CCE6E6",
"* 	c #ACD9DF",
"= 	c #D4E9E9",
"- 	c #F8F8F8",
"; 	c #F0F4F5",
"> 	c #D0E7E7",
", 	c #D5E9E9",
"' 	c #F7F8F8",
") 	c #EFF4F5",
"! 	c #95A3A8",
"~ 	c #907272",
"{ 	c #8E7271",
"] 	c #886C6E",
"^ 	c #876C6E",
"/ 	c #856C70",
"( 	c #9CB6BC",
"_ 	c #F4F6F6",
": 	c #CBE5E6",
"< 	c #A0C1C8",
"[ 	c #9AB1B6",
"} 	c #B58F8A",
"| 	c #B85B4D",
"1 	c #B75B4D",
"2 	c #B75C4D",
"3 	c #B5594C",
"4 	c #994544",
"5 	c #AA9D9D",
"6 	c #B9BFBF",
"7 	c #D3CBCB",
"8 	c #E6E6E7",
"9 	c #F7F7F7",
"0 	c #F2F6F6",
"a 	c #C9E4E5",
"b 	c #90979B",
"c 	c #804645",
"d 	c #7F4645",
"e 	c #D1634F",
"f 	c #F77253",
"g 	c #F16E52",
"h 	c #BE423F",
"i 	c #9C4543",
"j 	c #804646",
"k 	c #CCC9C9",
"l 	c #F5F6F6",
"m 	c #C8E4E5",
"n 	c #81C7D5",
"o 	c #86C9D6",
"p 	c #A5CFD5",
"q 	c #867276",
"r 	c #CCC4C4",
"s 	c #EEEBEB",
"t 	c #EFADA2",
"u 	c #F67153",
"v 	c #EE6C50",
"w 	c #CF5549",
"x 	c #B14341",
"y 	c #804545",
"z 	c #886667",
"A 	c #7F7B82",
"B 	c #F2F5F5",
"C 	c #C5E2E4",
"D 	c #A4CDD4",
"E 	c #C2A9A9",
"F 	c #E5D5D4",
"G 	c #FFFEFE",
"H 	c #F6BAAE",
"I 	c #F67253",
"J 	c #F57053",
"K 	c #E4634D",
"L 	c #CD5246",
"M 	c #B94340",
"N 	c #984544",
"O 	c #894644",
"P 	c #806064",
"Q 	c #7F4646",
"R 	c #A84442",
"S 	c #C36D6A",
"T 	c #FEFEFD",
"U 	c #F6B9AE",
"V 	c #F16D52",
"W 	c #BE4240",
"X 	c #BE4241",
"Y 	c #BF4140",
"Z 	c #9B4544",
"` 	c #806164",
" .	c #C3E1E3",
"..	c #82A4B6",
"+.	c #5D6D8F",
"@.	c #4B3E71",
"#.	c #9688A8",
"$.	c #B7AAC3",
"%.	c #C6C4DB",
"&.	c #C88C96",
"*.	c #CA4E45",
"=.	c #CA4E46",
"-.	c #C94E46",
";.	c #C84D44",
">.	c #9C4544",
",.	c #60B9CE",
"'.	c #73A8BC",
").	c #9DACBA",
"!.	c #A6A6B7",
"~.	c #C2C2D4",
"{.	c #D3D3E3",
"].	c #C7A3B1",
"^.	c #BF737E",
"/.	c #BE433F",
"(.	c #BB4341",
"_.	c #AC4341",
":.	c #863D3D",
"<.	c #695A5F",
"[.	c #3D3C79",
"}.	c #CDCED4",
"|.	c #FFFFFE",
"1.	c #D6D6E3",
"2.	c #B7AAC7",
"3.	c #BC4440",
"4.	c #B74341",
"5.	c #4F2D2D",
"6.	c #2C484E",
"7.	c #7CB8C8",
"8.	c #8DA2B3",
"9.	c #83839E",
"0.	c #84839D",
"a.	c #84839E",
"b.	c #717197",
"c.	c #6A5F89",
"d.	c #8D4645",
"e.	c #8C4644",
"f.	c #6A3435",
"g.	c #492022",
"h.	c #352020",
"i.	c #1D1212",
"j.	c #8AAEBD",
"k.	c #6D849D",
"l.	c #57406B",
"m.	c #86738D",
"n.	c #9D8A9E",
"o.	c #9C8A9E",
"p.	c #6C617F",
"q.	c #4E4466",
"r.	c #B58C84",
"s.	c #AA786E",
"t.	c #9C6559",
"u.	c #683A3A",
"v.	c #3F2525",
"w.	c #010000",
"x.	c #000101",
"y.	c #000001",
"z.	c #7F4546",
"A.	c #D6AFA4",
"B.	c #FCD7C7",
"C.	c #A58E86",
"D.	c #594F4C",
"E.	c #FCD7C9",
"F.	c #E7B39A",
"G.	c #CA8D72",
"H.	c #010001",
"I.	c #010102",
"J.	c #010002",
"K.	c #020101",
"L.	c #000000",
"M.	c #020102",
"N.	c #A4CDD3",
"O.	c #D4A488",
"P.	c #FAC9A1",
"Q.	c #A2866F",
"R.	c #584A41",
"S.	c #FAC9A2",
"T.	c #E6AC89",
"U.	c #C98E72",
"V.	c #010101",
"W.	c #B09072",
"X.	c #DEAF89",
"Y.	c #C1876C",
"Z.	c #795A4B",
"`.	c #5C8F9A",
" +	c #76B7C3",
".+	c #A9D7DE",
"++	c #A5D0D7",
"@+	c #8D888C",
"#+	c #C39F8B",
"$+	c #E0AD88",
"%+	c #F0B98E",
"&+	c #B3896E",
"*+	c #8A6857",
"=+	c #F1B98F",
"-+	c #E1A481",
";+	c #CD9073",
">+	c #795646",
",+	c #D1A581",
"'+	c #F7C194",
")+	c #D79576",
"!+	c #996D5A",
"~+	c #543C35",
"{+	c #669EAA",
"]+	c #AFDADF",
"^+	c #91979B",
"/+	c #8D544E",
"(+	c #D89477",
"_+	c #D79574",
":+	c #D89575",
"<+	c #D89475",
"[+	c #D79575",
"}+	c #D89576",
"|+	c #EDB48C",
"1+	c #BC7F67",
"2+	c #9C685A",
"3+	c #AED9DF",
"4+	c #A4CCD3",
"5+	c #A0BDC2",
"6+	c #975C54",
"7+	c #965D54",
"8+	c #9F6559",
"9+	c #DB9C7B",
"0+	c #D49A79",
"a+	c #61483C",
"b+	c #543D33",
"c+	c #4B4D50",
"d+	c #74B4C1",
"e+	c #7CC0CD",
"f+	c #8B8386",
"g+	c #896767",
"h+	c #8A504C",
"i+	c #C4856D",
"j+	c #CB9485",
"k+	c #CE9D96",
"l+	c #CE9E95",
"m+	c #C28E7B",
"n+	c #AF7F67",
"o+	c #62532D",
"p+	c #7B6C3C",
"q+	c #837F5C",
"r+	c #70ADBA",
"s+	c #7ABDCB",
"t+	c #728390",
"u+	c #A394AA",
"v+	c #B5B5D3",
"w+	c #B6B4D3",
"x+	c #787688",
"y+	c #3E3622",
"z+	c #B69B48",
"A+	c #E4C65B",
"B+	c #EED169",
"C+	c #68BCCF",
"D+	c #83C8D5",
"E+	c #95CED9",
"F+	c #97CFD9",
"G+	c #A5CFD6",
"H+	c #857A7F",
"I+	c #9B90A5",
"J+	c #AF9CB2",
"K+	c #B24442",
"L+	c #B493A8",
"M+	c #B2ADC9",
"N+	c #8D6875",
"O+	c #7C5358",
"P+	c #7B5042",
"Q+	c #B79B48",
"R+	c #E4C65D",
"S+	c #F9DA69",
"T+	c #E0C866",
"U+	c #99946E",
"V+	c #54767E",
"W+	c #8CCBD7",
"X+	c #804546",
"Y+	c #A68596",
"Z+	c #BB97AE",
"`+	c #BD4341",
" @	c #B38595",
".@	c #AD9CB2",
"+@	c #A87663",
"@@	c #A87662",
"#@	c #A97862",
"$@	c #AD8B4A",
"%@	c #D5B35E",
"&@	c #EBC868",
"*@	c #9A834D",
"=@	c #4B5556",
"-@	c #96CED9",
";@	c #9CD1DA",
">@	c #C4E2E4",
",@	c #A94341",
"'@	c #BF423F",
")@	c #955F56",
"!@	c #FAC599",
"~@	c #FAC598",
"{@	c #F1BC93",
"]@	c #804644",
"^@	c #986055",
"/@	c #A76D5E",
"(@	c #6B483D",
"_@	c #485455",
":@	c #8BCAD7",
"<@	c #7EA2A7",
"[@	c #52686E",
"}@	c #523E6D",
"|@	c #603C6C",
"1@	c #743E65",
"2@	c #BD4342",
"3@	c #7E3332",
"4@	c #5D433B",
"5@	c #DFA17E",
"6@	c #E0A07E",
"7@	c #D3997A",
"8@	c #3A2020",
"9@	c #917544",
"0@	c #B5934D",
"a@	c #B5934E",
"b@	c #735F37",
"c@	c #3C4F52",
"d@	c #9DD1DB",
"e@	c #A6D5DC",
"f@	c #96C1C7",
"g@	c #758185",
"h@	c #552430",
"i@	c #3D3C77",
"j@	c #3D3C78",
"k@	c #4F3C73",
"l@	c #A64253",
"m@	c #693144",
"n@	c #443742",
"o@	c #BD866E",
"p@	c #BD866C",
"q@	c #B17F69",
"r@	c #7E6D3B",
"s@	c #A18B46",
"t@	c #A28A46",
"u@	c #685933",
"v@	c #ACD8DF",
"w@	c #9FCCD2",
"x@	c #923533",
"y@	c #B14248",
"z@	c #3E3C76",
"A@	c #3A386F",
"B@	c #B7DCE2",
"C@	c #CEE7E7",
"D@	c #C7E3E5",
"E@	c #9FCCD3",
"F@	c #923534",
"G@	c #3F3B77",
"H@	c #3E3B78",
"I@	c #2D2B57",
"J@	c #1B1933",
"K@	c #201313",
"L@	c #6E3F3F",
"M@	c #6E3E3F",
"N@	c #663C3C",
"O@	c #8AA0A2",
"P@	c #97C2C9",
"Q@	c #B4DBE1",
"R@	c #A1CED5",
"S@	c #51696D",
"T@	c #875355",
"U@	c #9E3E43",
"V@	c #663D6B",
"W@	c #513C74",
"X@	c #3D3B76",
"Y@	c #373569",
"Z@	c #495B6A",
"`@	c #526A6D",
" #	c #656D6D",
".#	c #6F3F40",
"+#	c #6D4848",
"@#	c #8DB5BC",
"##	c #C3E2E4",
"$#	c #A9D8DE",
"%#	c #B3DBE0",
"&#	c #759195",
"*#	c #391819",
"=#	c #BC4341",
"-#	c #813F65",
";#	c #3B386F",
">#	c #010103",
",#	c #85ABB1",
"'#	c #B5DCE1",
")#	c #C4DBDB",
"!#	c #475355",
"~#	c #B2DBE0",
"{#	c #BBD4D5",
"]#	c #8DB3B8",
"^#	c #5E2423",
"/#	c #3D2131",
"(#	c #3C4B58",
"_#	c #93BCC2",
":#	c #A0CDD4",
"<#	c #CCE4E4",
"[#	c #B2C9C9",
"}#	c #95C0C6",
"|#	c #9EC4CD",
"1#	c #A2C5CE",
"2#	c #BDD1D4",
"3#	c #B9CFD3",
"4#	c #97BCC5",
"5#	c #4A5E62",
"6#	c #4B5E63",
"7#	c #597075",
"8#	c #A0C5CE",
"9#	c #BBD0D4",
"0#	c #9DC3CC",
"    . + + + @             # + + + $           . + + + @         ",
"    . + + + @             % + + + &           . + + + @         ",
"* + = - ;             # + + + $           * + = - ;             ",
". > , ' )             ! ~ ~ ~ { ] ] ^ / ( . > , ' )             ",
"= - _ + :       < [ [ } | 1 2 2 1 2 3 4 5 6 7 8 + :             ",
", 9 0 $ a       b c d e f f f f f f g h i c j k $ a             ",
"l + m n o   p q r s s t f f f f f f u v w x y z A o             ",
"B : C n o   D d E F G H I f f f f f J K L M N O P o             ",
"a n n n o   D Q R S T U I f f f f f V W X h Y Z ` o             ",
" .n n n o ..+.@.#.$.%.&.*.=.*.*.=.-.;.W W W W >.P o             ",
",.n n n '.).!.!.~.{.{.].^./.W W W h W W W (._.:.<.o             ",
",.n n n [.}.|.|.|.|.|.1.2.3.X W W W W W W 4.c 5.6.o             ",
",.n n n 7.8.9.0.a.0.0.b.c.d.d.e.d.d.d.e.f.g.h.i.6.o             ",
",.n n n o j.k.l.m.n.o.p.q.r.s.t.u.u.u.u.v.w.x.y.6.o             ",
",.n n n o   D z.A.B.B.C.D.E.F.G.H.I.y.J.K.L.L.M.6.o             ",
",.n n n o   N.Q O.P.P.Q.R.S.T.U.V.W.X.Y.Z.H.w.`. +o           .+",
",.n n n o   ++@+#+$+%+&+*+=+-+;+>+,+'+)+!+~+H.{+n o           ]+",
",.n n n o       ^+/+(+_+:+<+:+[+}+|+'+}+1+2+H.{+n o           3+",
",.n n n o       4+5+6+7+8+(+_+[+[+9+0+a+b+c+d+e+n o             ",
",.n n n o         ++f+g+h+i+j+k+l+m+n+o+p+q+r+s+n o             ",
",.n n n o             t+c j u+v+w+x+y+z+A+B+M.{+n o             ",
"C+n D+E+F+        G+H+I+J+K+L+M+N+O+P+Q+R+S+T+U+V+F+            ",
"n n W++ :         D X+Y+Z+`+ @.@+@@@#@$@%@&@&@*@=@:             ",
"D+-@;@m >@        D j ,@'@X Z )@!@~@{@]@^@/@/@(@_@>@            ",
":@+ :           <@[@}@|@1@2@3@4@5@6@7@8@9@0@a@b@c@              ",
"d@+ :       e@f@g@h@i@j@k@l@m@n@o@p@q@K.r@s@t@u@c@            v@",
"+ + :       w@V.x@y@z@j@j@j@j@A@y.L.y.H.w.V.x.I.c@            B@",
"C@D@>@      E@H.F@y@G@i@H@j@I@J@L.w.K@L@M@N@K.O@P@            Q@",
"&           R@S@T@U@V@W@X@Y@Z@S@S@`@ #.#.#+#S@@#                ",
"##      $#%#%#%#&#*#=#-#;#>#,#.+%#'#)#>#H.!#      $#%#%#%#~#    ",
"        . + + + {#]#^#/#(#_#:#% + + <#[#_#}#      . + + + @     ",
"|#|#|#|#1#2#2#2#3#4#5#6#7#|#|#8#2#2#2#9#|#|#|#|#|#1#2#2#2#3#|#0#"};
