/* XPM */
static char * playerleft1_xpm[] = {
"32 32 386 2",
"  	c #A8D7DE",
". 	c #AAD8DE",
"+ 	c #CFE7E7",
"@ 	c #CDE6E6",
"# 	c #ADD9DF",
"$ 	c #CAE5E6",
"% 	c #A3CCD2",
"& 	c #9FBFC5",
"* 	c #A1C0C6",
"= 	c #BFCDCD",
"- 	c #BCCCCC",
"; 	c #9EBFC5",
"> 	c #A3CCD3",
", 	c #96A5A9",
"' 	c #804646",
") 	c #804546",
"! 	c #804545",
"~ 	c #7F4644",
"{ 	c #7F4645",
"] 	c #95A4AA",
"^ 	c #ACD9DF",
"/ 	c #D4E9E9",
"( 	c #F8F8F8",
"_ 	c #F0F4F5",
": 	c #98B1B6",
"< 	c #88797E",
"[ 	c #88797C",
"} 	c #BC736C",
"| 	c #E36B51",
"1 	c #E36B52",
"2 	c #E26B54",
"3 	c #B24341",
"4 	c #9D6466",
"5 	c #887B7D",
"6 	c #948181",
"7 	c #B8BFBF",
"8 	c #F7F8F8",
"9 	c #EFF4F5",
"0 	c #9FC2C8",
"a 	c #A3ABB0",
"b 	c #A7908E",
"c 	c #A88F8D",
"d 	c #D28174",
"e 	c #F87153",
"f 	c #F77253",
"g 	c #F67254",
"h 	c #CE5045",
"i 	c #B44A45",
"j 	c #904543",
"k 	c #804645",
"l 	c #B8A8A8",
"m 	c #C0D0D0",
"n 	c #CBE5E6",
"o 	c #7F4647",
"p 	c #CCBFBE",
"q 	c #FEFFFE",
"r 	c #F8C8C1",
"s 	c #F77252",
"t 	c #F77254",
"u 	c #DD5E4B",
"v 	c #BE4341",
"w 	c #804644",
"x 	c #7F4546",
"y 	c #C9E4E5",
"z 	c #7E4647",
"A 	c #AB6F6C",
"B 	c #C98B8A",
"C 	c #FDFEFC",
"D 	c #CD4F44",
"E 	c #C54A43",
"F 	c #BE433F",
"G 	c #B14442",
"H 	c #9B4443",
"I 	c #86C9D6",
"J 	c #A1CDD6",
"K 	c #9CC4CF",
"L 	c #724555",
"M 	c #9B5967",
"N 	c #B86874",
"O 	c #F2F1F4",
"P 	c #EDBDBA",
"Q 	c #EC6A50",
"R 	c #EC6A4F",
"S 	c #EB6A51",
"T 	c #BF423F",
"U 	c #BE4240",
"V 	c #BE4241",
"W 	c #A34443",
"X 	c #7E4645",
"Y 	c #82A3B5",
"Z 	c #3D3C77",
"` 	c #3D3C78",
" .	c #8A89AD",
"..	c #B5B5D3",
"+.	c #BA8A9D",
"@.	c #BD4240",
"#.	c #BF4240",
"$.	c #BE423F",
"%.	c #BD4340",
"&.	c #7F4646",
"*.	c #687D9A",
"=.	c #B3B9C4",
"-.	c #E3E3E7",
";.	c #E9E9EE",
">.	c #F0EFF5",
",.	c #F0F0F4",
"'.	c #D7CCD9",
").	c #BCA0B9",
"!.	c #BD4341",
"~.	c #944443",
"{.	c #743635",
"].	c #3D2222",
"^.	c #717C98",
"/.	c #B9BBC6",
"(.	c #E7E7EB",
"_.	c #E7E7EA",
":.	c #C9C9D8",
"<.	c #A8A4C4",
"[.	c #B04442",
"}.	c #B24442",
"|.	c #B24441",
"1.	c #AD403F",
"2.	c #A73D3C",
"3.	c #723E3D",
"4.	c #4F2D2D",
"5.	c #010102",
"6.	c #9DAEBA",
"7.	c #3D3B78",
"8.	c #3C3C78",
"9.	c #3E3B75",
"0.	c #7F4648",
"a.	c #5B3132",
"b.	c #010101",
"c.	c #010001",
"d.	c #000001",
"e.	c #000103",
"f.	c #C2DADC",
"g.	c #74B0C2",
"h.	c #704457",
"i.	c #B29093",
"j.	c #DCBDB7",
"k.	c #DCBDB8",
"l.	c #A18C8D",
"m.	c #1C1A3A",
"n.	c #E3BDB1",
"o.	c #D5A492",
"p.	c #C3866D",
"q.	c #422223",
"r.	c #432324",
"s.	c #432424",
"t.	c #432325",
"u.	c #2C181A",
"v.	c #000000",
"w.	c #81C7D5",
"x.	c #7E4648",
"y.	c #CAA193",
"z.	c #FBD4BE",
"A.	c #FBD3BF",
"B.	c #B79B8D",
"C.	c #FBD4BF",
"D.	c #EAB89E",
"E.	c #D69576",
"F.	c #554436",
"G.	c #775F4A",
"H.	c #654637",
"I.	c #473128",
"J.	c #294349",
"K.	c #3B5E66",
"L.	c #A7D7DE",
"M.	c #7E4646",
"N.	c #CA9778",
"O.	c #FAC697",
"P.	c #FAC597",
"Q.	c #B59172",
"R.	c #FAC699",
"S.	c #EAAF88",
"T.	c #D69577",
"U.	c #B69270",
"V.	c #FBC698",
"W.	c #D79574",
"X.	c #9C6C58",
"Y.	c #020102",
"Z.	c #010100",
"`.	c #5D929C",
" +	c #AFDADF",
".+	c #C9E5E6",
"++	c #7FADBA",
"@+	c #9E9B99",
"#+	c #B17E68",
"$+	c #E3A581",
"%+	c #CD9475",
"&+	c #B57F65",
"*+	c #E2A681",
"=+	c #DD9E7A",
"-+	c #D79576",
";+	c #B77E65",
">+	c #DAA882",
",+	c #FBC598",
"'+	c #D79475",
")+	c #B77D66",
"!+	c #8C5D52",
"~+	c #5D919C",
"{+	c #A9D7DE",
"]+	c #83C8D5",
"^+	c #B4BDBD",
"/+	c #947E7E",
"(+	c #C98A6F",
"_+	c #CA896E",
":+	c #D89475",
"<+	c #D79575",
"[+	c #D89575",
"}+	c #E7AA85",
"|+	c #F4BD92",
"1+	c #C2876B",
"2+	c #AD7761",
"3+	c #956456",
"4+	c #3B5E65",
"5+	c #669EAA",
"6+	c #C9E4E6",
"7+	c #92CDD8",
"8+	c #94CED9",
"9+	c #D7EAEA",
"0+	c #D8EAEA",
"a+	c #7E4747",
"b+	c #7F4643",
"c+	c #D69677",
"d+	c #010103",
"e+	c #AED9DF",
"f+	c #D0E7E7",
"g+	c #B9C5C5",
"h+	c #9E9697",
"i+	c #A3685C",
"j+	c #B28F93",
"k+	c #C1ABBB",
"l+	c #C1AABA",
"m+	c #A48B90",
"n+	c #7F5A4A",
"o+	c #99813E",
"p+	c #B9A04D",
"q+	c #D1BA5C",
"r+	c #4C7881",
"s+	c #6BA6B2",
"t+	c #B0DAE0",
"u+	c #B1DAE0",
"v+	c #F1F5F5",
"w+	c #F0F4F4",
"x+	c #B4CDD0",
"y+	c #A2A4A9",
"z+	c #8F6770",
"A+	c #8D4546",
"B+	c #9E8193",
"C+	c #ADA6C1",
"D+	c #ACA6C1",
"E+	c #7F788C",
"F+	c #B79B4A",
"G+	c #DCC05A",
"H+	c #FBDD6B",
"I+	c #746839",
"J+	c #759593",
"K+	c #75B5C1",
"L+	c #9D8B9F",
"M+	c #B8B4D1",
"N+	c #BB4340",
"O+	c #A24443",
"P+	c #804547",
"Q+	c #5C3130",
"R+	c #B69C4A",
"S+	c #FCDD67",
"T+	c #B7A250",
"U+	c #D8EBEA",
"V+	c #D8EBEB",
"W+	c #C3E1E4",
"X+	c #C1E0E3",
"Y+	c #A1656C",
"Z+	c #BE798A",
"`+	c #974545",
" @	c #BA826B",
".@	c #D9A680",
"+@	c #D8A781",
"@@	c #AD7E66",
"#@	c #673937",
"$@	c #716033",
"%@	c #A58650",
"&@	c #CBA064",
"*@	c #CB9F65",
"=@	c #947649",
"-@	c #000104",
";@	c #97CFD9",
">@	c #CEE6E7",
",@	c #724040",
"'@	c #9E4140",
")@	c #743F40",
"!@	c #C29072",
"~@	c #F4BE92",
"{@	c #F4BE91",
"]@	c #C29073",
"^@	c #734041",
"/@	c #010000",
"(@	c #7A5741",
"_@	c #AB775B",
":@	c #795740",
"<@	c #D9EBEB",
"[@	c #F0F5F5",
"}@	c #C2E1E3",
"|@	c #88302E",
"1@	c #BC4441",
"2@	c #D89574",
"3@	c #847136",
"4@	c #B89B46",
"5@	c #B89B47",
"6@	c #C4E2E4",
"7@	c #CEE7E7",
"8@	c #67A1AC",
"9@	c #6C7980",
"0@	c #752B2B",
"a@	c #322F5E",
"b@	c #664E58",
"c@	c #87604D",
"d@	c #664D58",
"e@	c #312F5E",
"f@	c #010002",
"g@	c #514726",
"h@	c #736331",
"i@	c #736332",
"j@	c #8E968C",
"k@	c #87AEB4",
"l@	c #BEDFE4",
"m@	c #EFF4F4",
"n@	c #C7E4E5",
"o@	c #C6E3E5",
"p@	c #8BCBD7",
"q@	c #65959E",
"r@	c #3E3B79",
"s@	c #2F2D5A",
"t@	c #17172B",
"u@	c #19152E",
"v@	c #302D5A",
"w@	c #3E3B78",
"x@	c #2D4044",
"y@	c #445C61",
"z@	c #5B6767",
"A@	c #9FB4B5",
"B@	c #ACD8DF",
"C@	c #7B9EA3",
"D@	c #3E3C78",
"E@	c #98AAAA",
"F@	c #B7DCE2",
"G@	c #E8F1F2",
"H@	c #C7E3E5",
"I@	c #6D8D91",
"J@	c #826D6F",
"K@	c #953533",
"L@	c #262447",
"M@	c #25244A",
"N@	c #25234A",
"O@	c #6C425B",
"P@	c #6C425C",
"Q@	c #6B425B",
"R@	c #B4DBE1",
"S@	c #43585B",
"T@	c #844D4D",
"U@	c #AF3F3D",
"V@	c #764241",
"W@	c #774140",
"X@	c #764143",
"Y@	c #545E5F",
"Z@	c #A1B4B4",
"`@	c #CCE6E6",
" #	c #7A9DA3",
".#	c #000002",
"+#	c #C3E2E4",
"@#	c #A9D8DE",
"##	c #B3DBE0",
"$#	c #B2DBE0",
"%#	c #98C3C9",
"&#	c #86ACB1",
"*#	c #85ABB1",
"=#	c #88ACB2",
"-#	c #A5B8B8",
";#	c #9EC4CD",
">#	c #A0C5CE",
",#	c #BDD1D4",
"'#	c #BBD0D4",
")#	c #A2C5CE",
"!#	c #B9CFD3",
"~#	c #9DC3CC",
"                          . + + + @           # + + + $         ",
"                      % & * = = = - ; ; >     # + + + $         ",
"                      , ' ) ! ! ) ! ~ { ] ^ + / ( _             ",
"                : < [ } | 1 1 1 1 1 2 3 4 5 6 7 8 9             ",
"              0 a b c d e f f f f f g h i j k l m n             ",
"              o p q q r f f f f f s f t u v w k x y             ",
"              z A B C r f f f f f f t D E F G H x I             ",
"          J K L M N O P Q Q Q Q Q R S T U U V W X I             ",
"          Y Z `  .....+.@.U #.U U U U U U $.%.W &.I             ",
"        *.=.-.-.;.>.,.'.).@.V U U U U U U !.~.{.].I             ",
"        ^./.(.(._._._.:.<.[.}.|.}.}.|.}.1.2.3.4.5.I             ",
"    # # + 6.` 7.` ` ` 8.9.0.k { k k { k a.b.c.d.e.I             ",
"    + + + f.g.h.i.j.k.l.m.n.o.p.q.r.s.t.u.v.v.v.5.I             ",
"    + + $ $ w.x.y.z.A.B.v.C.D.E.v.F.G.H.I.d.v.J.K.I             ",
"    + +   L.w.M.N.O.P.Q.v.R.S.T.v.U.V.W.X.Y.Z.`.w.I             ",
" + +$ .+  L.w.++@+#+$+%+&+*+=+-+;+>+,+'+)+!+v.~+w.I           {+",
"+ +       L.w.]+^+/+(+_+_+:+<+<+[+}+|+1+2+3+4+5+w.I            +",
"6+y         7+8+9+0+a+~ b+-+<+:+:+<+c+v.d.d+w.w.w.I           e+",
"          {++ f+( 8 g+h+k i+j+k+l+m+n+o+p+q+r+s+w.I             ",
"        t+u+9+0+v+w+x+y+z+A+B+C+D+E+v.F+G+H+I+J+K+I             ",
"        + f+( 8 + @ z L+M+N+O+P+' Q+v.R+G+S+S+T+5.I             ",
"    u+u+U+V+v+w+W+X+a+Y+Z+`+ @.@+@@@#@$@%@&@*@=@-@;@            ",
"    + + ( 8 + >@w.w.,@'@v )@!@~@{@]@^@/@(@_@_@:@e.n             ",
"    V+<@[@w+}@X+w.w.d+|@1@v.X.2@[+X./@d.3@4@5@3@e.6@            ",
"  {+( ( + 7@w.w.w.w.8@9@0@a@b@c@c@d@e@f@g@h@i@j@k@              ",
"l@l@w+m@n@o@p@p@p@p@p@q@d.r@s@t@u@v@w@d.x@y@z@A@              B@",
"( ( + +               C@/@D@D@D@` ` Z d.E@+ + n               F@",
"G@G@H@o@            I@J@K@L@M@N@O@P@Q@/@E@7@H@6@              R@",
"                    S@T@U@c.v.v.V@W@X@Y@Z@`@                    ",
"                       #5..#d.d.d.c.d+7@o@+#      @#######$#    ",
"                      %#&#*#*#=#-#-#-#`@          # + + + $     ",
";#;#;#;#;#;#;#;#;#;#;#;#;#;#;#>#,#,#,#'#;#;#;#;#;#)#,#,#,#!#;#~#"};
