/* XPM */
static char * playerright1_xpm[] = {
"32 32 389 2",
"  	c #A8D7DE",
". 	c #AAD8DE",
"+ 	c #CFE7E7",
"@ 	c #CDE6E6",
"# 	c #ADD9DF",
"$ 	c #CAE5E6",
"% 	c #A3CCD3",
"& 	c #9EBFC5",
"* 	c #A1C0C6",
"= 	c #BFCDCD",
"- 	c #BCCCCC",
"; 	c #9FBFC5",
"> 	c #A3CCD2",
", 	c #95A4AA",
"' 	c #7F4645",
") 	c #7F4644",
"! 	c #804545",
"~ 	c #804546",
"{ 	c #804646",
"] 	c #95A4A9",
"^ 	c #ACD9DF",
"/ 	c #D4E9E9",
"( 	c #F8F8F8",
"_ 	c #F0F4F5",
": 	c #98B0B6",
"< 	c #887A7D",
"[ 	c #877A7D",
"} 	c #9D6466",
"| 	c #B24341",
"1 	c #E26B54",
"2 	c #E36B52",
"3 	c #E36B51",
"4 	c #BC736B",
"5 	c #88797C",
"6 	c #897A7E",
"7 	c #B5BDBD",
"8 	c #D5E9E9",
"9 	c #F7F8F8",
"0 	c #EFF4F5",
"a 	c #9FC2C8",
"b 	c #919599",
"c 	c #804645",
"d 	c #904543",
"e 	c #B44A45",
"f 	c #CE5045",
"g 	c #F67254",
"h 	c #F77253",
"i 	c #F87153",
"j 	c #D28174",
"k 	c #A88F8D",
"l 	c #A7908E",
"m 	c #C8BDBE",
"n 	c #E0DDDD",
"o 	c #CBE5E6",
"p 	c #7F4546",
"q 	c #804644",
"r 	c #BE4341",
"s 	c #DD5E4B",
"t 	c #F77254",
"u 	c #F77252",
"v 	c #F8C8C1",
"w 	c #FEFFFE",
"x 	c #CCBFBE",
"y 	c #7F4647",
"z 	c #C9E4E5",
"A 	c #9B4443",
"B 	c #B14442",
"C 	c #BE433F",
"D 	c #C54A43",
"E 	c #CD4F44",
"F 	c #FDFEFC",
"G 	c #C98B8A",
"H 	c #AB6F6C",
"I 	c #7E4647",
"J 	c #81C7D5",
"K 	c #86C9D6",
"L 	c #7E4645",
"M 	c #A34443",
"N 	c #BE4241",
"O 	c #BE4240",
"P 	c #BF423F",
"Q 	c #EB6A51",
"R 	c #EC6A4F",
"S 	c #EC6A50",
"T 	c #EDBDBA",
"U 	c #F2F1F4",
"V 	c #B86874",
"W 	c #9B5967",
"X 	c #724555",
"Y 	c #77B5C6",
"Z 	c #80C0CF",
"` 	c #A9D7DE",
" .	c #7F4646",
"..	c #BD4340",
"+.	c #BE423F",
"@.	c #BF4240",
"#.	c #BD4240",
"$.	c #BA8A9D",
"%.	c #B5B5D3",
"&.	c #8A89AD",
"*.	c #3D3C78",
"=.	c #3D3C77",
"-.	c #6A99B0",
";.	c #ACD8DF",
">.	c #3D2222",
",.	c #743635",
"'.	c #944443",
").	c #BD4341",
"!.	c #BCA0B9",
"~.	c #D7CCD9",
"{.	c #F0F0F4",
"].	c #F0EFF5",
"^.	c #E9E9EE",
"/.	c #E3E3E7",
"(.	c #AFB7C3",
"_.	c #667C9A",
":.	c #010102",
"<.	c #4F2D2D",
"[.	c #723E3D",
"}.	c #A73D3C",
"|.	c #AD403F",
"1.	c #B24442",
"2.	c #B24441",
"3.	c #B04442",
"4.	c #A8A4C4",
"5.	c #C9C9D8",
"6.	c #E7E7EA",
"7.	c #E7E7EB",
"8.	c #B2B7C4",
"9.	c #607594",
"0.	c #000103",
"a.	c #000001",
"b.	c #010001",
"c.	c #010101",
"d.	c #5B3132",
"e.	c #7F4648",
"f.	c #3E3B75",
"g.	c #3C3C78",
"h.	c #3D3B78",
"i.	c #6999AF",
"j.	c #CEE7E7",
"k.	c #000000",
"l.	c #2C181A",
"m.	c #432325",
"n.	c #432424",
"o.	c #432324",
"p.	c #422223",
"q.	c #C3866D",
"r.	c #D5A492",
"s.	c #E3BDB1",
"t.	c #1C1A3A",
"u.	c #A18C8D",
"v.	c #DCBDB8",
"w.	c #DCBDB7",
"x.	c #B29093",
"y.	c #704457",
"z.	c #74B0C2",
"A.	c #7FBECD",
"B.	c #3B5E66",
"C.	c #294349",
"D.	c #473128",
"E.	c #654637",
"F.	c #775F4A",
"G.	c #554436",
"H.	c #D69576",
"I.	c #EAB89E",
"J.	c #FBD4BF",
"K.	c #B79B8D",
"L.	c #FBD3BF",
"M.	c #FBD4BE",
"N.	c #CAA193",
"O.	c #7E4648",
"P.	c #A7D7DE",
"Q.	c #5D929C",
"R.	c #010100",
"S.	c #020102",
"T.	c #9C6C58",
"U.	c #D79574",
"V.	c #FBC698",
"W.	c #B69270",
"X.	c #D69577",
"Y.	c #EAAF88",
"Z.	c #FAC699",
"`.	c #B59172",
" +	c #FAC597",
".+	c #FAC697",
"++	c #CA9778",
"@+	c #7E4646",
"#+	c #AFDADF",
"$+	c #C9E5E6",
"%+	c #5D919C",
"&+	c #8C5D52",
"*+	c #B77D66",
"=+	c #D79475",
"-+	c #FBC598",
";+	c #DAA882",
">+	c #B77E65",
",+	c #D79576",
"'+	c #DD9E7A",
")+	c #E2A681",
"!+	c #B57F65",
"~+	c #CD9475",
"{+	c #E3A581",
"]+	c #B17E68",
"^+	c #999998",
"/+	c #7FADBA",
"(+	c #679FAA",
"_+	c #626E6E",
":+	c #956456",
"<+	c #AD7761",
"[+	c #C2876B",
"}+	c #F4BD92",
"|+	c #E7AA85",
"1+	c #D89575",
"2+	c #D79575",
"3+	c #D89475",
"4+	c #CA896E",
"5+	c #C98A6F",
"6+	c #7A6B73",
"7+	c #7EA4AF",
"8+	c #C9E4E6",
"9+	c #92CDD8",
"0+	c #94CED9",
"a+	c #D7EAEA",
"b+	c #010103",
"c+	c #D69677",
"d+	c #7F4643",
"e+	c #7E4747",
"f+	c #60B9CE",
"g+	c #AED9DF",
"h+	c #AEC1C1",
"i+	c #979797",
"j+	c #D1BA5C",
"k+	c #B9A04D",
"l+	c #99813E",
"m+	c #7F5A4A",
"n+	c #A48B90",
"o+	c #C1AABA",
"p+	c #C1ABBB",
"q+	c #B28F93",
"r+	c #A3685C",
"s+	c #757C89",
"t+	c #679DB0",
"u+	c #B0DAE0",
"v+	c #B1DAE0",
"w+	c #C3D4D5",
"x+	c #A3AAA1",
"y+	c #746839",
"z+	c #FBDD6B",
"A+	c #DCC05A",
"B+	c #B79B4A",
"C+	c #7F788C",
"D+	c #ACA6C1",
"E+	c #ADA6C1",
"F+	c #9E8193",
"G+	c #8D4546",
"H+	c #8F6770",
"I+	c #798D9D",
"J+	c #60A9BD",
"K+	c #D0E7E7",
"L+	c #B7A250",
"M+	c #FCDD67",
"N+	c #B69C4A",
"O+	c #5C3130",
"P+	c #804547",
"Q+	c #A24443",
"R+	c #BB4340",
"S+	c #B8B4D1",
"T+	c #9D8B9F",
"U+	c #D8EBEA",
"V+	c #D8EBEB",
"W+	c #000104",
"X+	c #947649",
"Y+	c #CB9F65",
"Z+	c #CBA064",
"`+	c #A58650",
" @	c #716033",
".@	c #673937",
"+@	c #AD7E66",
"@@	c #D8A781",
"#@	c #D9A680",
"$@	c #BA826B",
"%@	c #974545",
"&@	c #BE798A",
"*@	c #A1656C",
"=@	c #68BCCF",
"-@	c #83C8D5",
";@	c #95CED9",
">@	c #97CFD9",
",@	c #795740",
"'@	c #AB775B",
")@	c #7A5741",
"!@	c #010000",
"~@	c #734041",
"{@	c #C29073",
"]@	c #F4BE91",
"^@	c #F4BE92",
"/@	c #C29072",
"(@	c #743F40",
"_@	c #9E4140",
":@	c #724040",
"<@	c #8CCBD7",
"[@	c #D9EBEB",
"}@	c #F0F5F5",
"|@	c #F0F4F4",
"1@	c #847136",
"2@	c #B89B47",
"3@	c #B89B46",
"4@	c #D89574",
"5@	c #BC4441",
"6@	c #88302E",
"7@	c #96CED9",
"8@	c #9CD1DA",
"9@	c #C8E4E5",
"0@	c #C4E2E4",
"a@	c #67A1AC",
"b@	c #6D8682",
"c@	c #736332",
"d@	c #736331",
"e@	c #514726",
"f@	c #010002",
"g@	c #312F5E",
"h@	c #664D58",
"i@	c #87604D",
"j@	c #664E58",
"k@	c #322F5E",
"l@	c #752B2B",
"m@	c #6C7980",
"n@	c #8BCAD7",
"o@	c #BEDFE4",
"p@	c #EFF4F4",
"q@	c #C7E4E5",
"r@	c #C6E3E5",
"s@	c #8BCBD7",
"t@	c #6CA0A9",
"u@	c #3B5A60",
"v@	c #3B5A5F",
"w@	c #283F43",
"x@	c #3E3B78",
"y@	c #302D5A",
"z@	c #19152E",
"A@	c #17172B",
"B@	c #2F2D5A",
"C@	c #3E3B79",
"D@	c #66959E",
"E@	c #9DD1DB",
"F@	c #7B9EA3",
"G@	c #3E3C78",
"H@	c #7E9FA4",
"I@	c #B7DCE2",
"J@	c #E8F1F2",
"K@	c #C7E3E5",
"L@	c #6B425B",
"M@	c #6C425C",
"N@	c #6C425B",
"O@	c #25234A",
"P@	c #25244A",
"Q@	c #262447",
"R@	c #953533",
"S@	c #856F71",
"T@	c #879798",
"U@	c #B4DBE1",
"V@	c #82A8AD",
"W@	c #42575B",
"X@	c #764143",
"Y@	c #774140",
"Z@	c #764241",
"`@	c #AF3F3D",
" #	c #885150",
".#	c #545F5F",
"+#	c #CCE6E6",
"@#	c #000002",
"##	c #97A9A9",
"$#	c #C3E2E4",
"%#	c #A9D8DE",
"&#	c #B3DBE0",
"*#	c #B2DBE0",
"=#	c #85ABB1",
"-#	c #88ACB2",
";#	c #A5B8B8",
">#	c #A5B9B9",
",#	c #B9D0D0",
"'#	c #9EC4CD",
")#	c #A0C5CE",
"!#	c #BDD1D4",
"~#	c #BBD0D4",
"{#	c #A2C5CE",
"]#	c #B9CFD3",
"^#	c #9DC3CC",
"                          . + + + @           # + + + $         ",
"                    % & & * = = = - ; >       # + + + $         ",
"                    , ' ) ! ~ ! ! ~ { ]   ^ + / ( _             ",
"              : < [ } | 1 2 2 2 2 2 3 4 5 6 7 8 9 0             ",
"            a b c d e f g h h h h h i j k l m n + o             ",
"            p c q r s t h u h h h h h v w w x y @ z             ",
"            p A B C D E t h h h h h h v F G H I J K             ",
"            L M N O O P Q R S S S S S T U V W X Y Z             ",
"          `  .M ..+.O O O O O O @.O #.$.%.%.&.*.=.-.            ",
"        ;.^ >.,.'.).O O O O O O N #.!.~.{.].^././.(._.          ",
"        + + :.<.[.}.|.1.2.1.1.2.1.3.4.5.6.6.6.7.7.8.9.          ",
"    # # + + 0.a.b.c.d.c ' c c ' c e.f.g.*.*.*.h.*.i.            ",
"    + + + j.:.k.k.k.l.m.n.o.p.q.r.s.t.u.v.w.x.y.z.A.            ",
"    + + $ $ B.C.k.a.D.E.F.G.k.H.I.J.k.K.L.M.N.O.J K             ",
"    + +   P.J Q.R.S.T.U.V.W.k.X.Y.Z.k.`. +.+++@+J K             ",
"#+#+$ $+  P.J %+k.&+*+=+-+;+>+,+'+)+!+~+{+]+^+/+J K           ` ",
"+ +       P.J (+_+:+<+[+}+|+1+2+2+3+4+4+5+6+7+J J K           #+",
"8+z         9+0+a+b+a.k.c+2+3+3+2+,+d+) e+f+J J J K           g+",
"          ` + h+i+j+k+l+m+n+o+p+q+r+c s+t+f+J J J K             ",
"        u+v+w+x+y+z+A+B+k.C+D+E+F+G+H+I+J+f+J J J K             ",
"        + K+:.L+M+M+A+N+k.O+{ P+Q+R+S+T+I f+J J J K             ",
"    v+v+U+V+W+X+Y+Z+`+ @.@+@@@#@$@%@&@*@e+=@J -@;@>@            ",
"    + + ( 9 0.,@'@'@)@!@~@{@]@^@/@(@r _@:@J J <@+ o             ",
"    V+[@}@|@0.1@2@3@1@a.!@T.1+4@T.k.5@6@b+-@7@8@9@0@            ",
"  ` ( ( + j.a@b@c@d@e@f@g@h@i@i@j@k@l@m@a@n@+ o                 ",
"o@o@|@p@q@r@s@t@u@v@w@a.x@y@z@A@B@C@a.D@>@E@+ o               ;.",
"( ( + +             F@a.=.*.*.G@G@G@!@H@+ + + o               I@",
"J@J@K@r@            F@!@L@M@N@O@P@Q@R@S@T@j.K@0@              U@",
"                    V@W@X@Y@Z@k.k.b.`@ #.#+#                    ",
"                        b+b.a.a.a.@#:.##r@$#      %#&#&#&#*#    ",
"                        =#=#=#-#;#;#>#,#          # + + + $     ",
"'#'#'#'#'#'#'#'#'#'#'#'#'#'#'#)#!#!#!#~#'#'#'#'#'#{#!#!#!#]#'#^#"};
