/* XPM */
static char * playerdown1_xpm[] = {
"32 32 303 2",
"  	c #A8D7DE",
". 	c #AAD8DE",
"+ 	c #CFE7E7",
"@ 	c #CDE6E6",
"# 	c #ADD9DF",
"$ 	c #CAE5E6",
"% 	c #9EC6CD",
"& 	c #9DC6CE",
"* 	c #9DC7CE",
"= 	c #A0C7CE",
"- 	c #C0D5D6",
"; 	c #BDD4D5",
"> 	c #9DC6CD",
", 	c #7E4648",
"' 	c #7F4646",
") 	c #804646",
"! 	c #7E4647",
"~ 	c #D4E9E9",
"{ 	c #F8F8F8",
"] 	c #F0F4F5",
"^ 	c #9CB9BF",
"/ 	c #909297",
"( 	c #A94441",
"_ 	c #C15548",
": 	c #D5654E",
"< 	c #A39C9C",
"[ 	c #BDC8C8",
"} 	c #F7F8F8",
"| 	c #EFF4F5",
"1 	c #9EC7CF",
"2 	c #949A9F",
"3 	c #8D4544",
"4 	c #C84F45",
"5 	c #E2624E",
"6 	c #F77253",
"7 	c #BDAEAE",
"8 	c #C2D6D6",
"9 	c #CBE5E6",
"0 	c #7C4748",
"a 	c #A24442",
"b 	c #BE4240",
"c 	c #F67253",
"d 	c #BE4241",
"e 	c #A24443",
"f 	c #7D4747",
"g 	c #C9E4E5",
"h 	c #7E4746",
"i 	c #A34442",
"j 	c #BE4140",
"k 	c #86C9D6",
"l 	c #ABD8DF",
"m 	c #BE423F",
"n 	c #EF6C52",
"o 	c #F26F51",
"p 	c #F26F52",
"q 	c #A34443",
"r 	c #A9D7DE",
"s 	c #7E4646",
"t 	c #DD5D4B",
"u 	c #F87252",
"v 	c #ACD8DF",
"w 	c #ACD9DF",
"x 	c #4C2E30",
"y 	c #923A38",
"z 	c #CA4F45",
"A 	c #D6594A",
"B 	c #D7594A",
"C 	c #CAE1E1",
"D 	c #C6DBDB",
"E 	c #4E3B33",
"F 	c #873E3B",
"G 	c #AF3F3E",
"H 	c #B74140",
"I 	c #AE403E",
"J 	c #AF3F3F",
"K 	c #9F4C48",
"L 	c #8E5751",
"M 	c #83BECB",
"N 	c #A4D2D9",
"O 	c #ADAFB0",
"P 	c #7E4644",
"Q 	c #D89477",
"R 	c #9B6D56",
"S 	c #000000",
"T 	c #BD4341",
"U 	c #88302F",
"V 	c #030101",
"W 	c #9D6C56",
"X 	c #D79578",
"Y 	c #7F4645",
"Z 	c #94A4AA",
"` 	c #ABB0B0",
" .	c #7F4644",
"..	c #D79576",
"+.	c #B27C63",
"@.	c #82584B",
"#.	c #742D2D",
"$.	c #762D2B",
"%.	c #752D2B",
"&.	c #9B4545",
"*.	c #813F3F",
"=.	c #633737",
"-.	c #742E2D",
";.	c #82574C",
">.	c #B27B63",
",.	c #804545",
"'.	c #93A4AA",
").	c #ACB5B6",
"!.	c #7F5F62",
"~.	c #D08F73",
"{.	c #C0826A",
"].	c #AD7361",
"^.	c #000001",
"/.	c #774344",
"(.	c #784343",
"_.	c #784342",
":.	c #794342",
"<.	c #BF826B",
"[.	c #D18F73",
"}.	c #7F5F63",
"|.	c #94ABB1",
"1.	c #A7D7DE",
"2.	c #81C7D5",
"3.	c #B37662",
"4.	c #D69578",
"5.	c #010101",
"6.	c #010100",
"7.	c #020001",
"8.	c #010000",
"9.	c #D59678",
"0.	c #B27662",
"a.	c #7E4747",
"b.	c #AFDADF",
"c.	c #C9E5E6",
"d.	c #7FA3AE",
"e.	c #9A8F90",
"f.	c #A96F5E",
"g.	c #613736",
"h.	c #452627",
"i.	c #958C8E",
"j.	c #83C8D5",
"k.	c #AAAFAF",
"l.	c #794444",
"m.	c #593234",
"n.	c #1D1010",
"o.	c #1D1110",
"p.	c #794544",
"q.	c #7C98A2",
"r.	c #C9E4E6",
"s.	c #92CDD8",
"t.	c #94CED9",
"u.	c #9EACAC",
"v.	c #020000",
"w.	c #010001",
"x.	c #5A3232",
"y.	c #5D929C",
"z.	c #AED9DF",
"A.	c #8A9A9A",
"B.	c #8B969F",
"C.	c #637F97",
"D.	c #5B3231",
"E.	c #522C2E",
"F.	c #512C2E",
"G.	c #7F4647",
"H.	c #637F96",
"I.	c #5C8293",
"J.	c #54848E",
"K.	c #B0DAE0",
"L.	c #B0D8DE",
"M.	c #D4E6E6",
"N.	c #362C24",
"O.	c #60778F",
"P.	c #799FC1",
"Q.	c #573133",
"R.	c #7A4645",
"S.	c #251F13",
"T.	c #312F2B",
"U.	c #3A3A3A",
"V.	c #251F12",
"W.	c #7A4646",
"X.	c #799FC2",
"Y.	c #352D25",
"Z.	c #85C6D3",
"`.	c #A7D5DC",
" +	c #7E4545",
".+	c #F9C69A",
"++	c #BA968C",
"@+	c #3D3D76",
"#+	c #020101",
"$+	c #B59C4B",
"%+	c #DCD4BE",
"&+	c #FEFFFD",
"*+	c #FEFEFD",
"=+	c #B9968C",
"-+	c #F9C69B",
";+	c #7D4545",
">+	c #93A5AA",
",+	c #B1DAE0",
"'+	c #D8EBEA",
")+	c #B2B3B3",
"!+	c #7F4544",
"~+	c #E6AC85",
"{+	c #CA9581",
"]+	c #A97B7D",
"^+	c #5A3F37",
"/+	c #7E564A",
"(+	c #E3C561",
"_+	c #EFD992",
":+	c #FAECB8",
"<+	c #7F4545",
"[+	c #C5BEBE",
"}+	c #804E4E",
"|+	c #D69477",
"1+	c #D39577",
"2+	c #D19579",
"3+	c #00000A",
"4+	c #794F45",
"5+	c #A66E5A",
"6+	c #FBDA6F",
"7+	c #FBDA6D",
"8+	c #D69478",
"9+	c #814E4D",
"0+	c #94A6AC",
"a+	c #D8EBEB",
"b+	c #D9EBEB",
"c+	c #F0F5F5",
"d+	c #F0F4F4",
"e+	c #C2E1E3",
"f+	c #5C3132",
"g+	c #3E3D75",
"h+	c #80596B",
"i+	c #A76E5E",
"j+	c #A66E5C",
"k+	c #A76E5A",
"l+	c #A76E5B",
"m+	c #C4E2E4",
"n+	c #CEE7E7",
"o+	c #7EA0AB",
"p+	c #5B747D",
"q+	c #3D3C77",
"r+	c #604A71",
"s+	c #78566A",
"t+	c #B18855",
"u+	c #B18952",
"v+	c #B08951",
"w+	c #B18951",
"x+	c #785669",
"y+	c #808687",
"z+	c #97ACB2",
"A+	c #BEDFE4",
"B+	c #EFF4F4",
"C+	c #C7E4E5",
"D+	c #C6E3E5",
"E+	c #8BCBD7",
"F+	c #65959E",
"G+	c #423B73",
"H+	c #3F3B77",
"I+	c #3D3C73",
"J+	c #B49A58",
"K+	c #B49A54",
"L+	c #B59A53",
"M+	c #3D3B74",
"N+	c #95A8A9",
"O+	c #7B9EA3",
"P+	c #7D474A",
"Q+	c #634162",
"R+	c #3F3B74",
"S+	c #3E3C73",
"T+	c #3F3B73",
"U+	c #B7DCE2",
"V+	c #E8F1F2",
"W+	c #C7E3E5",
"X+	c #734453",
"Y+	c #654260",
"Z+	c #65425F",
"`+	c #4E365A",
" @	c #282950",
".@	c #90A6A8",
"+@	c #B4DBE1",
"@@	c #7A9DA3",
"#@	c #000002",
"$@	c #7C4846",
"%@	c #7D4746",
"&@	c #5A3231",
"*@	c #010205",
"=@	c #000003",
"-@	c #010002",
";@	c #B3DBE0",
">@	c #84A2A5",
",@	c #A9D8DE",
"'@	c #B2DBE0",
")@	c #7CA0A5",
"!@	c #94BEC4",
"~@	c #B7CCCC",
"{@	c #99ACAC",
"]@	c #97ABAB",
"^@	c #9EC4CD",
"/@	c #A0C5CE",
"(@	c #BDD1D4",
"_@	c #BBD0D4",
":@	c #A2C5CE",
"<@	c #B9CFD3",
"[@	c #9DC3CC",
"                          . + + + @           # + + + $         ",
"                    % & * = - - - ; > > & >   # + + + $         ",
"                    , ' ' ) ) ) ) ) ) ' ' ! + ~ { ]             ",
"                ^ / ( _ : : : : : : : : _ ( < [ } |             ",
"              1 2 3 4 5 6 6 6 6 6 6 6 6 5 4 3 7 8 9             ",
"              0 a b c 6 6 6 6 6 6 6 6 6 6 c d e f g             ",
"              h i b c 6 6 6 6 6 6 6 6 6 6 c j i h k             ",
"            l ! i m n o 6 6 6 6 6 6 6 6 p n m q h k             ",
"          r + s e b b t u 6 6 6 6 6 6 u t b d i h k             ",
"        v w + x y b b z A B B B B B B B z b d i h k             ",
"        + C D E F G b b b b H I I H b b b m J K L M N           ",
"    # # + O P Q R S T b b b U V V U b b b T S W X Y Z           ",
"    + + + `  ...+.@.#.$.%.&.*.=.=.*.&.%.$.-.;.>...,.'.          ",
"    + + $ ).!.~.{.].S ^.S /.(._.:.(./.S ^.S ].<.[.}.|.          ",
"    + +   1.2.' 3.4.S 5.6.7.6.6.8.8.7.6.5.S 9.0.a.k             ",
"b.b.$ c.  1.2.d.e.f.g.h.6.6.8.8.8.8.6.6.h.g.f.i.d.k           r ",
"+ +       1.2.j.k.l.l.m.n.n.n.n.n.n.n.o.m.p.l.q.2.k           b.",
"r.g         s.t.u.v.w.x.s ' s s s s s ' x.8.v.y.2.k           z.",
"          r + A.B.C.S D.! E.F.E.E.F.E.G.D.S H.I.J.k             ",
"        K.L.M.N.O.P.S Q.R.S.T.U.U.T.V.W.Q.S X.O.Y.Z.`.          ",
"        + O  +.+++@+8.#+S $+%+&+*+%+$+S #+8.@+=+-+;+>+          ",
"    ,+,+'+)+!+~+{+]+S ^+/+(+_+:+:+_+(+/+^+S ]+{+~+<+Z           ",
"    + + { [+}+|+1+2+3+4+5+6+7+7+7+7+6+5+4+3+2+1+8+9+0+          ",
"    a+b+c+d+e+s f+v.g+h+i+j+k+k+l+l+j+i+h+g+v.f+s m+            ",
"  r { { + n+2.o+p+S q+r+s+t+u+v+w+u+t+x+r+q+S y+z+              ",
"A+A+d+B+C+D+E+E+F+^.G+H+I+J+K+L+L+K+J+M+H+G+S N+              v ",
"{ { + +         O+S P+Q+q+R+S+T+R+T+R+q+Q+P+S N+              U+",
"V+V+W+D+        O+^.' X+Y+Z+`+ @ @`+Z+Y+X+' ^..@              +@",
"                @@#@$@%@%@%@&@5.*@x.%@%@%@$@=@@@                ",
"                    -@S 8.S O+r ;@>@S S S -@      ,@;@;@;@'@    ",
"                    )@)@)@)@!@l + ~@{@]@)@)@      # + + + $     ",
"^@^@^@^@^@^@^@^@^@^@^@^@^@^@^@/@(@(@(@_@^@^@^@^@^@:@(@(@(@<@^@[@"};
