/* XPM */
static char * playerright3_xpm[] = {
"32 32 403 2",
"  	c #A8D7DE",
". 	c #AAD8DE",
"+ 	c #CFE7E7",
"@ 	c #CDE6E6",
"# 	c #ABD8DF",
"$ 	c #CCE6E6",
"% 	c #96ADB3",
"& 	c #876C6F",
"* 	c #876C6E",
"= 	c #886C6E",
"- 	c #886C6F",
"; 	c #ACD9DF",
"> 	c #9FC6CD",
", 	c #9AB1B6",
"' 	c #998A8D",
") 	c #9A4543",
"! 	c #B75C4E",
"~ 	c #B75C4D",
"{ 	c #B75B4D",
"] 	c #A99090",
"^ 	c #9CB2B7",
"/ 	c #B6BEBE",
"( 	c #C3D4D4",
"_ 	c #CEE7E7",
": 	c #A9D7DE",
"< 	c #ADD9DF",
"[ 	c #94A4AA",
"} 	c #804645",
"| 	c #804644",
"1 	c #A34443",
"2 	c #BE433E",
"3 	c #F67255",
"4 	c #F77253",
"5 	c #F67253",
"6 	c #C65F4E",
"7 	c #7F4645",
"8 	c #ABAFB0",
"9 	c #ACD8DF",
"0 	c #D4E9E9",
"a 	c #867174",
"b 	c #835F61",
"c 	c #B54340",
"d 	c #D65A49",
"e 	c #EF6C50",
"f 	c #F77252",
"g 	c #F0BAB2",
"h 	c #EEEBEB",
"i 	c #C6BCBC",
"j 	c #857174",
"k 	c #A7D6DE",
"l 	c #A7D7DE",
"m 	c #D1E8E8",
"n 	c #D5E9E9",
"o 	c #7E4646",
"p 	c #8D4545",
"q 	c #994543",
"r 	c #BD4341",
"s 	c #D25547",
"t 	c #E4634D",
"u 	c #F67254",
"v 	c #F8C8C1",
"w 	c #FEFEFE",
"x 	c #E3D0CF",
"y 	c #BA9E9D",
"z 	c #7F4646",
"A 	c #81C7D5",
"B 	c #89C9D6",
"C 	c #D3E9E9",
"D 	c #F8F8F8",
"E 	c #F5F6F6",
"F 	c #BE4240",
"G 	c #BE4241",
"H 	c #BE423F",
"I 	c #F77153",
"J 	c #F8C7C0",
"K 	c #FEFEFC",
"L 	c #BB413E",
"M 	c #A14443",
"N 	c #7E4648",
"O 	c #87C9D6",
"P 	c #8FCCD7",
"Q 	c #D2E8E8",
"R 	c #F6F7F7",
"S 	c #F2F5F5",
"T 	c #A34442",
"U 	c #CA4E46",
"V 	c #C94E45",
"W 	c #CA4E45",
"X 	c #C94E46",
"Y 	c #C798A5",
"Z 	c #C5C5DA",
"` 	c #B5A6C0",
" .	c #8E7F9F",
"..	c #4C3E71",
"+.	c #526B8F",
"@.	c #A8BBC4",
"#.	c #F5F7F7",
"$.	c #C9E4E5",
"%.	c #64393A",
"&.	c #8E3E3D",
"*.	c #AC4241",
"=.	c #BE433F",
"-.	c #BE7885",
";.	c #C8ADBA",
">.	c #D3D3E3",
",.	c #BDBECF",
"'.	c #A6A6B6",
").	c #A7A6B6",
"!.	c #ACB5C1",
"~.	c #B4C4CC",
"{.	c #C8E3E5",
"].	c #C3E1E3",
"^.	c #000104",
"/.	c #5A3330",
"(.	c #824545",
"_.	c #BB4241",
":.	c #B8B4D1",
"<.	c #DDDDE9",
"[.	c #FFFFFE",
"}.	c #BFBFC9",
"|.	c #3E3C79",
"1.	c #5CB7CD",
"2.	c #60B9CE",
"3.	c #C8E4E5",
"4.	c #000102",
"5.	c #221514",
"6.	c #351F20",
"7.	c #4B2123",
"8.	c #713738",
"9.	c #8D4645",
"0.	c #8C4645",
"a.	c #8B4647",
"b.	c #666290",
"c.	c #747497",
"d.	c #84839D",
"e.	c #84839E",
"f.	c #83839D",
"g.	c #BABAC6",
"h.	c #DCE0E4",
"i.	c #C6E2E4",
"j.	c #C0DFE3",
"k.	c #000103",
"l.	c #010101",
"m.	c #000000",
"n.	c #010100",
"o.	c #49292A",
"p.	c #683A3A",
"q.	c #A26A5B",
"r.	c #AD7C71",
"s.	c #B58C86",
"t.	c #33315F",
"u.	c #766A84",
"v.	c #9D8A9E",
"w.	c #816C87",
"x.	c #573F6A",
"y.	c #9D9DAF",
"z.	c #AFC3CA",
"A.	c #CAE5E6",
"B.	c #020203",
"C.	c #010102",
"D.	c #000001",
"E.	c #010001",
"F.	c #D69576",
"G.	c #EABAA4",
"H.	c #FCD6C8",
"I.	c #B89E91",
"J.	c #FCD7C7",
"K.	c #CBA399",
"L.	c #7E4647",
"M.	c #F1F5F5",
"N.	c #C5E1E4",
"O.	c #BFDFE2",
"P.	c #74B4C1",
"Q.	c #54848D",
"R.	c #010000",
"S.	c #8A6350",
"T.	c #C0876C",
"U.	c #E2B38D",
"V.	c #A38469",
"W.	c #D69678",
"X.	c #EAB18D",
"Y.	c #F9CAA3",
"Z.	c #B69478",
"`.	c #FAC9A1",
" +	c #FAC9A0",
".+	c #C99A80",
"++	c #CAE4E6",
"@+	c #5BB7CD",
"#+	c #AFDADF",
"$+	c #C9E5E6",
"%+	c #69969F",
"&+	c #584039",
"*+	c #A6755E",
"=+	c #D69574",
"-+	c #FBC698",
";+	c #C69C79",
">+	c #785746",
",+	c #D79576",
"'+	c #E5A883",
")+	c #F1B990",
"!+	c #765649",
"~+	c #C09275",
"{+	c #F1B98E",
"]+	c #DEAB88",
"^+	c #C8A292",
"/+	c #978D8F",
"(+	c #BFDEE2",
"_+	c #83C8D5",
":+	c #97A9A9",
"<+	c #A66F5E",
"[+	c #C1836A",
"}+	c #D79474",
"|+	c #FAC698",
"1+	c #E9B087",
"2+	c #D79575",
"3+	c #D89575",
"4+	c #D89577",
"5+	c #7F4644",
"6+	c #AAAEAF",
"7+	c #C9E4E6",
"8+	c #92CDD8",
"9+	c #94CED9",
"0+	c #CDDFDF",
"a+	c #C4D4D4",
"b+	c #4A342E",
"c+	c #573F35",
"d+	c #60473B",
"e+	c #DEA07F",
"f+	c #DB9B7A",
"g+	c #965C53",
"h+	c #965D54",
"i+	c #955D53",
"j+	c #B6CDCF",
"k+	c #B8D5D9",
"l+	c #D0E7E7",
"m+	c #E9E9E9",
"n+	c #D7D8D8",
"o+	c #887A45",
"p+	c #776939",
"q+	c #60542E",
"r+	c #B7836A",
"s+	c #C39180",
"t+	c #CE9E95",
"u+	c #C99282",
"v+	c #C4856D",
"w+	c #804545",
"x+	c #8D6F70",
"y+	c #978A8A",
"z+	c #B0DAE0",
"A+	c #B1DAE0",
"B+	c #D7EAEA",
"C+	c #D8EAEA",
"D+	c #B1B4B4",
"E+	c #FBDE6B",
"F+	c #DDC05A",
"G+	c #B89B4A",
"H+	c #858499",
"I+	c #B5B4D2",
"J+	c #B5B5D2",
"K+	c #9E8BA0",
"L+	c #A3A9AB",
"M+	c #BEDEE2",
"N+	c #79797A",
"O+	c #AFA46E",
"P+	c #E1C867",
"Q+	c #FBDD69",
"R+	c #DCC05A",
"S+	c #B79B4A",
"T+	c #85849A",
"U+	c #B6B5D2",
"V+	c #8D6876",
"W+	c #875960",
"X+	c #7F4545",
"Y+	c #B0A4BE",
"Z+	c #938C9E",
"`+	c #736C77",
" @	c #D8EBEA",
".@	c #D8EBEB",
"+@	c #010103",
"@@	c #AB9350",
"#@	c #EBC868",
"$@	c #CAAC5A",
"%@	c #9F8947",
"&@	c #592322",
"*@	c #8B788A",
"=@	c #AEA1B9",
"-@	c #A77663",
";@	c #A97662",
">@	c #ADA2B9",
",@	c #997D8E",
"'@	c #804647",
")@	c #59A5B7",
"!@	c #5FB0C3",
"~@	c #65BACF",
"{@	c #68BCCF",
"]@	c #F7F8F8",
"^@	c #784F45",
"/@	c #A86D5E",
"(@	c #765044",
"_@	c #BC4342",
":@	c #7F4543",
"<@	c #FBC699",
"[@	c #FBC598",
"}@	c #FAC699",
"|@	c #000002",
"1@	c #5D919C",
"2@	c #D9EBEB",
"3@	c #F0F5F5",
"4@	c #F0F4F4",
"5@	c #C2E1E3",
"6@	c #010002",
"7@	c #816A3B",
"8@	c #B5924E",
"9@	c #B5934E",
"0@	c #816A3A",
"a@	c #55211F",
"b@	c #472121",
"c@	c #381E1E",
"d@	c #DFA17F",
"e@	c #DFA17E",
"f@	c #391E1E",
"g@	c #47314F",
"h@	c #523D6C",
"i@	c #6E4040",
"j@	c #585357",
"k@	c #3D6269",
"l@	c #756434",
"m@	c #A28A46",
"n@	c #1C1A34",
"o@	c #1B1A36",
"p@	c #191933",
"q@	c #BC866E",
"r@	c #BD866D",
"s@	c #191835",
"t@	c #2F2E5D",
"u@	c #3F3B76",
"v@	c #7F4649",
"w@	c #5B3232",
"x@	c #8BCAD7",
"y@	c #BEDFE4",
"z@	c #EFF4F4",
"A@	c #C7E4E5",
"B@	c #C6E3E5",
"C@	c #8BCBD7",
"D@	c #020101",
"E@	c #3E3C78",
"F@	c #3D3C77",
"G@	c #3D3C78",
"H@	c #3D3C79",
"I@	c #3E3C76",
"J@	c #5A3331",
"K@	c #8CCBD7",
"L@	c #97CFD9",
"M@	c #9DD1DB",
"N@	c #020103",
"O@	c #752C2B",
"P@	c #A03E3D",
"Q@	c #383464",
"R@	c #373566",
"S@	c #373466",
"T@	c #312F5D",
"U@	c #1D1B37",
"V@	c #3D3D76",
"W@	c #5A4168",
"X@	c #724454",
"Y@	c #3B2122",
"Z@	c #738E92",
"`@	c #95BFC6",
" #	c #E8F1F2",
".#	c #C7E3E5",
"+#	c #50686C",
"@#	c #815759",
"##	c #A43F3E",
"$#	c #5C3E6C",
"%#	c #653D6C",
"&#	c #373667",
"*#	c #47566C",
"=#	c #51696D",
"-#	c #383767",
";#	c #573B57",
">#	c #704040",
",#	c #86ACB1",
"'#	c #B2DBE0",
")#	c #B5DCE1",
"!#	c #7A9DA3",
"~#	c #7F4647",
"{#	c #BC4441",
"]#	c #020204",
"^#	c #010104",
"/#	c #9ECAD1",
"(#	c #93BDC3",
"_#	c #3F2425",
":#	c #502325",
"<#	c #5E2424",
"[#	c #93BCC3",
"}#	c #93BCC2",
"|#	c #B3DBE0",
"1#	c #C3E2E4",
"2#	c #4F676B",
"3#	c #9EC4CD",
"4#	c #A0C5CE",
"5#	c #BDD1D4",
"6#	c #BBD0D4",
"                                              . + + + @         ",
"                                              # + + + $         ",
"                      % & * * = * = - - % . + + + @           ; ",
"                > , , ' ) ! ~ { ~ ~ { ~ ] ^ / ( _ $         : < ",
"                [ } | 1 2 3 4 4 4 4 4 5 6 | 7 8           9 + 0 ",
"              a b | c d e 4 f 4 4 4 4 f g h h i j k k l . < m n ",
"              o p q r s t u f 4 4 4 4 4 v w x y z A A B + C D E ",
"            # o 1 F F G H u 4 4 4 4 4 I J K L M N A O P Q n R S ",
"          : + o T G F F H U V U W W U X Y Z `  ...+.@.Q D #.+ $.",
"        9 ; + %.&.*.F F F H F F F F =.-.;.>.>.,.'.).!.~.#.S {.].",
"        + + + ^./.(.r F F F F F F F _.:.<.[.[.[.[.[.}.|.+ {.1.2.",
"    < < + + 3.4.5.6.7.8.9.9.9.9.p 0.a.b.c.d.d.e.f.d.g.h.i.j.1.2.",
"    + + + _ A k.l.m.n.o.p.p.p.p.q.r.s.t.u.v.v.w.x.y.z.$.1.1.1.2.",
"    + + A.A.A B.C.m.m.l.D.E.C.m.F.G.H.m.I.J.J.K.L.M.N.O.1.1.1.2.",
"    + +   l A P.Q.R.E.S.T.U.V.m.W.X.Y.m.Z.`. +.+N ++@+1.1.1.1.2.",
"#+#+A.$+  l A A %+m.&+*+=+-+;+>+,+'+)+!+~+{+]+^+/+(+1.1.1.1.1.2.",
"+ +       l A _+:+m.<+[+}+|+1+,+2+2+3+2+3+4+5+6+@+1.1.1.1.1.1.2.",
"7+$.        8+9+0+a+b+c+d+e+f+2+2+2+,+g+h+i+j+k+@+1.1.1.1.1.1.2.",
"          : + l+m+n+o+p+q+r+s+t+t+u+v+w+x+y+@+1.1.1.1.1.1.1.1.2.",
"        z+A+B+C+D+m.E+F+G+m.H+I+J+K+7 z L+M+@+1.1.1.1.1.1.1.1.2.",
"        + l+D N+O+P+Q+R+S+m.T+U+V+W+X+Y+Z+`+1.1.1.1.1.1.1.1.1.2.",
"    A+A+ @.@M.+@@@#@#@$@%@&@*@=@-@;@-@>@,@'@)@!@~@~@~@~@~@~@~@{@",
"    + + D ]@+ +@^@/@/@(@D._@1 :@<@[@}@w+| L.|@1@A A A A A A A A ",
"    .@2@3@4@5@6@7@8@9@0@E.a@b@c@d@e@d@f@g@h@i@j@k@A A A A A A _+",
"  : D D + _ A l.l@m@m@l@D.n@o@p@q@r@q@s@t@u@v@w@E.A A A A A A x@",
"y@y@4@z@A@B@C@+@D@C.E.m.m.E@F@G@m.m.m.F@H@I@v@J@+@C@C@C@C@K@L@M@",
"D D + +       N@O@P@Q@R@S@|.T@U@m.D.D.V@W@X@Y@Z@`@        9 + + ",
" # #.#B@      +#@###h@$#%#&#*#=#=#=#=#-#;#>#=#,#      : '#)#+ _ ",
"                !#D.~#T {#m.!#        ]#l.^#          # + + + $ ",
"                /#(#_#:#<#(#/#        [#}#}#      : |#)#+ _ B@1#",
"                    2#+#2#                        # + + + $     ",
"3#3#3#3#3#3#3#3#3#3#3#3#3#3#3#3#3#3#3#3#3#3#3#3#3#4#5#5#5#6#3#3#"};
