/* XPM */
static char *wall_xpm[] = {
/* columns rows colors chars-per-pixel */
"32 32 4 1",
". c #AABBCC",
"X c #556677",
"o c #000000",
"x c #778899",
/* pixels */
"................................",
"................................",
"................................",
"................................",
"................................",
"...........ooooo................",
"..........ooXXXXXoo.............",
".........oXXxxXXXXXo............",
"........oXxx..xXXXXXo...........",
".......oXx....xXXXXXXXo.........",
"......oXxx...XXXXXXXXXXo........",
".....oXx....XXXXXXXXXXXXo.......",
".....oX....XXXXXXXXXXXXXXo......",
"....oX....XXXXXXXXXXXXXXXo......",
"....oX...XXXXXXXXXXXXXXXXXo.....",
"...oX...XXXXXXXXXXXXXXXXXXXo....",
"...oX..XXXXXXXXXXXXXXXXXXXXo....",
"...oX..XXXXXXXXXXXXXXXXXXXXo....",
"...oX.XXXXXXXXXXXXXXXXXXXXXo....",
"...ooXXXXXXXXXXXXXXXXXXXXXXo....",
"....oXXXXXXXXXXXXXXXXXXXXXXo....",
"....oXXXXXXXXXXXXXXXXXXXXXo.....",
".....oXXXXXXXXXXXXXXXXXXXXo.....",
"......oXXXXXXXXXXXXXXXXXXo......",
".......ooXXXXXXXXXXXXXXXoo......",
"........ooooXXXXXXXXoooo........",
"...........ooooooooo............",
"................................",
"................................",
"................................",
"................................",
"................................"
};
